(G-CODE GENERATED BY FLATCAM v8.994 - www.flatcam.org - Version Date: 2020/11/7)

(Name: Drill_PTH_Through.DRL_mill_cnc)
(Type: G-code from Geometry)
(Units: MM)

(Created on Thursday, 29 August 2024 at 21:22)

(This preprocessor is the default preprocessor used by FlatCAM.)
(It is made to work with MACH3 compatible motion controllers.)

(TOOL DIAMETER: 1.501 mm)
(Feedrate_XY: 120.0 mm/min)
(Feedrate_Z: 60.0 mm/min)
(Feedrate rapids 1500.0 mm/min)

(Z_Cut: -2.4 mm)
(DepthPerCut: 0.8 mm <=>3 passes)
(Z_Move: 2.0 mm)
(Z Start: None mm)
(Z End: 15.0 mm)
(X,Y End: None mm)
(Steps per circle: 64)
(Preprocessor Geometry: default)

(X range:    6.7486 ...  162.0516  mm)
(Y range:    6.4610 ...   56.5400  mm)

(Spindle Speed: 0.0 RPM)
G21
G90
G94

G01 F120.00

M5
G00 Z15.0000
G00 X0.0000 Y0.0000
T1
M6    
(MSG, Change to Tool Dia = 1.5010)
M0
G00 Z15.0000

M03
G01 F120.00
G00 X16.7486 Y6.4610
G01 F60.00
G01 Z-0.8000
G01 F120.00
G01 X16.7486 Y6.4610
G01 X16.7486 Y6.4610
G01 X16.7486 Y6.4610
G01 X16.7486 Y6.4610
G00 X16.7486 Y6.4610
G01 F60.00
G01 Z-1.6000
G01 F120.00
G01 X16.7486 Y6.4610
G01 X16.7486 Y6.4610
G01 X16.7486 Y6.4610
G01 X16.7486 Y6.4610
G00 X16.7486 Y6.4610
G01 F60.00
G01 Z-2.4000
G01 F120.00
G01 X16.7486 Y6.4610
G01 X16.7486 Y6.4610
G01 X16.7486 Y6.4610
G01 X16.7486 Y6.4610
G00 Z2.0000
G00 X16.7486 Y11.5410
G01 F60.00
G01 Z-0.8000
G01 F120.00
G01 X16.7486 Y11.5410
G01 X16.7486 Y11.5410
G01 X16.7486 Y11.5410
G01 X16.7486 Y11.5410
G00 X16.7486 Y11.5410
G01 F60.00
G01 Z-1.6000
G01 F120.00
G01 X16.7486 Y11.5410
G01 X16.7486 Y11.5410
G01 X16.7486 Y11.5410
G01 X16.7486 Y11.5410
G00 X16.7486 Y11.5410
G01 F60.00
G01 Z-2.4000
G01 F120.00
G01 X16.7486 Y11.5410
G01 X16.7486 Y11.5410
G01 X16.7486 Y11.5410
G01 X16.7486 Y11.5410
G00 Z2.0000
G00 X29.2506 Y11.5410
G01 F60.00
G01 Z-0.8000
G01 F120.00
G01 X29.2506 Y11.5410
G01 X29.2506 Y11.5410
G01 X29.2506 Y11.5410
G01 X29.2506 Y11.5410
G00 X29.2506 Y11.5410
G01 F60.00
G01 Z-1.6000
G01 F120.00
G01 X29.2506 Y11.5410
G01 X29.2506 Y11.5410
G01 X29.2506 Y11.5410
G01 X29.2506 Y11.5410
G00 X29.2506 Y11.5410
G01 F60.00
G01 Z-2.4000
G01 F120.00
G01 X29.2506 Y11.5410
G01 X29.2506 Y11.5410
G01 X29.2506 Y11.5410
G01 X29.2506 Y11.5410
G00 Z2.0000
G00 X29.2506 Y6.4610
G01 F60.00
G01 Z-0.8000
G01 F120.00
G01 X29.2506 Y6.4610
G01 X29.2506 Y6.4610
G01 X29.2506 Y6.4610
G01 X29.2506 Y6.4610
G00 X29.2506 Y6.4610
G01 F60.00
G01 Z-1.6000
G01 F120.00
G01 X29.2506 Y6.4610
G01 X29.2506 Y6.4610
G01 X29.2506 Y6.4610
G01 X29.2506 Y6.4610
G00 X29.2506 Y6.4610
G01 F60.00
G01 Z-2.4000
G01 F120.00
G01 X29.2506 Y6.4610
G01 X29.2506 Y6.4610
G01 X29.2506 Y6.4610
G01 X29.2506 Y6.4610
G00 Z2.0000
G00 X40.5506 Y6.4610
G01 F60.00
G01 Z-0.8000
G01 F120.00
G01 X40.5506 Y6.4610
G01 X40.5506 Y6.4610
G01 X40.5506 Y6.4610
G01 X40.5506 Y6.4610
G00 X40.5506 Y6.4610
G01 F60.00
G01 Z-1.6000
G01 F120.00
G01 X40.5506 Y6.4610
G01 X40.5506 Y6.4610
G01 X40.5506 Y6.4610
G01 X40.5506 Y6.4610
G00 X40.5506 Y6.4610
G01 F60.00
G01 Z-2.4000
G01 F120.00
G01 X40.5506 Y6.4610
G01 X40.5506 Y6.4610
G01 X40.5506 Y6.4610
G01 X40.5506 Y6.4610
G00 Z2.0000
G00 X40.5506 Y11.5410
G01 F60.00
G01 Z-0.8000
G01 F120.00
G01 X40.5506 Y11.5410
G01 X40.5506 Y11.5410
G01 X40.5506 Y11.5410
G01 X40.5506 Y11.5410
G00 X40.5506 Y11.5410
G01 F60.00
G01 Z-1.6000
G01 F120.00
G01 X40.5506 Y11.5410
G01 X40.5506 Y11.5410
G01 X40.5506 Y11.5410
G01 X40.5506 Y11.5410
G00 X40.5506 Y11.5410
G01 F60.00
G01 Z-2.4000
G01 F120.00
G01 X40.5506 Y11.5410
G01 X40.5506 Y11.5410
G01 X40.5506 Y11.5410
G01 X40.5506 Y11.5410
G00 Z2.0000
G00 X53.0526 Y11.5410
G01 F60.00
G01 Z-0.8000
G01 F120.00
G01 X53.0526 Y11.5410
G01 X53.0526 Y11.5410
G01 X53.0526 Y11.5410
G01 X53.0526 Y11.5410
G00 X53.0526 Y11.5410
G01 F60.00
G01 Z-1.6000
G01 F120.00
G01 X53.0526 Y11.5410
G01 X53.0526 Y11.5410
G01 X53.0526 Y11.5410
G01 X53.0526 Y11.5410
G00 X53.0526 Y11.5410
G01 F60.00
G01 Z-2.4000
G01 F120.00
G01 X53.0526 Y11.5410
G01 X53.0526 Y11.5410
G01 X53.0526 Y11.5410
G01 X53.0526 Y11.5410
G00 Z2.0000
G00 X53.0526 Y6.4610
G01 F60.00
G01 Z-0.8000
G01 F120.00
G01 X53.0526 Y6.4610
G01 X53.0526 Y6.4610
G01 X53.0526 Y6.4610
G01 X53.0526 Y6.4610
G00 X53.0526 Y6.4610
G01 F60.00
G01 Z-1.6000
G01 F120.00
G01 X53.0526 Y6.4610
G01 X53.0526 Y6.4610
G01 X53.0526 Y6.4610
G01 X53.0526 Y6.4610
G00 X53.0526 Y6.4610
G01 F60.00
G01 Z-2.4000
G01 F120.00
G01 X53.0526 Y6.4610
G01 X53.0526 Y6.4610
G01 X53.0526 Y6.4610
G01 X53.0526 Y6.4610
G00 Z2.0000
G00 X64.3506 Y6.4610
G01 F60.00
G01 Z-0.8000
G01 F120.00
G01 X64.3506 Y6.4610
G01 X64.3506 Y6.4610
G01 X64.3506 Y6.4610
G01 X64.3506 Y6.4610
G00 X64.3506 Y6.4610
G01 F60.00
G01 Z-1.6000
G01 F120.00
G01 X64.3506 Y6.4610
G01 X64.3506 Y6.4610
G01 X64.3506 Y6.4610
G01 X64.3506 Y6.4610
G00 X64.3506 Y6.4610
G01 F60.00
G01 Z-2.4000
G01 F120.00
G01 X64.3506 Y6.4610
G01 X64.3506 Y6.4610
G01 X64.3506 Y6.4610
G01 X64.3506 Y6.4610
G00 Z2.0000
G00 X64.3506 Y11.5410
G01 F60.00
G01 Z-0.8000
G01 F120.00
G01 X64.3506 Y11.5410
G01 X64.3506 Y11.5410
G01 X64.3506 Y11.5410
G01 X64.3506 Y11.5410
G00 X64.3506 Y11.5410
G01 F60.00
G01 Z-1.6000
G01 F120.00
G01 X64.3506 Y11.5410
G01 X64.3506 Y11.5410
G01 X64.3506 Y11.5410
G01 X64.3506 Y11.5410
G00 X64.3506 Y11.5410
G01 F60.00
G01 Z-2.4000
G01 F120.00
G01 X64.3506 Y11.5410
G01 X64.3506 Y11.5410
G01 X64.3506 Y11.5410
G01 X64.3506 Y11.5410
G00 Z2.0000
G00 X76.8526 Y11.5410
G01 F60.00
G01 Z-0.8000
G01 F120.00
G01 X76.8526 Y11.5410
G01 X76.8526 Y11.5410
G01 X76.8526 Y11.5410
G01 X76.8526 Y11.5410
G00 X76.8526 Y11.5410
G01 F60.00
G01 Z-1.6000
G01 F120.00
G01 X76.8526 Y11.5410
G01 X76.8526 Y11.5410
G01 X76.8526 Y11.5410
G01 X76.8526 Y11.5410
G00 X76.8526 Y11.5410
G01 F60.00
G01 Z-2.4000
G01 F120.00
G01 X76.8526 Y11.5410
G01 X76.8526 Y11.5410
G01 X76.8526 Y11.5410
G01 X76.8526 Y11.5410
G00 Z2.0000
G00 X76.8526 Y6.4610
G01 F60.00
G01 Z-0.8000
G01 F120.00
G01 X76.8526 Y6.4610
G01 X76.8526 Y6.4610
G01 X76.8526 Y6.4610
G01 X76.8526 Y6.4610
G00 X76.8526 Y6.4610
G01 F60.00
G01 Z-1.6000
G01 F120.00
G01 X76.8526 Y6.4610
G01 X76.8526 Y6.4610
G01 X76.8526 Y6.4610
G01 X76.8526 Y6.4610
G00 X76.8526 Y6.4610
G01 F60.00
G01 Z-2.4000
G01 F120.00
G01 X76.8526 Y6.4610
G01 X76.8526 Y6.4610
G01 X76.8526 Y6.4610
G01 X76.8526 Y6.4610
G00 Z2.0000
G00 X88.1506 Y6.4610
G01 F60.00
G01 Z-0.8000
G01 F120.00
G01 X88.1506 Y6.4610
G01 X88.1506 Y6.4610
G01 X88.1506 Y6.4610
G01 X88.1506 Y6.4610
G00 X88.1506 Y6.4610
G01 F60.00
G01 Z-1.6000
G01 F120.00
G01 X88.1506 Y6.4610
G01 X88.1506 Y6.4610
G01 X88.1506 Y6.4610
G01 X88.1506 Y6.4610
G00 X88.1506 Y6.4610
G01 F60.00
G01 Z-2.4000
G01 F120.00
G01 X88.1506 Y6.4610
G01 X88.1506 Y6.4610
G01 X88.1506 Y6.4610
G01 X88.1506 Y6.4610
G00 Z2.0000
G00 X88.1506 Y11.5410
G01 F60.00
G01 Z-0.8000
G01 F120.00
G01 X88.1506 Y11.5410
G01 X88.1506 Y11.5410
G01 X88.1506 Y11.5410
G01 X88.1506 Y11.5410
G00 X88.1506 Y11.5410
G01 F60.00
G01 Z-1.6000
G01 F120.00
G01 X88.1506 Y11.5410
G01 X88.1506 Y11.5410
G01 X88.1506 Y11.5410
G01 X88.1506 Y11.5410
G00 X88.1506 Y11.5410
G01 F60.00
G01 Z-2.4000
G01 F120.00
G01 X88.1506 Y11.5410
G01 X88.1506 Y11.5410
G01 X88.1506 Y11.5410
G01 X88.1506 Y11.5410
G00 Z2.0000
G00 X100.6526 Y11.5410
G01 F60.00
G01 Z-0.8000
G01 F120.00
G01 X100.6526 Y11.5410
G01 X100.6526 Y11.5410
G01 X100.6526 Y11.5410
G01 X100.6526 Y11.5410
G00 X100.6526 Y11.5410
G01 F60.00
G01 Z-1.6000
G01 F120.00
G01 X100.6526 Y11.5410
G01 X100.6526 Y11.5410
G01 X100.6526 Y11.5410
G01 X100.6526 Y11.5410
G00 X100.6526 Y11.5410
G01 F60.00
G01 Z-2.4000
G01 F120.00
G01 X100.6526 Y11.5410
G01 X100.6526 Y11.5410
G01 X100.6526 Y11.5410
G01 X100.6526 Y11.5410
G00 Z2.0000
G00 X100.6526 Y6.4610
G01 F60.00
G01 Z-0.8000
G01 F120.00
G01 X100.6526 Y6.4610
G01 X100.6526 Y6.4610
G01 X100.6526 Y6.4610
G01 X100.6526 Y6.4610
G00 X100.6526 Y6.4610
G01 F60.00
G01 Z-1.6000
G01 F120.00
G01 X100.6526 Y6.4610
G01 X100.6526 Y6.4610
G01 X100.6526 Y6.4610
G01 X100.6526 Y6.4610
G00 X100.6526 Y6.4610
G01 F60.00
G01 Z-2.4000
G01 F120.00
G01 X100.6526 Y6.4610
G01 X100.6526 Y6.4610
G01 X100.6526 Y6.4610
G01 X100.6526 Y6.4610
G00 Z2.0000
G00 X111.9506 Y6.4610
G01 F60.00
G01 Z-0.8000
G01 F120.00
G01 X111.9506 Y6.4610
G01 X111.9506 Y6.4610
G01 X111.9506 Y6.4610
G01 X111.9506 Y6.4610
G00 X111.9506 Y6.4610
G01 F60.00
G01 Z-1.6000
G01 F120.00
G01 X111.9506 Y6.4610
G01 X111.9506 Y6.4610
G01 X111.9506 Y6.4610
G01 X111.9506 Y6.4610
G00 X111.9506 Y6.4610
G01 F60.00
G01 Z-2.4000
G01 F120.00
G01 X111.9506 Y6.4610
G01 X111.9506 Y6.4610
G01 X111.9506 Y6.4610
G01 X111.9506 Y6.4610
G00 Z2.0000
G00 X111.9506 Y11.5410
G01 F60.00
G01 Z-0.8000
G01 F120.00
G01 X111.9506 Y11.5410
G01 X111.9506 Y11.5410
G01 X111.9506 Y11.5410
G01 X111.9506 Y11.5410
G00 X111.9506 Y11.5410
G01 F60.00
G01 Z-1.6000
G01 F120.00
G01 X111.9506 Y11.5410
G01 X111.9506 Y11.5410
G01 X111.9506 Y11.5410
G01 X111.9506 Y11.5410
G00 X111.9506 Y11.5410
G01 F60.00
G01 Z-2.4000
G01 F120.00
G01 X111.9506 Y11.5410
G01 X111.9506 Y11.5410
G01 X111.9506 Y11.5410
G01 X111.9506 Y11.5410
G00 Z2.0000
G00 X124.4526 Y11.5410
G01 F60.00
G01 Z-0.8000
G01 F120.00
G01 X124.4526 Y11.5410
G01 X124.4526 Y11.5410
G01 X124.4526 Y11.5410
G01 X124.4526 Y11.5410
G00 X124.4526 Y11.5410
G01 F60.00
G01 Z-1.6000
G01 F120.00
G01 X124.4526 Y11.5410
G01 X124.4526 Y11.5410
G01 X124.4526 Y11.5410
G01 X124.4526 Y11.5410
G00 X124.4526 Y11.5410
G01 F60.00
G01 Z-2.4000
G01 F120.00
G01 X124.4526 Y11.5410
G01 X124.4526 Y11.5410
G01 X124.4526 Y11.5410
G01 X124.4526 Y11.5410
G00 Z2.0000
G00 X124.4526 Y6.4610
G01 F60.00
G01 Z-0.8000
G01 F120.00
G01 X124.4526 Y6.4610
G01 X124.4526 Y6.4610
G01 X124.4526 Y6.4610
G01 X124.4526 Y6.4610
G00 X124.4526 Y6.4610
G01 F60.00
G01 Z-1.6000
G01 F120.00
G01 X124.4526 Y6.4610
G01 X124.4526 Y6.4610
G01 X124.4526 Y6.4610
G01 X124.4526 Y6.4610
G00 X124.4526 Y6.4610
G01 F60.00
G01 Z-2.4000
G01 F120.00
G01 X124.4526 Y6.4610
G01 X124.4526 Y6.4610
G01 X124.4526 Y6.4610
G01 X124.4526 Y6.4610
G00 Z2.0000
G00 X135.7506 Y6.4610
G01 F60.00
G01 Z-0.8000
G01 F120.00
G01 X135.7506 Y6.4610
G01 X135.7506 Y6.4610
G01 X135.7506 Y6.4610
G01 X135.7506 Y6.4610
G00 X135.7506 Y6.4610
G01 F60.00
G01 Z-1.6000
G01 F120.00
G01 X135.7506 Y6.4610
G01 X135.7506 Y6.4610
G01 X135.7506 Y6.4610
G01 X135.7506 Y6.4610
G00 X135.7506 Y6.4610
G01 F60.00
G01 Z-2.4000
G01 F120.00
G01 X135.7506 Y6.4610
G01 X135.7506 Y6.4610
G01 X135.7506 Y6.4610
G01 X135.7506 Y6.4610
G00 Z2.0000
G00 X135.7506 Y11.5410
G01 F60.00
G01 Z-0.8000
G01 F120.00
G01 X135.7506 Y11.5410
G01 X135.7506 Y11.5410
G01 X135.7506 Y11.5410
G01 X135.7506 Y11.5410
G00 X135.7506 Y11.5410
G01 F60.00
G01 Z-1.6000
G01 F120.00
G01 X135.7506 Y11.5410
G01 X135.7506 Y11.5410
G01 X135.7506 Y11.5410
G01 X135.7506 Y11.5410
G00 X135.7506 Y11.5410
G01 F60.00
G01 Z-2.4000
G01 F120.00
G01 X135.7506 Y11.5410
G01 X135.7506 Y11.5410
G01 X135.7506 Y11.5410
G01 X135.7506 Y11.5410
G00 Z2.0000
G00 X148.2526 Y11.5410
G01 F60.00
G01 Z-0.8000
G01 F120.00
G01 X148.2526 Y11.5410
G01 X148.2526 Y11.5410
G01 X148.2526 Y11.5410
G01 X148.2526 Y11.5410
G00 X148.2526 Y11.5410
G01 F60.00
G01 Z-1.6000
G01 F120.00
G01 X148.2526 Y11.5410
G01 X148.2526 Y11.5410
G01 X148.2526 Y11.5410
G01 X148.2526 Y11.5410
G00 X148.2526 Y11.5410
G01 F60.00
G01 Z-2.4000
G01 F120.00
G01 X148.2526 Y11.5410
G01 X148.2526 Y11.5410
G01 X148.2526 Y11.5410
G01 X148.2526 Y11.5410
G00 Z2.0000
G00 X148.2526 Y6.4610
G01 F60.00
G01 Z-0.8000
G01 F120.00
G01 X148.2526 Y6.4610
G01 X148.2526 Y6.4610
G01 X148.2526 Y6.4610
G01 X148.2526 Y6.4610
G00 X148.2526 Y6.4610
G01 F60.00
G01 Z-1.6000
G01 F120.00
G01 X148.2526 Y6.4610
G01 X148.2526 Y6.4610
G01 X148.2526 Y6.4610
G01 X148.2526 Y6.4610
G00 X148.2526 Y6.4610
G01 F60.00
G01 Z-2.4000
G01 F120.00
G01 X148.2526 Y6.4610
G01 X148.2526 Y6.4610
G01 X148.2526 Y6.4610
G01 X148.2526 Y6.4610
G00 Z2.0000
G00 X149.5496 Y51.4600
G01 F60.00
G01 Z-0.8000
G01 F120.00
G01 X149.5496 Y51.4600
G01 X149.5496 Y51.4600
G01 X149.5496 Y51.4600
G01 X149.5496 Y51.4600
G00 X149.5496 Y51.4600
G01 F60.00
G01 Z-1.6000
G01 F120.00
G01 X149.5496 Y51.4600
G01 X149.5496 Y51.4600
G01 X149.5496 Y51.4600
G01 X149.5496 Y51.4600
G00 X149.5496 Y51.4600
G01 F60.00
G01 Z-2.4000
G01 F120.00
G01 X149.5496 Y51.4600
G01 X149.5496 Y51.4600
G01 X149.5496 Y51.4600
G01 X149.5496 Y51.4600
G00 Z2.0000
G00 X149.5496 Y56.5400
G01 F60.00
G01 Z-0.8000
G01 F120.00
G01 X149.5496 Y56.5400
G01 X149.5496 Y56.5400
G01 X149.5496 Y56.5400
G01 X149.5496 Y56.5400
G00 X149.5496 Y56.5400
G01 F60.00
G01 Z-1.6000
G01 F120.00
G01 X149.5496 Y56.5400
G01 X149.5496 Y56.5400
G01 X149.5496 Y56.5400
G01 X149.5496 Y56.5400
G00 X149.5496 Y56.5400
G01 F60.00
G01 Z-2.4000
G01 F120.00
G01 X149.5496 Y56.5400
G01 X149.5496 Y56.5400
G01 X149.5496 Y56.5400
G01 X149.5496 Y56.5400
G00 Z2.0000
G00 X138.2526 Y56.5400
G01 F60.00
G01 Z-0.8000
G01 F120.00
G01 X138.2526 Y56.5400
G01 X138.2526 Y56.5400
G01 X138.2526 Y56.5400
G01 X138.2526 Y56.5400
G00 X138.2526 Y56.5400
G01 F60.00
G01 Z-1.6000
G01 F120.00
G01 X138.2526 Y56.5400
G01 X138.2526 Y56.5400
G01 X138.2526 Y56.5400
G01 X138.2526 Y56.5400
G00 X138.2526 Y56.5400
G01 F60.00
G01 Z-2.4000
G01 F120.00
G01 X138.2526 Y56.5400
G01 X138.2526 Y56.5400
G01 X138.2526 Y56.5400
G01 X138.2526 Y56.5400
G00 Z2.0000
G00 X138.2526 Y51.4600
G01 F60.00
G01 Z-0.8000
G01 F120.00
G01 X138.2526 Y51.4600
G01 X138.2526 Y51.4600
G01 X138.2526 Y51.4600
G01 X138.2526 Y51.4600
G00 X138.2526 Y51.4600
G01 F60.00
G01 Z-1.6000
G01 F120.00
G01 X138.2526 Y51.4600
G01 X138.2526 Y51.4600
G01 X138.2526 Y51.4600
G01 X138.2526 Y51.4600
G00 X138.2526 Y51.4600
G01 F60.00
G01 Z-2.4000
G01 F120.00
G01 X138.2526 Y51.4600
G01 X138.2526 Y51.4600
G01 X138.2526 Y51.4600
G01 X138.2526 Y51.4600
G00 Z2.0000
G00 X125.7506 Y51.4600
G01 F60.00
G01 Z-0.8000
G01 F120.00
G01 X125.7506 Y51.4600
G01 X125.7506 Y51.4600
G01 X125.7506 Y51.4600
G01 X125.7506 Y51.4600
G00 X125.7506 Y51.4600
G01 F60.00
G01 Z-1.6000
G01 F120.00
G01 X125.7506 Y51.4600
G01 X125.7506 Y51.4600
G01 X125.7506 Y51.4600
G01 X125.7506 Y51.4600
G00 X125.7506 Y51.4600
G01 F60.00
G01 Z-2.4000
G01 F120.00
G01 X125.7506 Y51.4600
G01 X125.7506 Y51.4600
G01 X125.7506 Y51.4600
G01 X125.7506 Y51.4600
G00 Z2.0000
G00 X125.7506 Y56.5400
G01 F60.00
G01 Z-0.8000
G01 F120.00
G01 X125.7506 Y56.5400
G01 X125.7506 Y56.5400
G01 X125.7506 Y56.5400
G01 X125.7506 Y56.5400
G00 X125.7506 Y56.5400
G01 F60.00
G01 Z-1.6000
G01 F120.00
G01 X125.7506 Y56.5400
G01 X125.7506 Y56.5400
G01 X125.7506 Y56.5400
G01 X125.7506 Y56.5400
G00 X125.7506 Y56.5400
G01 F60.00
G01 Z-2.4000
G01 F120.00
G01 X125.7506 Y56.5400
G01 X125.7506 Y56.5400
G01 X125.7506 Y56.5400
G01 X125.7506 Y56.5400
G00 Z2.0000
G00 X114.4526 Y56.5400
G01 F60.00
G01 Z-0.8000
G01 F120.00
G01 X114.4526 Y56.5400
G01 X114.4526 Y56.5400
G01 X114.4526 Y56.5400
G01 X114.4526 Y56.5400
G00 X114.4526 Y56.5400
G01 F60.00
G01 Z-1.6000
G01 F120.00
G01 X114.4526 Y56.5400
G01 X114.4526 Y56.5400
G01 X114.4526 Y56.5400
G01 X114.4526 Y56.5400
G00 X114.4526 Y56.5400
G01 F60.00
G01 Z-2.4000
G01 F120.00
G01 X114.4526 Y56.5400
G01 X114.4526 Y56.5400
G01 X114.4526 Y56.5400
G01 X114.4526 Y56.5400
G00 Z2.0000
G00 X114.4526 Y51.4600
G01 F60.00
G01 Z-0.8000
G01 F120.00
G01 X114.4526 Y51.4600
G01 X114.4526 Y51.4600
G01 X114.4526 Y51.4600
G01 X114.4526 Y51.4600
G00 X114.4526 Y51.4600
G01 F60.00
G01 Z-1.6000
G01 F120.00
G01 X114.4526 Y51.4600
G01 X114.4526 Y51.4600
G01 X114.4526 Y51.4600
G01 X114.4526 Y51.4600
G00 X114.4526 Y51.4600
G01 F60.00
G01 Z-2.4000
G01 F120.00
G01 X114.4526 Y51.4600
G01 X114.4526 Y51.4600
G01 X114.4526 Y51.4600
G01 X114.4526 Y51.4600
G00 Z2.0000
G00 X101.9506 Y51.4600
G01 F60.00
G01 Z-0.8000
G01 F120.00
G01 X101.9506 Y51.4600
G01 X101.9506 Y51.4600
G01 X101.9506 Y51.4600
G01 X101.9506 Y51.4600
G00 X101.9506 Y51.4600
G01 F60.00
G01 Z-1.6000
G01 F120.00
G01 X101.9506 Y51.4600
G01 X101.9506 Y51.4600
G01 X101.9506 Y51.4600
G01 X101.9506 Y51.4600
G00 X101.9506 Y51.4600
G01 F60.00
G01 Z-2.4000
G01 F120.00
G01 X101.9506 Y51.4600
G01 X101.9506 Y51.4600
G01 X101.9506 Y51.4600
G01 X101.9506 Y51.4600
G00 Z2.0000
G00 X101.9506 Y56.5400
G01 F60.00
G01 Z-0.8000
G01 F120.00
G01 X101.9506 Y56.5400
G01 X101.9506 Y56.5400
G01 X101.9506 Y56.5400
G01 X101.9506 Y56.5400
G00 X101.9506 Y56.5400
G01 F60.00
G01 Z-1.6000
G01 F120.00
G01 X101.9506 Y56.5400
G01 X101.9506 Y56.5400
G01 X101.9506 Y56.5400
G01 X101.9506 Y56.5400
G00 X101.9506 Y56.5400
G01 F60.00
G01 Z-2.4000
G01 F120.00
G01 X101.9506 Y56.5400
G01 X101.9506 Y56.5400
G01 X101.9506 Y56.5400
G01 X101.9506 Y56.5400
G00 Z2.0000
G00 X90.6526 Y56.5400
G01 F60.00
G01 Z-0.8000
G01 F120.00
G01 X90.6526 Y56.5400
G01 X90.6526 Y56.5400
G01 X90.6526 Y56.5400
G01 X90.6526 Y56.5400
G00 X90.6526 Y56.5400
G01 F60.00
G01 Z-1.6000
G01 F120.00
G01 X90.6526 Y56.5400
G01 X90.6526 Y56.5400
G01 X90.6526 Y56.5400
G01 X90.6526 Y56.5400
G00 X90.6526 Y56.5400
G01 F60.00
G01 Z-2.4000
G01 F120.00
G01 X90.6526 Y56.5400
G01 X90.6526 Y56.5400
G01 X90.6526 Y56.5400
G01 X90.6526 Y56.5400
G00 Z2.0000
G00 X90.6526 Y51.4600
G01 F60.00
G01 Z-0.8000
G01 F120.00
G01 X90.6526 Y51.4600
G01 X90.6526 Y51.4600
G01 X90.6526 Y51.4600
G01 X90.6526 Y51.4600
G00 X90.6526 Y51.4600
G01 F60.00
G01 Z-1.6000
G01 F120.00
G01 X90.6526 Y51.4600
G01 X90.6526 Y51.4600
G01 X90.6526 Y51.4600
G01 X90.6526 Y51.4600
G00 X90.6526 Y51.4600
G01 F60.00
G01 Z-2.4000
G01 F120.00
G01 X90.6526 Y51.4600
G01 X90.6526 Y51.4600
G01 X90.6526 Y51.4600
G01 X90.6526 Y51.4600
G00 Z2.0000
G00 X78.1506 Y51.4600
G01 F60.00
G01 Z-0.8000
G01 F120.00
G01 X78.1506 Y51.4600
G01 X78.1506 Y51.4600
G01 X78.1506 Y51.4600
G01 X78.1506 Y51.4600
G00 X78.1506 Y51.4600
G01 F60.00
G01 Z-1.6000
G01 F120.00
G01 X78.1506 Y51.4600
G01 X78.1506 Y51.4600
G01 X78.1506 Y51.4600
G01 X78.1506 Y51.4600
G00 X78.1506 Y51.4600
G01 F60.00
G01 Z-2.4000
G01 F120.00
G01 X78.1506 Y51.4600
G01 X78.1506 Y51.4600
G01 X78.1506 Y51.4600
G01 X78.1506 Y51.4600
G00 Z2.0000
G00 X78.1506 Y56.5400
G01 F60.00
G01 Z-0.8000
G01 F120.00
G01 X78.1506 Y56.5400
G01 X78.1506 Y56.5400
G01 X78.1506 Y56.5400
G01 X78.1506 Y56.5400
G00 X78.1506 Y56.5400
G01 F60.00
G01 Z-1.6000
G01 F120.00
G01 X78.1506 Y56.5400
G01 X78.1506 Y56.5400
G01 X78.1506 Y56.5400
G01 X78.1506 Y56.5400
G00 X78.1506 Y56.5400
G01 F60.00
G01 Z-2.4000
G01 F120.00
G01 X78.1506 Y56.5400
G01 X78.1506 Y56.5400
G01 X78.1506 Y56.5400
G01 X78.1506 Y56.5400
G00 Z2.0000
G00 X66.8526 Y56.5400
G01 F60.00
G01 Z-0.8000
G01 F120.00
G01 X66.8526 Y56.5400
G01 X66.8526 Y56.5400
G01 X66.8526 Y56.5400
G01 X66.8526 Y56.5400
G00 X66.8526 Y56.5400
G01 F60.00
G01 Z-1.6000
G01 F120.00
G01 X66.8526 Y56.5400
G01 X66.8526 Y56.5400
G01 X66.8526 Y56.5400
G01 X66.8526 Y56.5400
G00 X66.8526 Y56.5400
G01 F60.00
G01 Z-2.4000
G01 F120.00
G01 X66.8526 Y56.5400
G01 X66.8526 Y56.5400
G01 X66.8526 Y56.5400
G01 X66.8526 Y56.5400
G00 Z2.0000
G00 X66.8526 Y51.4600
G01 F60.00
G01 Z-0.8000
G01 F120.00
G01 X66.8526 Y51.4600
G01 X66.8526 Y51.4600
G01 X66.8526 Y51.4600
G01 X66.8526 Y51.4600
G00 X66.8526 Y51.4600
G01 F60.00
G01 Z-1.6000
G01 F120.00
G01 X66.8526 Y51.4600
G01 X66.8526 Y51.4600
G01 X66.8526 Y51.4600
G01 X66.8526 Y51.4600
G00 X66.8526 Y51.4600
G01 F60.00
G01 Z-2.4000
G01 F120.00
G01 X66.8526 Y51.4600
G01 X66.8526 Y51.4600
G01 X66.8526 Y51.4600
G01 X66.8526 Y51.4600
G00 Z2.0000
G00 X54.3506 Y51.4600
G01 F60.00
G01 Z-0.8000
G01 F120.00
G01 X54.3506 Y51.4600
G01 X54.3506 Y51.4600
G01 X54.3506 Y51.4600
G01 X54.3506 Y51.4600
G00 X54.3506 Y51.4600
G01 F60.00
G01 Z-1.6000
G01 F120.00
G01 X54.3506 Y51.4600
G01 X54.3506 Y51.4600
G01 X54.3506 Y51.4600
G01 X54.3506 Y51.4600
G00 X54.3506 Y51.4600
G01 F60.00
G01 Z-2.4000
G01 F120.00
G01 X54.3506 Y51.4600
G01 X54.3506 Y51.4600
G01 X54.3506 Y51.4600
G01 X54.3506 Y51.4600
G00 Z2.0000
G00 X54.3506 Y56.5400
G01 F60.00
G01 Z-0.8000
G01 F120.00
G01 X54.3506 Y56.5400
G01 X54.3506 Y56.5400
G01 X54.3506 Y56.5400
G01 X54.3506 Y56.5400
G00 X54.3506 Y56.5400
G01 F60.00
G01 Z-1.6000
G01 F120.00
G01 X54.3506 Y56.5400
G01 X54.3506 Y56.5400
G01 X54.3506 Y56.5400
G01 X54.3506 Y56.5400
G00 X54.3506 Y56.5400
G01 F60.00
G01 Z-2.4000
G01 F120.00
G01 X54.3506 Y56.5400
G01 X54.3506 Y56.5400
G01 X54.3506 Y56.5400
G01 X54.3506 Y56.5400
G00 Z2.0000
G00 X43.0526 Y56.5400
G01 F60.00
G01 Z-0.8000
G01 F120.00
G01 X43.0526 Y56.5400
G01 X43.0526 Y56.5400
G01 X43.0526 Y56.5400
G01 X43.0526 Y56.5400
G00 X43.0526 Y56.5400
G01 F60.00
G01 Z-1.6000
G01 F120.00
G01 X43.0526 Y56.5400
G01 X43.0526 Y56.5400
G01 X43.0526 Y56.5400
G01 X43.0526 Y56.5400
G00 X43.0526 Y56.5400
G01 F60.00
G01 Z-2.4000
G01 F120.00
G01 X43.0526 Y56.5400
G01 X43.0526 Y56.5400
G01 X43.0526 Y56.5400
G01 X43.0526 Y56.5400
G00 Z2.0000
G00 X43.0526 Y51.4600
G01 F60.00
G01 Z-0.8000
G01 F120.00
G01 X43.0526 Y51.4600
G01 X43.0526 Y51.4600
G01 X43.0526 Y51.4600
G01 X43.0526 Y51.4600
G00 X43.0526 Y51.4600
G01 F60.00
G01 Z-1.6000
G01 F120.00
G01 X43.0526 Y51.4600
G01 X43.0526 Y51.4600
G01 X43.0526 Y51.4600
G01 X43.0526 Y51.4600
G00 X43.0526 Y51.4600
G01 F60.00
G01 Z-2.4000
G01 F120.00
G01 X43.0526 Y51.4600
G01 X43.0526 Y51.4600
G01 X43.0526 Y51.4600
G01 X43.0526 Y51.4600
G00 Z2.0000
G00 X30.5506 Y51.4600
G01 F60.00
G01 Z-0.8000
G01 F120.00
G01 X30.5506 Y51.4600
G01 X30.5506 Y51.4600
G01 X30.5506 Y51.4600
G01 X30.5506 Y51.4600
G00 X30.5506 Y51.4600
G01 F60.00
G01 Z-1.6000
G01 F120.00
G01 X30.5506 Y51.4600
G01 X30.5506 Y51.4600
G01 X30.5506 Y51.4600
G01 X30.5506 Y51.4600
G00 X30.5506 Y51.4600
G01 F60.00
G01 Z-2.4000
G01 F120.00
G01 X30.5506 Y51.4600
G01 X30.5506 Y51.4600
G01 X30.5506 Y51.4600
G01 X30.5506 Y51.4600
G00 Z2.0000
G00 X30.5506 Y56.5400
G01 F60.00
G01 Z-0.8000
G01 F120.00
G01 X30.5506 Y56.5400
G01 X30.5506 Y56.5400
G01 X30.5506 Y56.5400
G01 X30.5506 Y56.5400
G00 X30.5506 Y56.5400
G01 F60.00
G01 Z-1.6000
G01 F120.00
G01 X30.5506 Y56.5400
G01 X30.5506 Y56.5400
G01 X30.5506 Y56.5400
G01 X30.5506 Y56.5400
G00 X30.5506 Y56.5400
G01 F60.00
G01 Z-2.4000
G01 F120.00
G01 X30.5506 Y56.5400
G01 X30.5506 Y56.5400
G01 X30.5506 Y56.5400
G01 X30.5506 Y56.5400
G00 Z2.0000
G00 X19.2506 Y56.5400
G01 F60.00
G01 Z-0.8000
G01 F120.00
G01 X19.2506 Y56.5400
G01 X19.2506 Y56.5400
G01 X19.2506 Y56.5400
G01 X19.2506 Y56.5400
G00 X19.2506 Y56.5400
G01 F60.00
G01 Z-1.6000
G01 F120.00
G01 X19.2506 Y56.5400
G01 X19.2506 Y56.5400
G01 X19.2506 Y56.5400
G01 X19.2506 Y56.5400
G00 X19.2506 Y56.5400
G01 F60.00
G01 Z-2.4000
G01 F120.00
G01 X19.2506 Y56.5400
G01 X19.2506 Y56.5400
G01 X19.2506 Y56.5400
G01 X19.2506 Y56.5400
G00 Z2.0000
G00 X19.2506 Y51.4600
G01 F60.00
G01 Z-0.8000
G01 F120.00
G01 X19.2506 Y51.4600
G01 X19.2506 Y51.4600
G01 X19.2506 Y51.4600
G01 X19.2506 Y51.4600
G00 X19.2506 Y51.4600
G01 F60.00
G01 Z-1.6000
G01 F120.00
G01 X19.2506 Y51.4600
G01 X19.2506 Y51.4600
G01 X19.2506 Y51.4600
G01 X19.2506 Y51.4600
G00 X19.2506 Y51.4600
G01 F60.00
G01 Z-2.4000
G01 F120.00
G01 X19.2506 Y51.4600
G01 X19.2506 Y51.4600
G01 X19.2506 Y51.4600
G01 X19.2506 Y51.4600
G00 Z2.0000
G00 X6.7486 Y51.4600
G01 F60.00
G01 Z-0.8000
G01 F120.00
G01 X6.7486 Y51.4600
G01 X6.7486 Y51.4600
G01 X6.7486 Y51.4600
G01 X6.7486 Y51.4600
G00 X6.7486 Y51.4600
G01 F60.00
G01 Z-1.6000
G01 F120.00
G01 X6.7486 Y51.4600
G01 X6.7486 Y51.4600
G01 X6.7486 Y51.4600
G01 X6.7486 Y51.4600
G00 X6.7486 Y51.4600
G01 F60.00
G01 Z-2.4000
G01 F120.00
G01 X6.7486 Y51.4600
G01 X6.7486 Y51.4600
G01 X6.7486 Y51.4600
G01 X6.7486 Y51.4600
G00 Z2.0000
G00 X6.7486 Y56.5400
G01 F60.00
G01 Z-0.8000
G01 F120.00
G01 X6.7486 Y56.5400
G01 X6.7486 Y56.5400
G01 X6.7486 Y56.5400
G01 X6.7486 Y56.5400
G00 X6.7486 Y56.5400
G01 F60.00
G01 Z-1.6000
G01 F120.00
G01 X6.7486 Y56.5400
G01 X6.7486 Y56.5400
G01 X6.7486 Y56.5400
G01 X6.7486 Y56.5400
G00 X6.7486 Y56.5400
G01 F60.00
G01 Z-2.4000
G01 F120.00
G01 X6.7486 Y56.5400
G01 X6.7486 Y56.5400
G01 X6.7486 Y56.5400
G01 X6.7486 Y56.5400
G00 Z2.0000
G00 X162.0516 Y56.5400
G01 F60.00
G01 Z-0.8000
G01 F120.00
G01 X162.0516 Y56.5400
G01 X162.0516 Y56.5400
G01 X162.0516 Y56.5400
G01 X162.0516 Y56.5400
G00 X162.0516 Y56.5400
G01 F60.00
G01 Z-1.6000
G01 F120.00
G01 X162.0516 Y56.5400
G01 X162.0516 Y56.5400
G01 X162.0516 Y56.5400
G01 X162.0516 Y56.5400
G00 X162.0516 Y56.5400
G01 F60.00
G01 Z-2.4000
G01 F120.00
G01 X162.0516 Y56.5400
G01 X162.0516 Y56.5400
G01 X162.0516 Y56.5400
G01 X162.0516 Y56.5400
G00 Z2.0000
G00 X162.0516 Y51.4600
G01 F60.00
G01 Z-0.8000
G01 F120.00
G01 X162.0516 Y51.4600
G01 X162.0516 Y51.4600
G01 X162.0516 Y51.4600
G01 X162.0516 Y51.4600
G00 X162.0516 Y51.4600
G01 F60.00
G01 Z-1.6000
G01 F120.00
G01 X162.0516 Y51.4600
G01 X162.0516 Y51.4600
G01 X162.0516 Y51.4600
G01 X162.0516 Y51.4600
G00 X162.0516 Y51.4600
G01 F60.00
G01 Z-2.4000
G01 F120.00
G01 X162.0516 Y51.4600
G01 X162.0516 Y51.4600
G01 X162.0516 Y51.4600
G01 X162.0516 Y51.4600
G00 Z2.0000
M05
G00 Z2.0000
G00 Z15.00


