(G-CODE GENERATED BY FLATCAM v8.994 - www.flatcam.org - Version Date: 2020/11/7)

(Name: Gerber_BoardOutlineLayer.GKO_cutout_cnc)
(Type: G-code from Geometry)
(Units: MM)

(Created on Thursday, 29 August 2024 at 21:19)

(This preprocessor is the default preprocessor used by FlatCAM.)
(It is made to work with MACH3 compatible motion controllers.)

(TOOL DIAMETER: 1.6 mm)
(Feedrate_XY: 60.0 mm/min)
(Feedrate_Z: 60.0 mm/min)
(Feedrate rapids 1500.0 mm/min)

(Z_Cut: -2.4 mm)
(DepthPerCut: 0.6 mm <=>4 passes)
(Z_Move: 2.0 mm)
(Z Start: None mm)
(Z End: 15.0 mm)
(X,Y End: None mm)
(Steps per circle: 64)
(Preprocessor Geometry: default)

(X range:   -0.0261 ...  169.4277  mm)
(Y range:   -0.4271 ...   87.4269  mm)

(Spindle Speed: 0.0 RPM)
G21
G90
G94

G01 F60.00

M5
G00 Z15.0000
G00 X0.0000 Y0.0000
T1
M6    
(MSG, Change to Tool Dia = 1.6000)
M0
G00 Z15.0000

M03
G01 F60.00
G00 X9.6739 Y17.9000
G01 F60.00
G01 Z-0.6000
G01 F60.00
G01 X9.6739 Y1.0000
G01 X9.6754 Y0.9362
G01 X9.6761 Y0.9237
G01 X9.6886 Y0.7968
G01 X9.6904 Y0.7845
G01 X9.7153 Y0.6593
G01 X9.7183 Y0.6472
G01 X9.7553 Y0.5251
G01 X9.7595 Y0.5134
G01 X9.8084 Y0.3955
G01 X9.8137 Y0.3843
G01 X9.8738 Y0.2718
G01 X9.8802 Y0.2611
G01 X9.9511 Y0.1550
G01 X9.9585 Y0.1450
G01 X10.0395 Y0.0464
G01 X10.0479 Y0.0371
G01 X10.1381 Y-0.0531
G01 X10.1473 Y-0.0615
G01 X10.2459 Y-0.1424
G01 X10.2559 Y-0.1498
G01 X10.3620 Y-0.2207
G01 X10.3727 Y-0.2271
G01 X10.4852 Y-0.2873
G01 X10.4965 Y-0.2926
G01 X10.6144 Y-0.3414
G01 X10.6261 Y-0.3456
G01 X10.7482 Y-0.3826
G01 X10.7603 Y-0.3857
G01 X10.8854 Y-0.4106
G01 X10.8977 Y-0.4124
G01 X11.0247 Y-0.4249
G01 X11.0372 Y-0.4255
G01 X11.1009 Y-0.4271
G01 X86.4508 Y-0.4271
G00 X86.4508 Y-0.4271
G01 F60.00
G01 Z-1.2000
G01 F60.00
G01 X11.1009 Y-0.4271
G01 X11.0372 Y-0.4255
G01 X11.0247 Y-0.4249
G01 X10.8977 Y-0.4124
G01 X10.8854 Y-0.4106
G01 X10.7603 Y-0.3857
G01 X10.7482 Y-0.3826
G01 X10.6261 Y-0.3456
G01 X10.6144 Y-0.3414
G01 X10.4965 Y-0.2926
G01 X10.4852 Y-0.2873
G01 X10.3727 Y-0.2271
G01 X10.3620 Y-0.2207
G01 X10.2559 Y-0.1498
G01 X10.2459 Y-0.1424
G01 X10.1473 Y-0.0615
G01 X10.1381 Y-0.0531
G01 X10.0479 Y0.0371
G01 X10.0395 Y0.0464
G01 X9.9585 Y0.1450
G01 X9.9511 Y0.1550
G01 X9.8802 Y0.2611
G01 X9.8738 Y0.2718
G01 X9.8137 Y0.3843
G01 X9.8084 Y0.3955
G01 X9.7595 Y0.5134
G01 X9.7553 Y0.5251
G01 X9.7183 Y0.6472
G01 X9.7153 Y0.6593
G01 X9.6904 Y0.7845
G01 X9.6886 Y0.7968
G01 X9.6761 Y0.9237
G01 X9.6754 Y0.9362
G01 X9.6739 Y1.0000
G01 X9.6739 Y17.9000
G00 X9.6739 Y17.9000
G01 F60.00
G01 Z-1.8000
G01 F60.00
G01 X9.6739 Y1.0000
G01 X9.6754 Y0.9362
G01 X9.6761 Y0.9237
G01 X9.6886 Y0.7968
G01 X9.6904 Y0.7845
G01 X9.7153 Y0.6593
G01 X9.7183 Y0.6472
G01 X9.7553 Y0.5251
G01 X9.7595 Y0.5134
G01 X9.8084 Y0.3955
G01 X9.8137 Y0.3843
G01 X9.8738 Y0.2718
G01 X9.8802 Y0.2611
G01 X9.9511 Y0.1550
G01 X9.9585 Y0.1450
G01 X10.0395 Y0.0464
G01 X10.0479 Y0.0371
G01 X10.1381 Y-0.0531
G01 X10.1473 Y-0.0615
G01 X10.2459 Y-0.1424
G01 X10.2559 Y-0.1498
G01 X10.3620 Y-0.2207
G01 X10.3727 Y-0.2271
G01 X10.4852 Y-0.2873
G01 X10.4965 Y-0.2926
G01 X10.6144 Y-0.3414
G01 X10.6261 Y-0.3456
G01 X10.7482 Y-0.3826
G01 X10.7603 Y-0.3857
G01 X10.8854 Y-0.4106
G01 X10.8977 Y-0.4124
G01 X11.0247 Y-0.4249
G01 X11.0372 Y-0.4255
G01 X11.1009 Y-0.4271
G01 X86.4508 Y-0.4271
G00 X86.4508 Y-0.4271
G01 F60.00
G01 Z-2.4000
G01 F60.00
G01 X11.1009 Y-0.4271
G01 X11.0372 Y-0.4255
G01 X11.0247 Y-0.4249
G01 X10.8977 Y-0.4124
G01 X10.8854 Y-0.4106
G01 X10.7603 Y-0.3857
G01 X10.7482 Y-0.3826
G01 X10.6261 Y-0.3456
G01 X10.6144 Y-0.3414
G01 X10.4965 Y-0.2926
G01 X10.4852 Y-0.2873
G01 X10.3727 Y-0.2271
G01 X10.3620 Y-0.2207
G01 X10.2559 Y-0.1498
G01 X10.2459 Y-0.1424
G01 X10.1473 Y-0.0615
G01 X10.1381 Y-0.0531
G01 X10.0479 Y0.0371
G01 X10.0395 Y0.0464
G01 X9.9585 Y0.1450
G01 X9.9511 Y0.1550
G01 X9.8802 Y0.2611
G01 X9.8738 Y0.2718
G01 X9.8137 Y0.3843
G01 X9.8084 Y0.3955
G01 X9.7595 Y0.5134
G01 X9.7553 Y0.5251
G01 X9.7183 Y0.6472
G01 X9.7153 Y0.6593
G01 X9.6904 Y0.7845
G01 X9.6886 Y0.7968
G01 X9.6761 Y0.9237
G01 X9.6754 Y0.9362
G01 X9.6739 Y1.0000
G01 X9.6739 Y17.9000
G00 Z2.0000
G00 X9.6739 Y24.2999
G01 F60.00
G01 Z-0.6000
G01 F60.00
G01 X9.6739 Y40.9999
G01 X9.6754 Y41.0637
G01 X9.6761 Y41.0762
G01 X9.6886 Y41.2031
G01 X9.6904 Y41.2154
G01 X9.7153 Y41.3406
G01 X9.7183 Y41.3527
G01 X9.7553 Y41.4748
G01 X9.7595 Y41.4865
G01 X9.8084 Y41.6044
G01 X9.8137 Y41.6156
G01 X9.8738 Y41.7281
G01 X9.8802 Y41.7388
G01 X9.9511 Y41.8449
G01 X9.9585 Y41.8549
G01 X10.0395 Y41.9535
G01 X10.0479 Y41.9628
G01 X10.1381 Y42.0530
G01 X10.1473 Y42.0614
G01 X10.2459 Y42.1423
G01 X10.2559 Y42.1497
G01 X10.3620 Y42.2206
G01 X10.3727 Y42.2270
G01 X10.4852 Y42.2872
G01 X10.4965 Y42.2925
G01 X10.6144 Y42.3413
G01 X10.6261 Y42.3455
G01 X10.7482 Y42.3825
G01 X10.7603 Y42.3856
G01 X10.8854 Y42.4105
G01 X10.8977 Y42.4123
G01 X11.0247 Y42.4248
G01 X11.0372 Y42.4254
G01 X11.1009 Y42.4270
G01 X86.4508 Y42.4270
G00 X86.4508 Y42.4270
G01 F60.00
G01 Z-1.2000
G01 F60.00
G01 X11.1009 Y42.4270
G01 X11.0372 Y42.4254
G01 X11.0247 Y42.4248
G01 X10.8977 Y42.4123
G01 X10.8854 Y42.4105
G01 X10.7603 Y42.3856
G01 X10.7482 Y42.3825
G01 X10.6261 Y42.3455
G01 X10.6144 Y42.3413
G01 X10.4965 Y42.2925
G01 X10.4852 Y42.2872
G01 X10.3727 Y42.2270
G01 X10.3620 Y42.2206
G01 X10.2559 Y42.1497
G01 X10.2459 Y42.1423
G01 X10.1473 Y42.0614
G01 X10.1381 Y42.0530
G01 X10.0479 Y41.9628
G01 X10.0395 Y41.9535
G01 X9.9585 Y41.8549
G01 X9.9511 Y41.8449
G01 X9.8802 Y41.7388
G01 X9.8738 Y41.7281
G01 X9.8137 Y41.6156
G01 X9.8084 Y41.6044
G01 X9.7595 Y41.4865
G01 X9.7553 Y41.4748
G01 X9.7183 Y41.3527
G01 X9.7153 Y41.3406
G01 X9.6904 Y41.2154
G01 X9.6886 Y41.2031
G01 X9.6761 Y41.0762
G01 X9.6754 Y41.0637
G01 X9.6739 Y40.9999
G01 X9.6739 Y24.2999
G00 X9.6739 Y24.2999
G01 F60.00
G01 Z-1.8000
G01 F60.00
G01 X9.6739 Y40.9999
G01 X9.6754 Y41.0637
G01 X9.6761 Y41.0762
G01 X9.6886 Y41.2031
G01 X9.6904 Y41.2154
G01 X9.7153 Y41.3406
G01 X9.7183 Y41.3527
G01 X9.7553 Y41.4748
G01 X9.7595 Y41.4865
G01 X9.8084 Y41.6044
G01 X9.8137 Y41.6156
G01 X9.8738 Y41.7281
G01 X9.8802 Y41.7388
G01 X9.9511 Y41.8449
G01 X9.9585 Y41.8549
G01 X10.0395 Y41.9535
G01 X10.0479 Y41.9628
G01 X10.1381 Y42.0530
G01 X10.1473 Y42.0614
G01 X10.2459 Y42.1423
G01 X10.2559 Y42.1497
G01 X10.3620 Y42.2206
G01 X10.3727 Y42.2270
G01 X10.4852 Y42.2872
G01 X10.4965 Y42.2925
G01 X10.6144 Y42.3413
G01 X10.6261 Y42.3455
G01 X10.7482 Y42.3825
G01 X10.7603 Y42.3856
G01 X10.8854 Y42.4105
G01 X10.8977 Y42.4123
G01 X11.0247 Y42.4248
G01 X11.0372 Y42.4254
G01 X11.1009 Y42.4270
G01 X86.4508 Y42.4270
G00 X86.4508 Y42.4270
G01 F60.00
G01 Z-2.4000
G01 F60.00
G01 X11.1009 Y42.4270
G01 X11.0372 Y42.4254
G01 X11.0247 Y42.4248
G01 X10.8977 Y42.4123
G01 X10.8854 Y42.4105
G01 X10.7603 Y42.3856
G01 X10.7482 Y42.3825
G01 X10.6261 Y42.3455
G01 X10.6144 Y42.3413
G01 X10.4965 Y42.2925
G01 X10.4852 Y42.2872
G01 X10.3727 Y42.2270
G01 X10.3620 Y42.2206
G01 X10.2559 Y42.1497
G01 X10.2459 Y42.1423
G01 X10.1473 Y42.0614
G01 X10.1381 Y42.0530
G01 X10.0479 Y41.9628
G01 X10.0395 Y41.9535
G01 X9.9585 Y41.8549
G01 X9.9511 Y41.8449
G01 X9.8802 Y41.7388
G01 X9.8738 Y41.7281
G01 X9.8137 Y41.6156
G01 X9.8084 Y41.6044
G01 X9.7595 Y41.4865
G01 X9.7553 Y41.4748
G01 X9.7183 Y41.3527
G01 X9.7153 Y41.3406
G01 X9.6904 Y41.2154
G01 X9.6886 Y41.2031
G01 X9.6761 Y41.0762
G01 X9.6754 Y41.0637
G01 X9.6739 Y40.9999
G01 X9.6739 Y24.2999
G00 Z2.0000
G00 X88.0008 Y44.5728
G01 F60.00
G01 Z-0.6000
G01 F60.00
G01 X168.0006 Y44.5728
G01 X168.0644 Y44.5744
G01 X168.0769 Y44.5750
G01 X168.2038 Y44.5875
G01 X168.2162 Y44.5893
G01 X168.3413 Y44.6142
G01 X168.3534 Y44.6173
G01 X168.4755 Y44.6543
G01 X168.4872 Y44.6585
G01 X168.6051 Y44.7073
G01 X168.6163 Y44.7127
G01 X168.7289 Y44.7728
G01 X168.7396 Y44.7792
G01 X168.8456 Y44.8501
G01 X168.8556 Y44.8575
G01 X168.9543 Y44.9384
G01 X168.9635 Y44.9468
G01 X169.0537 Y45.0370
G01 X169.0621 Y45.0463
G01 X169.1430 Y45.1449
G01 X169.1504 Y45.1549
G01 X169.2213 Y45.2610
G01 X169.2277 Y45.2717
G01 X169.2879 Y45.3842
G01 X169.2932 Y45.3955
G01 X169.3420 Y45.5133
G01 X169.3462 Y45.5251
G01 X169.3833 Y45.6471
G01 X169.3863 Y45.6592
G01 X169.4112 Y45.7844
G01 X169.4130 Y45.7967
G01 X169.4255 Y45.9237
G01 X169.4261 Y45.9361
G01 X169.4277 Y45.9999
G01 X169.4277 Y62.8999
G00 X169.4277 Y62.8999
G01 F60.00
G01 Z-1.2000
G01 F60.00
G01 X169.4277 Y45.9999
G01 X169.4261 Y45.9361
G01 X169.4255 Y45.9237
G01 X169.4130 Y45.7967
G01 X169.4112 Y45.7844
G01 X169.3863 Y45.6592
G01 X169.3833 Y45.6471
G01 X169.3462 Y45.5251
G01 X169.3420 Y45.5133
G01 X169.2932 Y45.3955
G01 X169.2879 Y45.3842
G01 X169.2277 Y45.2717
G01 X169.2213 Y45.2610
G01 X169.1504 Y45.1549
G01 X169.1430 Y45.1449
G01 X169.0621 Y45.0463
G01 X169.0537 Y45.0370
G01 X168.9635 Y44.9468
G01 X168.9543 Y44.9384
G01 X168.8556 Y44.8575
G01 X168.8456 Y44.8501
G01 X168.7396 Y44.7792
G01 X168.7289 Y44.7728
G01 X168.6163 Y44.7127
G01 X168.6051 Y44.7073
G01 X168.4872 Y44.6585
G01 X168.4755 Y44.6543
G01 X168.3534 Y44.6173
G01 X168.3413 Y44.6142
G01 X168.2162 Y44.5893
G01 X168.2038 Y44.5875
G01 X168.0769 Y44.5750
G01 X168.0644 Y44.5744
G01 X168.0006 Y44.5728
G01 X88.0008 Y44.5728
G00 X88.0008 Y44.5728
G01 F60.00
G01 Z-1.8000
G01 F60.00
G01 X168.0006 Y44.5728
G01 X168.0644 Y44.5744
G01 X168.0769 Y44.5750
G01 X168.2038 Y44.5875
G01 X168.2162 Y44.5893
G01 X168.3413 Y44.6142
G01 X168.3534 Y44.6173
G01 X168.4755 Y44.6543
G01 X168.4872 Y44.6585
G01 X168.6051 Y44.7073
G01 X168.6163 Y44.7127
G01 X168.7289 Y44.7728
G01 X168.7396 Y44.7792
G01 X168.8456 Y44.8501
G01 X168.8556 Y44.8575
G01 X168.9543 Y44.9384
G01 X168.9635 Y44.9468
G01 X169.0537 Y45.0370
G01 X169.0621 Y45.0463
G01 X169.1430 Y45.1449
G01 X169.1504 Y45.1549
G01 X169.2213 Y45.2610
G01 X169.2277 Y45.2717
G01 X169.2879 Y45.3842
G01 X169.2932 Y45.3955
G01 X169.3420 Y45.5133
G01 X169.3462 Y45.5251
G01 X169.3833 Y45.6471
G01 X169.3863 Y45.6592
G01 X169.4112 Y45.7844
G01 X169.4130 Y45.7967
G01 X169.4255 Y45.9237
G01 X169.4261 Y45.9361
G01 X169.4277 Y45.9999
G01 X169.4277 Y62.8999
G00 X169.4277 Y62.8999
G01 F60.00
G01 Z-2.4000
G01 F60.00
G01 X169.4277 Y45.9999
G01 X169.4261 Y45.9361
G01 X169.4255 Y45.9237
G01 X169.4130 Y45.7967
G01 X169.4112 Y45.7844
G01 X169.3863 Y45.6592
G01 X169.3833 Y45.6471
G01 X169.3462 Y45.5251
G01 X169.3420 Y45.5133
G01 X169.2932 Y45.3955
G01 X169.2879 Y45.3842
G01 X169.2277 Y45.2717
G01 X169.2213 Y45.2610
G01 X169.1504 Y45.1549
G01 X169.1430 Y45.1449
G01 X169.0621 Y45.0463
G01 X169.0537 Y45.0370
G01 X168.9635 Y44.9468
G01 X168.9543 Y44.9384
G01 X168.8556 Y44.8575
G01 X168.8456 Y44.8501
G01 X168.7396 Y44.7792
G01 X168.7289 Y44.7728
G01 X168.6163 Y44.7127
G01 X168.6051 Y44.7073
G01 X168.4872 Y44.6585
G01 X168.4755 Y44.6543
G01 X168.3534 Y44.6173
G01 X168.3413 Y44.6142
G01 X168.2162 Y44.5893
G01 X168.2038 Y44.5875
G01 X168.0769 Y44.5750
G01 X168.0644 Y44.5744
G01 X168.0006 Y44.5728
G01 X88.0008 Y44.5728
G00 Z2.0000
G00 X92.8508 Y42.4270
G01 F60.00
G01 Z-0.6000
G01 F60.00
G01 X168.0006 Y42.4270
G01 X168.0644 Y42.4254
G01 X168.0769 Y42.4248
G01 X168.2038 Y42.4123
G01 X168.2162 Y42.4105
G01 X168.3413 Y42.3856
G01 X168.3534 Y42.3825
G01 X168.4755 Y42.3455
G01 X168.4872 Y42.3413
G01 X168.6051 Y42.2925
G01 X168.6163 Y42.2872
G01 X168.7289 Y42.2270
G01 X168.7396 Y42.2206
G01 X168.8456 Y42.1497
G01 X168.8556 Y42.1423
G01 X168.9543 Y42.0614
G01 X168.9635 Y42.0530
G01 X169.0537 Y41.9628
G01 X169.0621 Y41.9535
G01 X169.1430 Y41.8549
G01 X169.1504 Y41.8449
G01 X169.2213 Y41.7388
G01 X169.2277 Y41.7281
G01 X169.2879 Y41.6156
G01 X169.2932 Y41.6044
G01 X169.3420 Y41.4865
G01 X169.3462 Y41.4748
G01 X169.3833 Y41.3527
G01 X169.3863 Y41.3406
G01 X169.4112 Y41.2154
G01 X169.4130 Y41.2031
G01 X169.4255 Y41.0762
G01 X169.4261 Y41.0637
G01 X169.4277 Y40.9999
G01 X169.4277 Y24.2999
G00 X169.4277 Y24.2999
G01 F60.00
G01 Z-1.2000
G01 F60.00
G01 X169.4277 Y40.9999
G01 X169.4261 Y41.0637
G01 X169.4255 Y41.0762
G01 X169.4130 Y41.2031
G01 X169.4112 Y41.2154
G01 X169.3863 Y41.3406
G01 X169.3833 Y41.3527
G01 X169.3462 Y41.4748
G01 X169.3420 Y41.4865
G01 X169.2932 Y41.6044
G01 X169.2879 Y41.6156
G01 X169.2277 Y41.7281
G01 X169.2213 Y41.7388
G01 X169.1504 Y41.8449
G01 X169.1430 Y41.8549
G01 X169.0621 Y41.9535
G01 X169.0537 Y41.9628
G01 X168.9635 Y42.0530
G01 X168.9543 Y42.0614
G01 X168.8556 Y42.1423
G01 X168.8456 Y42.1497
G01 X168.7396 Y42.2206
G01 X168.7289 Y42.2270
G01 X168.6163 Y42.2872
G01 X168.6051 Y42.2925
G01 X168.4872 Y42.3413
G01 X168.4755 Y42.3455
G01 X168.3534 Y42.3825
G01 X168.3413 Y42.3856
G01 X168.2162 Y42.4105
G01 X168.2038 Y42.4123
G01 X168.0769 Y42.4248
G01 X168.0644 Y42.4254
G01 X168.0006 Y42.4270
G01 X92.8508 Y42.4270
G00 X92.8508 Y42.4270
G01 F60.00
G01 Z-1.8000
G01 F60.00
G01 X168.0006 Y42.4270
G01 X168.0644 Y42.4254
G01 X168.0769 Y42.4248
G01 X168.2038 Y42.4123
G01 X168.2162 Y42.4105
G01 X168.3413 Y42.3856
G01 X168.3534 Y42.3825
G01 X168.4755 Y42.3455
G01 X168.4872 Y42.3413
G01 X168.6051 Y42.2925
G01 X168.6163 Y42.2872
G01 X168.7289 Y42.2270
G01 X168.7396 Y42.2206
G01 X168.8456 Y42.1497
G01 X168.8556 Y42.1423
G01 X168.9543 Y42.0614
G01 X168.9635 Y42.0530
G01 X169.0537 Y41.9628
G01 X169.0621 Y41.9535
G01 X169.1430 Y41.8549
G01 X169.1504 Y41.8449
G01 X169.2213 Y41.7388
G01 X169.2277 Y41.7281
G01 X169.2879 Y41.6156
G01 X169.2932 Y41.6044
G01 X169.3420 Y41.4865
G01 X169.3462 Y41.4748
G01 X169.3833 Y41.3527
G01 X169.3863 Y41.3406
G01 X169.4112 Y41.2154
G01 X169.4130 Y41.2031
G01 X169.4255 Y41.0762
G01 X169.4261 Y41.0637
G01 X169.4277 Y40.9999
G01 X169.4277 Y24.2999
G00 X169.4277 Y24.2999
G01 F60.00
G01 Z-2.4000
G01 F60.00
G01 X169.4277 Y40.9999
G01 X169.4261 Y41.0637
G01 X169.4255 Y41.0762
G01 X169.4130 Y41.2031
G01 X169.4112 Y41.2154
G01 X169.3863 Y41.3406
G01 X169.3833 Y41.3527
G01 X169.3462 Y41.4748
G01 X169.3420 Y41.4865
G01 X169.2932 Y41.6044
G01 X169.2879 Y41.6156
G01 X169.2277 Y41.7281
G01 X169.2213 Y41.7388
G01 X169.1504 Y41.8449
G01 X169.1430 Y41.8549
G01 X169.0621 Y41.9535
G01 X169.0537 Y41.9628
G01 X168.9635 Y42.0530
G01 X168.9543 Y42.0614
G01 X168.8556 Y42.1423
G01 X168.8456 Y42.1497
G01 X168.7396 Y42.2206
G01 X168.7289 Y42.2270
G01 X168.6163 Y42.2872
G01 X168.6051 Y42.2925
G01 X168.4872 Y42.3413
G01 X168.4755 Y42.3455
G01 X168.3534 Y42.3825
G01 X168.3413 Y42.3856
G01 X168.2162 Y42.4105
G01 X168.2038 Y42.4123
G01 X168.0769 Y42.4248
G01 X168.0644 Y42.4254
G01 X168.0006 Y42.4270
G01 X92.8508 Y42.4270
G00 Z2.0000
G00 X169.4277 Y17.9000
G01 F60.00
G01 Z-0.6000
G01 F60.00
G01 X169.4277 Y1.0000
G01 X169.4261 Y0.9362
G01 X169.4255 Y0.9237
G01 X169.4130 Y0.7968
G01 X169.4112 Y0.7845
G01 X169.3863 Y0.6593
G01 X169.3833 Y0.6472
G01 X169.3462 Y0.5251
G01 X169.3420 Y0.5134
G01 X169.2932 Y0.3955
G01 X169.2879 Y0.3843
G01 X169.2277 Y0.2718
G01 X169.2213 Y0.2611
G01 X169.1504 Y0.1550
G01 X169.1430 Y0.1450
G01 X169.0621 Y0.0464
G01 X169.0537 Y0.0371
G01 X168.9635 Y-0.0531
G01 X168.9543 Y-0.0615
G01 X168.8556 Y-0.1424
G01 X168.8456 Y-0.1498
G01 X168.7396 Y-0.2207
G01 X168.7289 Y-0.2271
G01 X168.6163 Y-0.2873
G01 X168.6051 Y-0.2926
G01 X168.4872 Y-0.3414
G01 X168.4755 Y-0.3456
G01 X168.3534 Y-0.3826
G01 X168.3413 Y-0.3857
G01 X168.2162 Y-0.4106
G01 X168.2038 Y-0.4124
G01 X168.0769 Y-0.4249
G01 X168.0644 Y-0.4255
G01 X168.0006 Y-0.4271
G01 X92.8508 Y-0.4271
G00 X92.8508 Y-0.4271
G01 F60.00
G01 Z-1.2000
G01 F60.00
G01 X168.0006 Y-0.4271
G01 X168.0644 Y-0.4255
G01 X168.0769 Y-0.4249
G01 X168.2038 Y-0.4124
G01 X168.2162 Y-0.4106
G01 X168.3413 Y-0.3857
G01 X168.3534 Y-0.3826
G01 X168.4755 Y-0.3456
G01 X168.4872 Y-0.3414
G01 X168.6051 Y-0.2926
G01 X168.6163 Y-0.2873
G01 X168.7289 Y-0.2271
G01 X168.7396 Y-0.2207
G01 X168.8456 Y-0.1498
G01 X168.8556 Y-0.1424
G01 X168.9543 Y-0.0615
G01 X168.9635 Y-0.0531
G01 X169.0537 Y0.0371
G01 X169.0621 Y0.0464
G01 X169.1430 Y0.1450
G01 X169.1504 Y0.1550
G01 X169.2213 Y0.2611
G01 X169.2277 Y0.2718
G01 X169.2879 Y0.3843
G01 X169.2932 Y0.3955
G01 X169.3420 Y0.5134
G01 X169.3462 Y0.5251
G01 X169.3833 Y0.6472
G01 X169.3863 Y0.6593
G01 X169.4112 Y0.7845
G01 X169.4130 Y0.7968
G01 X169.4255 Y0.9237
G01 X169.4261 Y0.9362
G01 X169.4277 Y1.0000
G01 X169.4277 Y17.9000
G00 X169.4277 Y17.9000
G01 F60.00
G01 Z-1.8000
G01 F60.00
G01 X169.4277 Y1.0000
G01 X169.4261 Y0.9362
G01 X169.4255 Y0.9237
G01 X169.4130 Y0.7968
G01 X169.4112 Y0.7845
G01 X169.3863 Y0.6593
G01 X169.3833 Y0.6472
G01 X169.3462 Y0.5251
G01 X169.3420 Y0.5134
G01 X169.2932 Y0.3955
G01 X169.2879 Y0.3843
G01 X169.2277 Y0.2718
G01 X169.2213 Y0.2611
G01 X169.1504 Y0.1550
G01 X169.1430 Y0.1450
G01 X169.0621 Y0.0464
G01 X169.0537 Y0.0371
G01 X168.9635 Y-0.0531
G01 X168.9543 Y-0.0615
G01 X168.8556 Y-0.1424
G01 X168.8456 Y-0.1498
G01 X168.7396 Y-0.2207
G01 X168.7289 Y-0.2271
G01 X168.6163 Y-0.2873
G01 X168.6051 Y-0.2926
G01 X168.4872 Y-0.3414
G01 X168.4755 Y-0.3456
G01 X168.3534 Y-0.3826
G01 X168.3413 Y-0.3857
G01 X168.2162 Y-0.4106
G01 X168.2038 Y-0.4124
G01 X168.0769 Y-0.4249
G01 X168.0644 Y-0.4255
G01 X168.0006 Y-0.4271
G01 X92.8508 Y-0.4271
G00 X92.8508 Y-0.4271
G01 F60.00
G01 Z-2.4000
G01 F60.00
G01 X168.0006 Y-0.4271
G01 X168.0644 Y-0.4255
G01 X168.0769 Y-0.4249
G01 X168.2038 Y-0.4124
G01 X168.2162 Y-0.4106
G01 X168.3413 Y-0.3857
G01 X168.3534 Y-0.3826
G01 X168.4755 Y-0.3456
G01 X168.4872 Y-0.3414
G01 X168.6051 Y-0.2926
G01 X168.6163 Y-0.2873
G01 X168.7289 Y-0.2271
G01 X168.7396 Y-0.2207
G01 X168.8456 Y-0.1498
G01 X168.8556 Y-0.1424
G01 X168.9543 Y-0.0615
G01 X168.9635 Y-0.0531
G01 X169.0537 Y0.0371
G01 X169.0621 Y0.0464
G01 X169.1430 Y0.1450
G01 X169.1504 Y0.1550
G01 X169.2213 Y0.2611
G01 X169.2277 Y0.2718
G01 X169.2879 Y0.3843
G01 X169.2932 Y0.3955
G01 X169.3420 Y0.5134
G01 X169.3462 Y0.5251
G01 X169.3833 Y0.6472
G01 X169.3863 Y0.6593
G01 X169.4112 Y0.7845
G01 X169.4130 Y0.7968
G01 X169.4255 Y0.9237
G01 X169.4261 Y0.9362
G01 X169.4277 Y1.0000
G01 X169.4277 Y17.9000
G00 Z2.0000
G00 X81.6008 Y44.5728
G01 F60.00
G01 Z-0.6000
G01 F60.00
G01 X1.4009 Y44.5728
G01 X1.3372 Y44.5744
G01 X1.3247 Y44.5750
G01 X1.1977 Y44.5875
G01 X1.1854 Y44.5893
G01 X1.0603 Y44.6142
G01 X1.0482 Y44.6173
G01 X0.9261 Y44.6543
G01 X0.9144 Y44.6585
G01 X0.7965 Y44.7073
G01 X0.7852 Y44.7127
G01 X0.6727 Y44.7728
G01 X0.6620 Y44.7792
G01 X0.5559 Y44.8501
G01 X0.5459 Y44.8575
G01 X0.4473 Y44.9384
G01 X0.4381 Y44.9468
G01 X0.3479 Y45.0370
G01 X0.3395 Y45.0463
G01 X0.2585 Y45.1449
G01 X0.2511 Y45.1549
G01 X0.1802 Y45.2610
G01 X0.1738 Y45.2717
G01 X0.1137 Y45.3842
G01 X0.1084 Y45.3955
G01 X0.0595 Y45.5133
G01 X0.0553 Y45.5251
G01 X0.0183 Y45.6471
G01 X0.0153 Y45.6592
G01 X-0.0096 Y45.7844
G01 X-0.0114 Y45.7967
G01 X-0.0239 Y45.9237
G01 X-0.0246 Y45.9361
G01 X-0.0261 Y45.9999
G01 X-0.0261 Y62.8999
G00 X-0.0261 Y62.8999
G01 F60.00
G01 Z-1.2000
G01 F60.00
G01 X-0.0261 Y45.9999
G01 X-0.0246 Y45.9361
G01 X-0.0239 Y45.9237
G01 X-0.0114 Y45.7967
G01 X-0.0096 Y45.7844
G01 X0.0153 Y45.6592
G01 X0.0183 Y45.6471
G01 X0.0553 Y45.5251
G01 X0.0595 Y45.5133
G01 X0.1084 Y45.3955
G01 X0.1137 Y45.3842
G01 X0.1738 Y45.2717
G01 X0.1802 Y45.2610
G01 X0.2511 Y45.1549
G01 X0.2585 Y45.1449
G01 X0.3395 Y45.0463
G01 X0.3479 Y45.0370
G01 X0.4381 Y44.9468
G01 X0.4473 Y44.9384
G01 X0.5459 Y44.8575
G01 X0.5559 Y44.8501
G01 X0.6620 Y44.7792
G01 X0.6727 Y44.7728
G01 X0.7852 Y44.7127
G01 X0.7965 Y44.7073
G01 X0.9144 Y44.6585
G01 X0.9261 Y44.6543
G01 X1.0482 Y44.6173
G01 X1.0603 Y44.6142
G01 X1.1854 Y44.5893
G01 X1.1977 Y44.5875
G01 X1.3247 Y44.5750
G01 X1.3372 Y44.5744
G01 X1.4009 Y44.5728
G01 X81.6008 Y44.5728
G00 X81.6008 Y44.5728
G01 F60.00
G01 Z-1.8000
G01 F60.00
G01 X1.4009 Y44.5728
G01 X1.3372 Y44.5744
G01 X1.3247 Y44.5750
G01 X1.1977 Y44.5875
G01 X1.1854 Y44.5893
G01 X1.0603 Y44.6142
G01 X1.0482 Y44.6173
G01 X0.9261 Y44.6543
G01 X0.9144 Y44.6585
G01 X0.7965 Y44.7073
G01 X0.7852 Y44.7127
G01 X0.6727 Y44.7728
G01 X0.6620 Y44.7792
G01 X0.5559 Y44.8501
G01 X0.5459 Y44.8575
G01 X0.4473 Y44.9384
G01 X0.4381 Y44.9468
G01 X0.3479 Y45.0370
G01 X0.3395 Y45.0463
G01 X0.2585 Y45.1449
G01 X0.2511 Y45.1549
G01 X0.1802 Y45.2610
G01 X0.1738 Y45.2717
G01 X0.1137 Y45.3842
G01 X0.1084 Y45.3955
G01 X0.0595 Y45.5133
G01 X0.0553 Y45.5251
G01 X0.0183 Y45.6471
G01 X0.0153 Y45.6592
G01 X-0.0096 Y45.7844
G01 X-0.0114 Y45.7967
G01 X-0.0239 Y45.9237
G01 X-0.0246 Y45.9361
G01 X-0.0261 Y45.9999
G01 X-0.0261 Y62.8999
G00 X-0.0261 Y62.8999
G01 F60.00
G01 Z-2.4000
G01 F60.00
G01 X-0.0261 Y45.9999
G01 X-0.0246 Y45.9361
G01 X-0.0239 Y45.9237
G01 X-0.0114 Y45.7967
G01 X-0.0096 Y45.7844
G01 X0.0153 Y45.6592
G01 X0.0183 Y45.6471
G01 X0.0553 Y45.5251
G01 X0.0595 Y45.5133
G01 X0.1084 Y45.3955
G01 X0.1137 Y45.3842
G01 X0.1738 Y45.2717
G01 X0.1802 Y45.2610
G01 X0.2511 Y45.1549
G01 X0.2585 Y45.1449
G01 X0.3395 Y45.0463
G01 X0.3479 Y45.0370
G01 X0.4381 Y44.9468
G01 X0.4473 Y44.9384
G01 X0.5459 Y44.8575
G01 X0.5559 Y44.8501
G01 X0.6620 Y44.7792
G01 X0.6727 Y44.7728
G01 X0.7852 Y44.7127
G01 X0.7965 Y44.7073
G01 X0.9144 Y44.6585
G01 X0.9261 Y44.6543
G01 X1.0482 Y44.6173
G01 X1.0603 Y44.6142
G01 X1.1854 Y44.5893
G01 X1.1977 Y44.5875
G01 X1.3247 Y44.5750
G01 X1.3372 Y44.5744
G01 X1.4009 Y44.5728
G01 X81.6008 Y44.5728
G00 Z2.0000
G00 X-0.0261 Y69.2999
G01 F60.00
G01 Z-0.6000
G01 F60.00
G01 X-0.0261 Y85.9998
G01 X-0.0246 Y86.0636
G01 X-0.0239 Y86.0761
G01 X-0.0114 Y86.2030
G01 X-0.0096 Y86.2154
G01 X0.0153 Y86.3405
G01 X0.0183 Y86.3526
G01 X0.0553 Y86.4747
G01 X0.0595 Y86.4864
G01 X0.1084 Y86.6043
G01 X0.1137 Y86.6155
G01 X0.1738 Y86.7281
G01 X0.1802 Y86.7387
G01 X0.2511 Y86.8448
G01 X0.2585 Y86.8548
G01 X0.3395 Y86.9535
G01 X0.3479 Y86.9627
G01 X0.4381 Y87.0529
G01 X0.4473 Y87.0613
G01 X0.5459 Y87.1422
G01 X0.5559 Y87.1496
G01 X0.6620 Y87.2205
G01 X0.6727 Y87.2269
G01 X0.7852 Y87.2871
G01 X0.7965 Y87.2924
G01 X0.9144 Y87.3412
G01 X0.9261 Y87.3454
G01 X1.0482 Y87.3825
G01 X1.0603 Y87.3855
G01 X1.1854 Y87.4104
G01 X1.1977 Y87.4122
G01 X1.3247 Y87.4247
G01 X1.3372 Y87.4253
G01 X1.4009 Y87.4269
G01 X81.6008 Y87.4269
G00 X81.6008 Y87.4269
G01 F60.00
G01 Z-1.2000
G01 F60.00
G01 X1.4009 Y87.4269
G01 X1.3372 Y87.4253
G01 X1.3247 Y87.4247
G01 X1.1977 Y87.4122
G01 X1.1854 Y87.4104
G01 X1.0603 Y87.3855
G01 X1.0482 Y87.3825
G01 X0.9261 Y87.3454
G01 X0.9144 Y87.3412
G01 X0.7965 Y87.2924
G01 X0.7852 Y87.2871
G01 X0.6727 Y87.2269
G01 X0.6620 Y87.2205
G01 X0.5559 Y87.1496
G01 X0.5459 Y87.1422
G01 X0.4473 Y87.0613
G01 X0.4381 Y87.0529
G01 X0.3479 Y86.9627
G01 X0.3395 Y86.9535
G01 X0.2585 Y86.8548
G01 X0.2511 Y86.8448
G01 X0.1802 Y86.7387
G01 X0.1738 Y86.7281
G01 X0.1137 Y86.6155
G01 X0.1084 Y86.6043
G01 X0.0595 Y86.4864
G01 X0.0553 Y86.4747
G01 X0.0183 Y86.3526
G01 X0.0153 Y86.3405
G01 X-0.0096 Y86.2154
G01 X-0.0114 Y86.2030
G01 X-0.0239 Y86.0761
G01 X-0.0246 Y86.0636
G01 X-0.0261 Y85.9998
G01 X-0.0261 Y69.2999
G00 X-0.0261 Y69.2999
G01 F60.00
G01 Z-1.8000
G01 F60.00
G01 X-0.0261 Y85.9998
G01 X-0.0246 Y86.0636
G01 X-0.0239 Y86.0761
G01 X-0.0114 Y86.2030
G01 X-0.0096 Y86.2154
G01 X0.0153 Y86.3405
G01 X0.0183 Y86.3526
G01 X0.0553 Y86.4747
G01 X0.0595 Y86.4864
G01 X0.1084 Y86.6043
G01 X0.1137 Y86.6155
G01 X0.1738 Y86.7281
G01 X0.1802 Y86.7387
G01 X0.2511 Y86.8448
G01 X0.2585 Y86.8548
G01 X0.3395 Y86.9535
G01 X0.3479 Y86.9627
G01 X0.4381 Y87.0529
G01 X0.4473 Y87.0613
G01 X0.5459 Y87.1422
G01 X0.5559 Y87.1496
G01 X0.6620 Y87.2205
G01 X0.6727 Y87.2269
G01 X0.7852 Y87.2871
G01 X0.7965 Y87.2924
G01 X0.9144 Y87.3412
G01 X0.9261 Y87.3454
G01 X1.0482 Y87.3825
G01 X1.0603 Y87.3855
G01 X1.1854 Y87.4104
G01 X1.1977 Y87.4122
G01 X1.3247 Y87.4247
G01 X1.3372 Y87.4253
G01 X1.4009 Y87.4269
G01 X81.6008 Y87.4269
G00 X81.6008 Y87.4269
G01 F60.00
G01 Z-2.4000
G01 F60.00
G01 X1.4009 Y87.4269
G01 X1.3372 Y87.4253
G01 X1.3247 Y87.4247
G01 X1.1977 Y87.4122
G01 X1.1854 Y87.4104
G01 X1.0603 Y87.3855
G01 X1.0482 Y87.3825
G01 X0.9261 Y87.3454
G01 X0.9144 Y87.3412
G01 X0.7965 Y87.2924
G01 X0.7852 Y87.2871
G01 X0.6727 Y87.2269
G01 X0.6620 Y87.2205
G01 X0.5559 Y87.1496
G01 X0.5459 Y87.1422
G01 X0.4473 Y87.0613
G01 X0.4381 Y87.0529
G01 X0.3479 Y86.9627
G01 X0.3395 Y86.9535
G01 X0.2585 Y86.8548
G01 X0.2511 Y86.8448
G01 X0.1802 Y86.7387
G01 X0.1738 Y86.7281
G01 X0.1137 Y86.6155
G01 X0.1084 Y86.6043
G01 X0.0595 Y86.4864
G01 X0.0553 Y86.4747
G01 X0.0183 Y86.3526
G01 X0.0153 Y86.3405
G01 X-0.0096 Y86.2154
G01 X-0.0114 Y86.2030
G01 X-0.0239 Y86.0761
G01 X-0.0246 Y86.0636
G01 X-0.0261 Y85.9998
G01 X-0.0261 Y69.2999
G00 Z2.0000
G00 X88.0008 Y87.4269
G01 F60.00
G01 Z-0.6000
G01 F60.00
G01 X168.0006 Y87.4269
G01 X168.0644 Y87.4253
G01 X168.0769 Y87.4247
G01 X168.2038 Y87.4122
G01 X168.2162 Y87.4104
G01 X168.3413 Y87.3855
G01 X168.3534 Y87.3825
G01 X168.4755 Y87.3454
G01 X168.4872 Y87.3412
G01 X168.6051 Y87.2924
G01 X168.6163 Y87.2871
G01 X168.7289 Y87.2269
G01 X168.7396 Y87.2205
G01 X168.8456 Y87.1496
G01 X168.8556 Y87.1422
G01 X168.9543 Y87.0613
G01 X168.9635 Y87.0529
G01 X169.0537 Y86.9627
G01 X169.0621 Y86.9535
G01 X169.1430 Y86.8548
G01 X169.1504 Y86.8448
G01 X169.2213 Y86.7387
G01 X169.2277 Y86.7281
G01 X169.2879 Y86.6155
G01 X169.2932 Y86.6043
G01 X169.3420 Y86.4864
G01 X169.3462 Y86.4747
G01 X169.3833 Y86.3526
G01 X169.3863 Y86.3405
G01 X169.4112 Y86.2154
G01 X169.4130 Y86.2030
G01 X169.4255 Y86.0761
G01 X169.4261 Y86.0636
G01 X169.4277 Y85.9998
G01 X169.4277 Y69.2999
G00 X169.4277 Y69.2999
G01 F60.00
G01 Z-1.2000
G01 F60.00
G01 X169.4277 Y85.9998
G01 X169.4261 Y86.0636
G01 X169.4255 Y86.0761
G01 X169.4130 Y86.2030
G01 X169.4112 Y86.2154
G01 X169.3863 Y86.3405
G01 X169.3833 Y86.3526
G01 X169.3462 Y86.4747
G01 X169.3420 Y86.4864
G01 X169.2932 Y86.6043
G01 X169.2879 Y86.6155
G01 X169.2277 Y86.7281
G01 X169.2213 Y86.7387
G01 X169.1504 Y86.8448
G01 X169.1430 Y86.8548
G01 X169.0621 Y86.9535
G01 X169.0537 Y86.9627
G01 X168.9635 Y87.0529
G01 X168.9543 Y87.0613
G01 X168.8556 Y87.1422
G01 X168.8456 Y87.1496
G01 X168.7396 Y87.2205
G01 X168.7289 Y87.2269
G01 X168.6163 Y87.2871
G01 X168.6051 Y87.2924
G01 X168.4872 Y87.3412
G01 X168.4755 Y87.3454
G01 X168.3534 Y87.3825
G01 X168.3413 Y87.3855
G01 X168.2162 Y87.4104
G01 X168.2038 Y87.4122
G01 X168.0769 Y87.4247
G01 X168.0644 Y87.4253
G01 X168.0006 Y87.4269
G01 X88.0008 Y87.4269
G00 X88.0008 Y87.4269
G01 F60.00
G01 Z-1.8000
G01 F60.00
G01 X168.0006 Y87.4269
G01 X168.0644 Y87.4253
G01 X168.0769 Y87.4247
G01 X168.2038 Y87.4122
G01 X168.2162 Y87.4104
G01 X168.3413 Y87.3855
G01 X168.3534 Y87.3825
G01 X168.4755 Y87.3454
G01 X168.4872 Y87.3412
G01 X168.6051 Y87.2924
G01 X168.6163 Y87.2871
G01 X168.7289 Y87.2269
G01 X168.7396 Y87.2205
G01 X168.8456 Y87.1496
G01 X168.8556 Y87.1422
G01 X168.9543 Y87.0613
G01 X168.9635 Y87.0529
G01 X169.0537 Y86.9627
G01 X169.0621 Y86.9535
G01 X169.1430 Y86.8548
G01 X169.1504 Y86.8448
G01 X169.2213 Y86.7387
G01 X169.2277 Y86.7281
G01 X169.2879 Y86.6155
G01 X169.2932 Y86.6043
G01 X169.3420 Y86.4864
G01 X169.3462 Y86.4747
G01 X169.3833 Y86.3526
G01 X169.3863 Y86.3405
G01 X169.4112 Y86.2154
G01 X169.4130 Y86.2030
G01 X169.4255 Y86.0761
G01 X169.4261 Y86.0636
G01 X169.4277 Y85.9998
G01 X169.4277 Y69.2999
G00 X169.4277 Y69.2999
G01 F60.00
G01 Z-2.4000
G01 F60.00
G01 X169.4277 Y85.9998
G01 X169.4261 Y86.0636
G01 X169.4255 Y86.0761
G01 X169.4130 Y86.2030
G01 X169.4112 Y86.2154
G01 X169.3863 Y86.3405
G01 X169.3833 Y86.3526
G01 X169.3462 Y86.4747
G01 X169.3420 Y86.4864
G01 X169.2932 Y86.6043
G01 X169.2879 Y86.6155
G01 X169.2277 Y86.7281
G01 X169.2213 Y86.7387
G01 X169.1504 Y86.8448
G01 X169.1430 Y86.8548
G01 X169.0621 Y86.9535
G01 X169.0537 Y86.9627
G01 X168.9635 Y87.0529
G01 X168.9543 Y87.0613
G01 X168.8556 Y87.1422
G01 X168.8456 Y87.1496
G01 X168.7396 Y87.2205
G01 X168.7289 Y87.2269
G01 X168.6163 Y87.2871
G01 X168.6051 Y87.2924
G01 X168.4872 Y87.3412
G01 X168.4755 Y87.3454
G01 X168.3534 Y87.3825
G01 X168.3413 Y87.3855
G01 X168.2162 Y87.4104
G01 X168.2038 Y87.4122
G01 X168.0769 Y87.4247
G01 X168.0644 Y87.4253
G01 X168.0006 Y87.4269
G01 X88.0008 Y87.4269
G00 Z2.0000
M05
G00 Z2.0000
G00 Z15.00


