(G-CODE GENERATED BY FLATCAM v8.994 - www.flatcam.org - Version Date: 2020/11/7)

(Name: Gerber_BottomLayer.GBL_iso_combined_cnc)
(Type: G-code from Geometry)
(Units: MM)

(Created on Thursday, 29 August 2024 at 21:21)

(This preprocessor is the default preprocessor used by FlatCAM.)
(It is made to work with MACH3 compatible motion controllers.)

(TOOL DIAMETER: 0.2 mm)
(Feedrate_XY: 120.0 mm/min)
(Feedrate_Z: 60.0 mm/min)
(Feedrate rapids 1500.0 mm/min)

(Z_Cut: 0.0 mm)
(Z_Move: 2.0 mm)
(Z Start: None mm)
(Z End: 15.0 mm)
(X,Y End: None mm)
(Steps per circle: 64)
(Preprocessor Geometry: default)

(X range:   -0.6802 ...  170.6808  mm)
(Y range:    4.4310 ...   84.6800  mm)

(Spindle Speed: 0.0 RPM)
G21
G90
G94

G01 F120.00

M5
G00 Z15.0000
G00 X0.0000 Y0.0000
T1
M6    
(MSG, Change to Tool Dia = 0.2000)
M0
G00 Z15.0000

M03
G01 F120.00
G00 X14.8379 Y7.1402
G01 F60.00
G01 Z0.0000
G01 F120.00
G01 X10.0010 Y7.1402
G01 X9.9872 Y7.1399
G01 X9.9411 Y7.1375
G01 X9.9207 Y7.1352
G01 X9.8750 Y7.1284
G01 X9.8615 Y7.1257
G01 X9.8168 Y7.1146
G01 X9.7970 Y7.1088
G01 X9.7535 Y7.0934
G01 X9.7407 Y7.0884
G01 X9.6926 Y7.0661
G01 X9.6743 Y7.0566
G01 X9.6347 Y7.0329
G01 X9.6231 Y7.0256
G01 X9.5803 Y6.9943
G01 X9.5695 Y6.9858
G01 X9.5591 Y6.9768
G01 X9.5200 Y6.9410
G01 X9.4841 Y6.9019
G01 X9.4709 Y6.8861
G01 X9.4433 Y6.8491
G01 X9.4354 Y6.8379
G01 X9.4079 Y6.7926
G01 X9.4011 Y6.7806
G01 X9.3781 Y6.7329
G01 X9.3725 Y6.7203
G01 X9.3544 Y6.6705
G01 X9.3481 Y6.6509
G01 X9.3369 Y6.6061
G01 X9.3338 Y6.5927
G01 X9.3257 Y6.5403
G01 X9.3235 Y6.5198
G01 X9.3211 Y6.4737
G01 X9.3209 Y6.4531
G01 X9.3235 Y6.4002
G01 X9.3257 Y6.3797
G01 X9.3338 Y6.3273
G01 X9.3369 Y6.3139
G01 X9.3501 Y6.2625
G01 X9.3676 Y6.2125
G01 X9.3725 Y6.1997
G01 X9.3949 Y6.1516
G01 X9.4011 Y6.1394
G01 X9.4079 Y6.1274
G01 X9.4317 Y6.0879
G01 X9.4433 Y6.0709
G01 X9.4752 Y6.0285
G01 X9.4841 Y6.0181
G01 X9.5200 Y5.9790
G01 X9.5300 Y5.9695
G01 X9.5695 Y5.9342
G01 X9.6118 Y5.9023
G01 X9.6231 Y5.8944
G01 X9.6347 Y5.8871
G01 X9.6743 Y5.8634
G01 X9.6926 Y5.8539
G01 X9.7407 Y5.8316
G01 X9.7905 Y5.8134
G01 X9.8035 Y5.8091
G01 X9.8168 Y5.8054
G01 X9.8683 Y5.7929
G01 X9.9207 Y5.7848
G01 X9.9343 Y5.7831
G01 X9.9872 Y5.7801
G01 X10.0010 Y5.7798
G01 X14.8387 Y5.7798
G01 X14.8683 Y5.6970
G01 X14.8759 Y5.6778
G01 X14.9522 Y5.5163
G01 X14.9617 Y5.4980
G01 X15.0535 Y5.3448
G01 X15.0608 Y5.3332
G01 X15.0687 Y5.3219
G01 X15.1752 Y5.1785
G01 X15.1885 Y5.1628
G01 X15.3038 Y5.0355
G01 X15.3133 Y5.0256
G01 X15.3232 Y5.0161
G01 X15.4505 Y4.9008
G01 X15.4609 Y4.8918
G01 X15.4717 Y4.8833
G01 X15.6152 Y4.7770
G01 X15.6325 Y4.7658
G01 X15.7798 Y4.6775
G01 X15.7918 Y4.6707
G01 X15.8041 Y4.6645
G01 X15.9593 Y4.5911
G01 X15.9719 Y4.5855
G01 X15.9847 Y4.5806
G01 X16.1464 Y4.5227
G01 X16.1594 Y4.5184
G01 X16.1727 Y4.5147
G01 X16.3393 Y4.4730
G01 X16.3527 Y4.4700
G01 X16.3662 Y4.4676
G01 X16.5361 Y4.4424
G01 X16.5497 Y4.4408
G01 X16.5634 Y4.4398
G01 X16.7418 Y4.4311
G01 X16.7624 Y4.4313
G01 X16.9340 Y4.4398
G01 X16.9477 Y4.4408
G01 X16.9613 Y4.4424
G01 X17.1312 Y4.4676
G01 X17.1447 Y4.4700
G01 X17.1582 Y4.4730
G01 X17.3247 Y4.5147
G01 X17.3380 Y4.5184
G01 X17.3510 Y4.5227
G01 X17.5127 Y4.5806
G01 X17.5256 Y4.5855
G01 X17.5381 Y4.5911
G01 X17.6934 Y4.6645
G01 X17.7056 Y4.6707
G01 X17.7176 Y4.6775
G01 X17.8649 Y4.7658
G01 X17.8822 Y4.7770
G01 X18.0257 Y4.8833
G01 X18.0365 Y4.8918
G01 X18.0469 Y4.9008
G01 X18.1742 Y5.0161
G01 X18.1841 Y5.0256
G01 X18.1936 Y5.0355
G01 X18.3089 Y5.1628
G01 X18.3222 Y5.1785
G01 X18.4287 Y5.3219
G01 X18.4366 Y5.3332
G01 X18.4439 Y5.3448
G01 X18.5357 Y5.4980
G01 X18.5452 Y5.5163
G01 X18.6215 Y5.6778
G01 X18.6291 Y5.6970
G01 X18.6587 Y5.7797
G01 X27.3406 Y5.7797
G01 X27.3702 Y5.6970
G01 X27.3778 Y5.6778
G01 X27.4541 Y5.5163
G01 X27.4636 Y5.4980
G01 X27.5554 Y5.3448
G01 X27.5627 Y5.3332
G01 X27.5706 Y5.3219
G01 X27.6771 Y5.1785
G01 X27.6904 Y5.1628
G01 X27.8057 Y5.0355
G01 X27.8152 Y5.0256
G01 X27.8251 Y5.0161
G01 X27.9524 Y4.9008
G01 X27.9628 Y4.8918
G01 X27.9736 Y4.8833
G01 X28.1171 Y4.7770
G01 X28.1344 Y4.7658
G01 X28.2817 Y4.6775
G01 X28.2937 Y4.6707
G01 X28.3059 Y4.6645
G01 X28.4612 Y4.5911
G01 X28.4737 Y4.5855
G01 X28.4866 Y4.5806
G01 X28.6483 Y4.5227
G01 X28.6613 Y4.5184
G01 X28.6746 Y4.5147
G01 X28.8411 Y4.4730
G01 X28.8546 Y4.4700
G01 X28.8681 Y4.4676
G01 X29.0380 Y4.4424
G01 X29.0516 Y4.4408
G01 X29.0653 Y4.4398
G01 X29.2369 Y4.4313
G01 X29.2506 Y4.4310
G01 X29.2643 Y4.4313
G01 X29.4359 Y4.4398
G01 X29.4496 Y4.4408
G01 X29.4632 Y4.4424
G01 X29.6331 Y4.4676
G01 X29.6466 Y4.4700
G01 X29.6600 Y4.4730
G01 X29.8266 Y4.5147
G01 X29.8399 Y4.5184
G01 X29.8529 Y4.5227
G01 X30.0146 Y4.5806
G01 X30.0274 Y4.5855
G01 X30.0400 Y4.5911
G01 X30.1953 Y4.6645
G01 X30.2075 Y4.6707
G01 X30.2195 Y4.6775
G01 X30.3668 Y4.7658
G01 X30.3841 Y4.7770
G01 X30.5276 Y4.8833
G01 X30.5384 Y4.8918
G01 X30.5488 Y4.9008
G01 X30.6761 Y5.0161
G01 X30.6860 Y5.0256
G01 X30.6955 Y5.0355
G01 X30.8108 Y5.1628
G01 X30.8241 Y5.1785
G01 X30.9306 Y5.3219
G01 X30.9385 Y5.3332
G01 X30.9458 Y5.3448
G01 X31.0376 Y5.4980
G01 X31.0471 Y5.5163
G01 X31.1234 Y5.6778
G01 X31.1310 Y5.6970
G01 X31.1606 Y5.7797
G01 X38.6410 Y5.7797
G01 X38.6706 Y5.6970
G01 X38.6783 Y5.6778
G01 X38.7546 Y5.5163
G01 X38.7641 Y5.4980
G01 X38.8558 Y5.3448
G01 X38.8632 Y5.3332
G01 X38.8711 Y5.3219
G01 X38.9775 Y5.1785
G01 X38.9908 Y5.1628
G01 X39.1061 Y5.0355
G01 X39.1156 Y5.0256
G01 X39.1256 Y5.0161
G01 X39.2528 Y4.9008
G01 X39.2632 Y4.8918
G01 X39.2741 Y4.8833
G01 X39.4176 Y4.7770
G01 X39.4349 Y4.7658
G01 X39.5822 Y4.6775
G01 X39.5941 Y4.6707
G01 X39.6064 Y4.6645
G01 X39.7616 Y4.5911
G01 X39.7742 Y4.5855
G01 X39.7870 Y4.5806
G01 X39.9487 Y4.5227
G01 X39.9618 Y4.5184
G01 X39.9750 Y4.5147
G01 X40.1416 Y4.4730
G01 X40.1550 Y4.4700
G01 X40.1686 Y4.4676
G01 X40.3384 Y4.4424
G01 X40.3521 Y4.4408
G01 X40.3658 Y4.4398
G01 X40.5373 Y4.4313
G01 X40.5511 Y4.4310
G01 X40.5648 Y4.4313
G01 X40.7363 Y4.4398
G01 X40.7500 Y4.4408
G01 X40.7637 Y4.4424
G01 X40.9335 Y4.4676
G01 X40.9471 Y4.4700
G01 X40.9605 Y4.4730
G01 X41.1271 Y4.5147
G01 X41.1403 Y4.5184
G01 X41.1534 Y4.5227
G01 X41.3151 Y4.5806
G01 X41.3279 Y4.5855
G01 X41.3405 Y4.5911
G01 X41.4957 Y4.6645
G01 X41.5080 Y4.6707
G01 X41.5199 Y4.6775
G01 X41.6672 Y4.7658
G01 X41.6845 Y4.7770
G01 X41.8280 Y4.8833
G01 X41.8389 Y4.8918
G01 X41.8493 Y4.9008
G01 X41.9765 Y5.0161
G01 X41.9865 Y5.0256
G01 X41.9960 Y5.0355
G01 X42.1113 Y5.1628
G01 X42.1246 Y5.1785
G01 X42.2310 Y5.3219
G01 X42.2389 Y5.3332
G01 X42.2463 Y5.3448
G01 X42.3380 Y5.4980
G01 X42.3475 Y5.5163
G01 X42.4238 Y5.6778
G01 X42.4315 Y5.6970
G01 X42.4611 Y5.7797
G01 X51.1429 Y5.7797
G01 X51.1725 Y5.6970
G01 X51.1802 Y5.6778
G01 X51.2565 Y5.5163
G01 X51.2659 Y5.4980
G01 X51.3577 Y5.3448
G01 X51.3650 Y5.3332
G01 X51.3730 Y5.3219
G01 X51.4794 Y5.1785
G01 X51.4927 Y5.1628
G01 X51.6080 Y5.0355
G01 X51.6175 Y5.0256
G01 X51.6275 Y5.0161
G01 X51.7547 Y4.9008
G01 X51.7651 Y4.8918
G01 X51.7759 Y4.8833
G01 X51.9195 Y4.7770
G01 X51.9367 Y4.7658
G01 X52.0840 Y4.6775
G01 X52.0960 Y4.6707
G01 X52.1083 Y4.6645
G01 X52.2635 Y4.5911
G01 X52.2761 Y4.5855
G01 X52.2889 Y4.5806
G01 X52.4506 Y4.5227
G01 X52.4637 Y4.5184
G01 X52.4769 Y4.5147
G01 X52.6435 Y4.4730
G01 X52.6569 Y4.4700
G01 X52.6704 Y4.4676
G01 X52.8403 Y4.4424
G01 X52.8540 Y4.4408
G01 X52.8677 Y4.4398
G01 X53.0392 Y4.4313
G01 X53.0529 Y4.4310
G01 X53.0667 Y4.4313
G01 X53.2382 Y4.4398
G01 X53.2519 Y4.4408
G01 X53.2655 Y4.4424
G01 X53.4354 Y4.4676
G01 X53.4490 Y4.4700
G01 X53.4624 Y4.4730
G01 X53.6290 Y4.5147
G01 X53.6422 Y4.5184
G01 X53.6553 Y4.5227
G01 X53.8170 Y4.5806
G01 X53.8298 Y4.5855
G01 X53.8423 Y4.5911
G01 X53.9976 Y4.6645
G01 X54.0099 Y4.6707
G01 X54.0218 Y4.6775
G01 X54.1691 Y4.7658
G01 X54.1864 Y4.7770
G01 X54.3299 Y4.8833
G01 X54.3407 Y4.8918
G01 X54.3512 Y4.9008
G01 X54.4784 Y5.0161
G01 X54.4884 Y5.0256
G01 X54.4978 Y5.0355
G01 X54.6132 Y5.1628
G01 X54.6264 Y5.1785
G01 X54.7329 Y5.3219
G01 X54.7408 Y5.3332
G01 X54.7482 Y5.3448
G01 X54.8399 Y5.4980
G01 X54.8494 Y5.5163
G01 X54.9257 Y5.6778
G01 X54.9334 Y5.6970
G01 X54.9630 Y5.7797
G01 X62.4408 Y5.7797
G01 X62.4704 Y5.6970
G01 X62.4781 Y5.6778
G01 X62.5544 Y5.5163
G01 X62.5639 Y5.4980
G01 X62.6556 Y5.3448
G01 X62.6630 Y5.3332
G01 X62.6709 Y5.3219
G01 X62.7773 Y5.1785
G01 X62.7906 Y5.1628
G01 X62.9059 Y5.0355
G01 X62.9154 Y5.0256
G01 X62.9254 Y5.0161
G01 X63.0526 Y4.9008
G01 X63.0630 Y4.8918
G01 X63.0739 Y4.8833
G01 X63.2174 Y4.7770
G01 X63.2347 Y4.7658
G01 X63.3820 Y4.6775
G01 X63.3939 Y4.6707
G01 X63.4062 Y4.6645
G01 X63.5614 Y4.5911
G01 X63.5740 Y4.5855
G01 X63.5868 Y4.5806
G01 X63.7485 Y4.5227
G01 X63.7616 Y4.5184
G01 X63.7748 Y4.5147
G01 X63.9414 Y4.4730
G01 X63.9548 Y4.4700
G01 X63.9684 Y4.4676
G01 X64.1382 Y4.4424
G01 X64.1519 Y4.4408
G01 X64.1656 Y4.4398
G01 X64.3371 Y4.4313
G01 X64.3509 Y4.4310
G01 X64.3646 Y4.4313
G01 X64.5361 Y4.4398
G01 X64.5498 Y4.4408
G01 X64.5635 Y4.4424
G01 X64.7333 Y4.4676
G01 X64.7469 Y4.4700
G01 X64.7603 Y4.4730
G01 X64.9269 Y4.5147
G01 X64.9401 Y4.5184
G01 X64.9532 Y4.5227
G01 X65.1149 Y4.5806
G01 X65.1277 Y4.5855
G01 X65.1403 Y4.5911
G01 X65.2955 Y4.6645
G01 X65.3078 Y4.6707
G01 X65.3197 Y4.6775
G01 X65.4670 Y4.7658
G01 X65.4843 Y4.7770
G01 X65.6278 Y4.8833
G01 X65.6387 Y4.8918
G01 X65.6491 Y4.9008
G01 X65.7763 Y5.0161
G01 X65.7863 Y5.0256
G01 X65.7958 Y5.0355
G01 X65.9111 Y5.1628
G01 X65.9244 Y5.1785
G01 X66.0308 Y5.3219
G01 X66.0387 Y5.3332
G01 X66.0461 Y5.3448
G01 X66.1378 Y5.4980
G01 X66.1473 Y5.5163
G01 X66.2236 Y5.6778
G01 X66.2313 Y5.6970
G01 X66.2609 Y5.7797
G01 X74.9427 Y5.7797
G01 X74.9723 Y5.6970
G01 X74.9800 Y5.6778
G01 X75.0563 Y5.5163
G01 X75.0657 Y5.4980
G01 X75.1575 Y5.3448
G01 X75.1648 Y5.3332
G01 X75.1728 Y5.3219
G01 X75.2792 Y5.1785
G01 X75.2925 Y5.1628
G01 X75.4078 Y5.0355
G01 X75.4173 Y5.0256
G01 X75.4273 Y5.0161
G01 X75.5545 Y4.9008
G01 X75.5649 Y4.8918
G01 X75.5757 Y4.8833
G01 X75.7193 Y4.7770
G01 X75.7365 Y4.7658
G01 X75.8838 Y4.6775
G01 X75.8958 Y4.6707
G01 X75.9081 Y4.6645
G01 X76.0633 Y4.5911
G01 X76.0759 Y4.5855
G01 X76.0887 Y4.5806
G01 X76.2504 Y4.5227
G01 X76.2635 Y4.5184
G01 X76.2767 Y4.5147
G01 X76.4433 Y4.4730
G01 X76.4567 Y4.4700
G01 X76.4702 Y4.4676
G01 X76.6401 Y4.4424
G01 X76.6538 Y4.4408
G01 X76.6675 Y4.4398
G01 X76.8390 Y4.4313
G01 X76.8527 Y4.4310
G01 X76.8665 Y4.4313
G01 X77.0380 Y4.4398
G01 X77.0517 Y4.4408
G01 X77.0653 Y4.4424
G01 X77.2352 Y4.4676
G01 X77.2488 Y4.4700
G01 X77.2622 Y4.4730
G01 X77.4288 Y4.5147
G01 X77.4420 Y4.5184
G01 X77.4551 Y4.5227
G01 X77.6168 Y4.5806
G01 X77.6296 Y4.5855
G01 X77.6421 Y4.5911
G01 X77.7974 Y4.6645
G01 X77.8097 Y4.6707
G01 X77.8216 Y4.6775
G01 X77.9689 Y4.7658
G01 X77.9862 Y4.7770
G01 X78.1297 Y4.8833
G01 X78.1405 Y4.8918
G01 X78.1510 Y4.9008
G01 X78.2782 Y5.0161
G01 X78.2882 Y5.0256
G01 X78.2976 Y5.0355
G01 X78.4130 Y5.1628
G01 X78.4262 Y5.1785
G01 X78.5327 Y5.3219
G01 X78.5406 Y5.3332
G01 X78.5480 Y5.3448
G01 X78.6397 Y5.4980
G01 X78.6492 Y5.5163
G01 X78.7255 Y5.6778
G01 X78.7332 Y5.6970
G01 X78.7628 Y5.7797
G01 X86.2406 Y5.7797
G01 X86.2702 Y5.6970
G01 X86.2779 Y5.6778
G01 X86.3542 Y5.5163
G01 X86.3637 Y5.4980
G01 X86.4554 Y5.3448
G01 X86.4628 Y5.3332
G01 X86.4707 Y5.3219
G01 X86.5771 Y5.1785
G01 X86.5904 Y5.1628
G01 X86.7057 Y5.0355
G01 X86.7152 Y5.0256
G01 X86.7252 Y5.0161
G01 X86.8524 Y4.9008
G01 X86.8628 Y4.8918
G01 X86.8737 Y4.8833
G01 X87.0172 Y4.7770
G01 X87.0345 Y4.7658
G01 X87.1818 Y4.6775
G01 X87.1937 Y4.6707
G01 X87.2060 Y4.6645
G01 X87.3612 Y4.5911
G01 X87.3738 Y4.5855
G01 X87.3866 Y4.5806
G01 X87.5483 Y4.5227
G01 X87.5614 Y4.5184
G01 X87.5746 Y4.5147
G01 X87.7412 Y4.4730
G01 X87.7546 Y4.4700
G01 X87.7682 Y4.4676
G01 X87.9380 Y4.4424
G01 X87.9517 Y4.4408
G01 X87.9654 Y4.4398
G01 X88.1369 Y4.4313
G01 X88.1507 Y4.4310
G01 X88.1644 Y4.4313
G01 X88.3359 Y4.4398
G01 X88.3496 Y4.4408
G01 X88.3633 Y4.4424
G01 X88.5331 Y4.4676
G01 X88.5467 Y4.4700
G01 X88.5601 Y4.4730
G01 X88.7267 Y4.5147
G01 X88.7399 Y4.5184
G01 X88.7530 Y4.5227
G01 X88.9147 Y4.5806
G01 X88.9275 Y4.5855
G01 X88.9401 Y4.5911
G01 X89.0953 Y4.6645
G01 X89.1076 Y4.6707
G01 X89.1195 Y4.6775
G01 X89.2668 Y4.7658
G01 X89.2841 Y4.7770
G01 X89.4276 Y4.8833
G01 X89.4385 Y4.8918
G01 X89.4489 Y4.9008
G01 X89.5761 Y5.0161
G01 X89.5861 Y5.0256
G01 X89.5956 Y5.0355
G01 X89.7109 Y5.1628
G01 X89.7242 Y5.1785
G01 X89.8306 Y5.3219
G01 X89.8385 Y5.3332
G01 X89.8459 Y5.3448
G01 X89.9376 Y5.4980
G01 X89.9471 Y5.5163
G01 X90.0234 Y5.6778
G01 X90.0311 Y5.6970
G01 X90.0607 Y5.7797
G01 X98.7425 Y5.7797
G01 X98.7721 Y5.6970
G01 X98.7798 Y5.6778
G01 X98.8561 Y5.5163
G01 X98.8655 Y5.4980
G01 X98.9573 Y5.3448
G01 X98.9646 Y5.3332
G01 X98.9726 Y5.3219
G01 X99.0790 Y5.1785
G01 X99.0923 Y5.1628
G01 X99.2076 Y5.0355
G01 X99.2171 Y5.0256
G01 X99.2271 Y5.0161
G01 X99.3543 Y4.9008
G01 X99.3647 Y4.8918
G01 X99.3755 Y4.8833
G01 X99.5191 Y4.7770
G01 X99.5363 Y4.7658
G01 X99.6836 Y4.6775
G01 X99.6956 Y4.6707
G01 X99.7079 Y4.6645
G01 X99.8631 Y4.5911
G01 X99.8757 Y4.5855
G01 X99.8885 Y4.5806
G01 X100.0502 Y4.5227
G01 X100.0633 Y4.5184
G01 X100.0765 Y4.5147
G01 X100.2431 Y4.4730
G01 X100.2565 Y4.4700
G01 X100.2700 Y4.4676
G01 X100.4399 Y4.4424
G01 X100.4536 Y4.4408
G01 X100.4673 Y4.4398
G01 X100.6388 Y4.4313
G01 X100.6525 Y4.4310
G01 X100.6663 Y4.4313
G01 X100.8378 Y4.4398
G01 X100.8515 Y4.4408
G01 X100.8651 Y4.4424
G01 X101.0350 Y4.4676
G01 X101.0486 Y4.4700
G01 X101.0620 Y4.4730
G01 X101.2286 Y4.5147
G01 X101.2418 Y4.5184
G01 X101.2549 Y4.5227
G01 X101.4166 Y4.5806
G01 X101.4294 Y4.5855
G01 X101.4419 Y4.5911
G01 X101.5972 Y4.6645
G01 X101.6095 Y4.6707
G01 X101.6214 Y4.6775
G01 X101.7687 Y4.7658
G01 X101.7860 Y4.7770
G01 X101.9295 Y4.8833
G01 X101.9403 Y4.8918
G01 X101.9508 Y4.9008
G01 X102.0780 Y5.0161
G01 X102.0880 Y5.0256
G01 X102.0974 Y5.0355
G01 X102.2128 Y5.1628
G01 X102.2260 Y5.1785
G01 X102.3325 Y5.3219
G01 X102.3404 Y5.3332
G01 X102.3478 Y5.3448
G01 X102.4395 Y5.4980
G01 X102.4490 Y5.5163
G01 X102.5253 Y5.6778
G01 X102.5330 Y5.6970
G01 X102.5626 Y5.7797
G01 X110.0404 Y5.7797
G01 X110.0700 Y5.6970
G01 X110.0777 Y5.6778
G01 X110.1540 Y5.5163
G01 X110.1635 Y5.4980
G01 X110.2552 Y5.3448
G01 X110.2626 Y5.3332
G01 X110.2705 Y5.3219
G01 X110.3769 Y5.1785
G01 X110.3902 Y5.1628
G01 X110.5055 Y5.0355
G01 X110.5150 Y5.0256
G01 X110.5250 Y5.0161
G01 X110.6522 Y4.9008
G01 X110.6626 Y4.8918
G01 X110.6735 Y4.8833
G01 X110.8170 Y4.7770
G01 X110.8343 Y4.7658
G01 X110.9816 Y4.6775
G01 X110.9935 Y4.6707
G01 X111.0058 Y4.6645
G01 X111.1610 Y4.5911
G01 X111.1736 Y4.5855
G01 X111.1864 Y4.5806
G01 X111.3481 Y4.5227
G01 X111.3612 Y4.5184
G01 X111.3744 Y4.5147
G01 X111.5410 Y4.4730
G01 X111.5544 Y4.4700
G01 X111.5680 Y4.4676
G01 X111.7378 Y4.4424
G01 X111.7515 Y4.4408
G01 X111.7652 Y4.4398
G01 X111.9367 Y4.4313
G01 X111.9505 Y4.4310
G01 X111.9642 Y4.4313
G01 X112.1357 Y4.4398
G01 X112.1494 Y4.4408
G01 X112.1631 Y4.4424
G01 X112.3329 Y4.4676
G01 X112.3465 Y4.4700
G01 X112.3599 Y4.4730
G01 X112.5265 Y4.5147
G01 X112.5397 Y4.5184
G01 X112.5528 Y4.5227
G01 X112.7145 Y4.5806
G01 X112.7273 Y4.5855
G01 X112.7399 Y4.5911
G01 X112.8951 Y4.6645
G01 X112.9074 Y4.6707
G01 X112.9193 Y4.6775
G01 X113.0666 Y4.7658
G01 X113.0839 Y4.7770
G01 X113.2274 Y4.8833
G01 X113.2383 Y4.8918
G01 X113.2487 Y4.9008
G01 X113.3759 Y5.0161
G01 X113.3859 Y5.0256
G01 X113.3954 Y5.0355
G01 X113.5107 Y5.1628
G01 X113.5240 Y5.1785
G01 X113.6304 Y5.3219
G01 X113.6383 Y5.3332
G01 X113.6457 Y5.3448
G01 X113.7374 Y5.4980
G01 X113.7469 Y5.5163
G01 X113.8232 Y5.6778
G01 X113.8309 Y5.6970
G01 X113.8605 Y5.7797
G01 X122.5423 Y5.7797
G01 X122.5719 Y5.6970
G01 X122.5796 Y5.6778
G01 X122.6559 Y5.5163
G01 X122.6653 Y5.4980
G01 X122.7571 Y5.3448
G01 X122.7644 Y5.3332
G01 X122.7724 Y5.3219
G01 X122.8788 Y5.1785
G01 X122.8921 Y5.1628
G01 X123.0074 Y5.0355
G01 X123.0169 Y5.0256
G01 X123.0269 Y5.0161
G01 X123.1541 Y4.9008
G01 X123.1645 Y4.8918
G01 X123.1753 Y4.8833
G01 X123.3189 Y4.7770
G01 X123.3361 Y4.7658
G01 X123.4834 Y4.6775
G01 X123.4954 Y4.6707
G01 X123.5077 Y4.6645
G01 X123.6629 Y4.5911
G01 X123.6755 Y4.5855
G01 X123.6883 Y4.5806
G01 X123.8500 Y4.5227
G01 X123.8631 Y4.5184
G01 X123.8763 Y4.5147
G01 X124.0429 Y4.4730
G01 X124.0563 Y4.4700
G01 X124.0698 Y4.4676
G01 X124.2397 Y4.4424
G01 X124.2534 Y4.4408
G01 X124.2671 Y4.4398
G01 X124.4386 Y4.4313
G01 X124.4523 Y4.4310
G01 X124.4661 Y4.4313
G01 X124.6376 Y4.4398
G01 X124.6513 Y4.4408
G01 X124.6649 Y4.4424
G01 X124.8348 Y4.4676
G01 X124.8484 Y4.4700
G01 X124.8618 Y4.4730
G01 X125.0284 Y4.5147
G01 X125.0416 Y4.5184
G01 X125.0547 Y4.5227
G01 X125.2164 Y4.5806
G01 X125.2292 Y4.5855
G01 X125.2417 Y4.5911
G01 X125.3970 Y4.6645
G01 X125.4093 Y4.6707
G01 X125.4212 Y4.6775
G01 X125.5685 Y4.7658
G01 X125.5858 Y4.7770
G01 X125.7293 Y4.8833
G01 X125.7401 Y4.8918
G01 X125.7506 Y4.9008
G01 X125.8778 Y5.0161
G01 X125.8878 Y5.0256
G01 X125.8972 Y5.0355
G01 X126.0126 Y5.1628
G01 X126.0258 Y5.1785
G01 X126.1323 Y5.3219
G01 X126.1402 Y5.3332
G01 X126.1476 Y5.3448
G01 X126.2393 Y5.4980
G01 X126.2488 Y5.5163
G01 X126.3251 Y5.6778
G01 X126.3328 Y5.6970
G01 X126.3624 Y5.7797
G01 X133.8402 Y5.7797
G01 X133.8698 Y5.6970
G01 X133.8775 Y5.6778
G01 X133.9538 Y5.5163
G01 X133.9633 Y5.4980
G01 X134.0550 Y5.3448
G01 X134.0624 Y5.3332
G01 X134.0703 Y5.3219
G01 X134.1767 Y5.1785
G01 X134.1900 Y5.1628
G01 X134.3053 Y5.0355
G01 X134.3148 Y5.0256
G01 X134.3248 Y5.0161
G01 X134.4520 Y4.9008
G01 X134.4624 Y4.8918
G01 X134.4733 Y4.8833
G01 X134.6168 Y4.7770
G01 X134.6341 Y4.7658
G01 X134.7814 Y4.6775
G01 X134.7933 Y4.6707
G01 X134.8056 Y4.6645
G01 X134.9608 Y4.5911
G01 X134.9734 Y4.5855
G01 X134.9862 Y4.5806
G01 X135.1479 Y4.5227
G01 X135.1610 Y4.5184
G01 X135.1742 Y4.5147
G01 X135.3408 Y4.4730
G01 X135.3542 Y4.4700
G01 X135.3678 Y4.4676
G01 X135.5376 Y4.4424
G01 X135.5513 Y4.4408
G01 X135.5650 Y4.4398
G01 X135.7365 Y4.4313
G01 X135.7503 Y4.4310
G01 X135.7640 Y4.4313
G01 X135.9355 Y4.4398
G01 X135.9492 Y4.4408
G01 X135.9629 Y4.4424
G01 X136.1327 Y4.4676
G01 X136.1463 Y4.4700
G01 X136.1597 Y4.4730
G01 X136.3263 Y4.5147
G01 X136.3395 Y4.5184
G01 X136.3526 Y4.5227
G01 X136.5143 Y4.5806
G01 X136.5271 Y4.5855
G01 X136.5397 Y4.5911
G01 X136.6949 Y4.6645
G01 X136.7072 Y4.6707
G01 X136.7191 Y4.6775
G01 X136.8664 Y4.7658
G01 X136.8837 Y4.7770
G01 X137.0272 Y4.8833
G01 X137.0381 Y4.8918
G01 X137.0485 Y4.9008
G01 X137.1757 Y5.0161
G01 X137.1857 Y5.0256
G01 X137.1952 Y5.0355
G01 X137.3105 Y5.1628
G01 X137.3238 Y5.1785
G01 X137.4302 Y5.3219
G01 X137.4381 Y5.3332
G01 X137.4455 Y5.3448
G01 X137.5372 Y5.4980
G01 X137.5467 Y5.5163
G01 X137.6230 Y5.6778
G01 X137.6307 Y5.6970
G01 X137.6603 Y5.7797
G01 X146.3421 Y5.7797
G01 X146.3717 Y5.6970
G01 X146.3794 Y5.6778
G01 X146.4557 Y5.5163
G01 X146.4651 Y5.4980
G01 X146.5569 Y5.3448
G01 X146.5642 Y5.3332
G01 X146.5722 Y5.3219
G01 X146.6786 Y5.1785
G01 X146.6919 Y5.1628
G01 X146.8072 Y5.0355
G01 X146.8167 Y5.0256
G01 X146.8267 Y5.0161
G01 X146.9539 Y4.9008
G01 X146.9643 Y4.8918
G01 X146.9751 Y4.8833
G01 X147.1187 Y4.7770
G01 X147.1359 Y4.7658
G01 X147.2832 Y4.6775
G01 X147.2952 Y4.6707
G01 X147.3075 Y4.6645
G01 X147.4627 Y4.5911
G01 X147.4753 Y4.5855
G01 X147.4881 Y4.5806
G01 X147.6498 Y4.5227
G01 X147.6629 Y4.5184
G01 X147.6761 Y4.5147
G01 X147.8427 Y4.4730
G01 X147.8561 Y4.4700
G01 X147.8696 Y4.4676
G01 X148.0395 Y4.4424
G01 X148.0532 Y4.4408
G01 X148.0669 Y4.4398
G01 X148.2384 Y4.4313
G01 X148.2521 Y4.4310
G01 X148.2659 Y4.4313
G01 X148.4374 Y4.4398
G01 X148.4511 Y4.4408
G01 X148.4647 Y4.4424
G01 X148.6346 Y4.4676
G01 X148.6482 Y4.4700
G01 X148.6616 Y4.4730
G01 X148.8282 Y4.5147
G01 X148.8414 Y4.5184
G01 X148.8545 Y4.5227
G01 X149.0162 Y4.5806
G01 X149.0290 Y4.5855
G01 X149.0415 Y4.5911
G01 X149.1968 Y4.6645
G01 X149.2091 Y4.6707
G01 X149.2210 Y4.6775
G01 X149.3683 Y4.7658
G01 X149.3799 Y4.7731
G01 X149.3912 Y4.7810
G01 X149.5291 Y4.8833
G01 X149.5399 Y4.8918
G01 X149.5504 Y4.9008
G01 X149.6776 Y5.0161
G01 X149.6876 Y5.0256
G01 X149.6970 Y5.0355
G01 X149.8124 Y5.1628
G01 X149.8213 Y5.1732
G01 X149.8298 Y5.1840
G01 X149.9321 Y5.3219
G01 X149.9400 Y5.3332
G01 X149.9474 Y5.3448
G01 X150.0357 Y5.4921
G01 X150.0424 Y5.5041
G01 X150.0486 Y5.5163
G01 X150.1220 Y5.6716
G01 X150.1276 Y5.6841
G01 X150.1326 Y5.6970
G01 X150.1904 Y5.8587
G01 X150.1947 Y5.8717
G01 X150.1984 Y5.8850
G01 X150.2401 Y6.0515
G01 X150.2431 Y6.0650
G01 X150.2455 Y6.0785
G01 X150.2707 Y6.2484
G01 X150.2724 Y6.2620
G01 X150.2734 Y6.2757
G01 X150.2818 Y6.4473
G01 X150.2821 Y6.4610
G01 X150.2818 Y6.4747
G01 X150.2734 Y6.6463
G01 X150.2724 Y6.6600
G01 X150.2707 Y6.6736
G01 X150.2455 Y6.8435
G01 X150.2431 Y6.8570
G01 X150.2401 Y6.8704
G01 X150.1984 Y7.0370
G01 X150.1947 Y7.0503
G01 X150.1904 Y7.0633
G01 X150.1326 Y7.2250
G01 X150.1276 Y7.2378
G01 X150.1220 Y7.2504
G01 X150.0486 Y7.4056
G01 X150.0424 Y7.4179
G01 X150.0357 Y7.4299
G01 X149.9474 Y7.5772
G01 X149.9400 Y7.5888
G01 X149.9321 Y7.6000
G01 X149.8298 Y7.7380
G01 X149.8213 Y7.7488
G01 X149.8124 Y7.7592
G01 X149.6970 Y7.8865
G01 X149.6876 Y7.8964
G01 X149.6776 Y7.9059
G01 X149.5504 Y8.0212
G01 X149.5399 Y8.0302
G01 X149.5291 Y8.0387
G01 X149.3912 Y8.1410
G01 X149.3799 Y8.1489
G01 X149.3683 Y8.1562
G01 X149.2210 Y8.2445
G01 X149.2091 Y8.2513
G01 X149.1968 Y8.2575
G01 X149.0415 Y8.3309
G01 X149.0290 Y8.3365
G01 X149.0162 Y8.3414
G01 X148.8545 Y8.3993
G01 X148.8414 Y8.4036
G01 X148.8282 Y8.4072
G01 X148.6616 Y8.4490
G01 X148.6482 Y8.4520
G01 X148.6346 Y8.4543
G01 X148.4647 Y8.4795
G01 X148.4511 Y8.4812
G01 X148.4374 Y8.4822
G01 X148.2659 Y8.4907
G01 X148.2521 Y8.4910
G01 X148.2384 Y8.4907
G01 X148.0669 Y8.4822
G01 X148.0532 Y8.4812
G01 X148.0395 Y8.4795
G01 X147.8696 Y8.4543
G01 X147.8561 Y8.4520
G01 X147.8427 Y8.4490
G01 X147.6761 Y8.4072
G01 X147.6629 Y8.4036
G01 X147.6498 Y8.3993
G01 X147.4881 Y8.3414
G01 X147.4753 Y8.3365
G01 X147.4627 Y8.3309
G01 X147.3075 Y8.2575
G01 X147.2952 Y8.2513
G01 X147.2832 Y8.2445
G01 X147.1359 Y8.1562
G01 X147.1187 Y8.1450
G01 X146.9751 Y8.0387
G01 X146.9643 Y8.0302
G01 X146.9539 Y8.0212
G01 X146.8267 Y7.9059
G01 X146.8167 Y7.8964
G01 X146.8072 Y7.8865
G01 X146.6919 Y7.7592
G01 X146.6786 Y7.7434
G01 X146.5722 Y7.6000
G01 X146.5642 Y7.5888
G01 X146.5569 Y7.5772
G01 X146.4651 Y7.4239
G01 X146.4557 Y7.4056
G01 X146.3794 Y7.2442
G01 X146.3717 Y7.2250
G01 X146.3413 Y7.1401
G01 X137.6610 Y7.1401
G01 X137.6307 Y7.2250
G01 X137.6230 Y7.2442
G01 X137.5467 Y7.4056
G01 X137.5372 Y7.4239
G01 X137.4455 Y7.5772
G01 X137.4381 Y7.5888
G01 X137.4302 Y7.6000
G01 X137.3238 Y7.7434
G01 X137.3105 Y7.7592
G01 X137.1952 Y7.8865
G01 X137.1857 Y7.8964
G01 X137.1757 Y7.9059
G01 X137.0485 Y8.0212
G01 X137.0381 Y8.0302
G01 X137.0272 Y8.0387
G01 X136.8837 Y8.1450
G01 X136.8664 Y8.1562
G01 X136.7191 Y8.2445
G01 X136.7072 Y8.2513
G01 X136.6949 Y8.2575
G01 X136.5397 Y8.3309
G01 X136.5271 Y8.3365
G01 X136.5143 Y8.3414
G01 X136.3526 Y8.3993
G01 X136.3395 Y8.4036
G01 X136.3263 Y8.4072
G01 X136.1597 Y8.4490
G01 X136.1463 Y8.4520
G01 X136.1327 Y8.4543
G01 X135.9629 Y8.4795
G01 X135.9492 Y8.4812
G01 X135.9355 Y8.4822
G01 X135.7640 Y8.4907
G01 X135.7503 Y8.4910
G01 X135.7365 Y8.4907
G01 X135.5650 Y8.4822
G01 X135.5513 Y8.4812
G01 X135.5376 Y8.4795
G01 X135.3678 Y8.4543
G01 X135.3542 Y8.4520
G01 X135.3408 Y8.4490
G01 X135.1742 Y8.4072
G01 X135.1610 Y8.4036
G01 X135.1479 Y8.3993
G01 X134.9862 Y8.3414
G01 X134.9734 Y8.3365
G01 X134.9608 Y8.3309
G01 X134.8056 Y8.2575
G01 X134.7933 Y8.2513
G01 X134.7814 Y8.2445
G01 X134.6341 Y8.1562
G01 X134.6168 Y8.1450
G01 X134.4733 Y8.0387
G01 X134.4624 Y8.0302
G01 X134.4520 Y8.0212
G01 X134.3248 Y7.9059
G01 X134.3148 Y7.8964
G01 X134.3053 Y7.8865
G01 X134.1900 Y7.7592
G01 X134.1767 Y7.7434
G01 X134.0703 Y7.6000
G01 X134.0624 Y7.5888
G01 X134.0550 Y7.5772
G01 X133.9633 Y7.4239
G01 X133.9538 Y7.4056
G01 X133.8775 Y7.2442
G01 X133.8698 Y7.2250
G01 X133.8395 Y7.1401
G01 X126.3631 Y7.1401
G01 X126.3328 Y7.2250
G01 X126.3251 Y7.2442
G01 X126.2488 Y7.4056
G01 X126.2393 Y7.4239
G01 X126.1476 Y7.5772
G01 X126.1402 Y7.5888
G01 X126.1323 Y7.6000
G01 X126.0258 Y7.7434
G01 X126.0126 Y7.7592
G01 X125.8972 Y7.8865
G01 X125.8878 Y7.8964
G01 X125.8778 Y7.9059
G01 X125.7506 Y8.0212
G01 X125.7401 Y8.0302
G01 X125.7293 Y8.0387
G01 X125.5858 Y8.1450
G01 X125.5685 Y8.1562
G01 X125.4212 Y8.2445
G01 X125.4093 Y8.2513
G01 X125.3970 Y8.2575
G01 X125.2417 Y8.3309
G01 X125.2292 Y8.3365
G01 X125.2164 Y8.3414
G01 X125.0547 Y8.3993
G01 X125.0416 Y8.4036
G01 X125.0284 Y8.4072
G01 X124.8618 Y8.4490
G01 X124.8484 Y8.4520
G01 X124.8348 Y8.4543
G01 X124.6649 Y8.4795
G01 X124.6513 Y8.4812
G01 X124.6376 Y8.4822
G01 X124.4661 Y8.4907
G01 X124.4523 Y8.4910
G01 X124.4386 Y8.4907
G01 X124.2671 Y8.4822
G01 X124.2534 Y8.4812
G01 X124.2397 Y8.4795
G01 X124.0698 Y8.4543
G01 X124.0563 Y8.4520
G01 X124.0429 Y8.4490
G01 X123.8763 Y8.4072
G01 X123.8631 Y8.4036
G01 X123.8500 Y8.3993
G01 X123.6883 Y8.3414
G01 X123.6755 Y8.3365
G01 X123.6629 Y8.3309
G01 X123.5077 Y8.2575
G01 X123.4954 Y8.2513
G01 X123.4834 Y8.2445
G01 X123.3361 Y8.1562
G01 X123.3189 Y8.1450
G01 X123.1753 Y8.0387
G01 X123.1645 Y8.0302
G01 X123.1541 Y8.0212
G01 X123.0269 Y7.9059
G01 X123.0169 Y7.8964
G01 X123.0074 Y7.8865
G01 X122.8921 Y7.7592
G01 X122.8788 Y7.7434
G01 X122.7724 Y7.6000
G01 X122.7644 Y7.5888
G01 X122.7571 Y7.5772
G01 X122.6653 Y7.4239
G01 X122.6559 Y7.4056
G01 X122.5796 Y7.2442
G01 X122.5719 Y7.2250
G01 X122.5415 Y7.1401
G01 X113.8612 Y7.1401
G01 X113.8309 Y7.2250
G01 X113.8232 Y7.2442
G01 X113.7469 Y7.4056
G01 X113.7374 Y7.4239
G01 X113.6457 Y7.5772
G01 X113.6383 Y7.5888
G01 X113.6304 Y7.6000
G01 X113.5240 Y7.7434
G01 X113.5107 Y7.7592
G01 X113.3954 Y7.8865
G01 X113.3859 Y7.8964
G01 X113.3759 Y7.9059
G01 X113.2487 Y8.0212
G01 X113.2383 Y8.0302
G01 X113.2274 Y8.0387
G01 X113.0839 Y8.1450
G01 X113.0666 Y8.1562
G01 X112.9193 Y8.2445
G01 X112.9074 Y8.2513
G01 X112.8951 Y8.2575
G01 X112.7399 Y8.3309
G01 X112.7273 Y8.3365
G01 X112.7145 Y8.3414
G01 X112.5528 Y8.3993
G01 X112.5397 Y8.4036
G01 X112.5265 Y8.4072
G01 X112.3599 Y8.4490
G01 X112.3465 Y8.4520
G01 X112.3329 Y8.4543
G01 X112.1631 Y8.4795
G01 X112.1494 Y8.4812
G01 X112.1357 Y8.4822
G01 X111.9642 Y8.4907
G01 X111.9505 Y8.4910
G01 X111.9367 Y8.4907
G01 X111.7652 Y8.4822
G01 X111.7515 Y8.4812
G01 X111.7378 Y8.4795
G01 X111.5680 Y8.4543
G01 X111.5544 Y8.4520
G01 X111.5410 Y8.4490
G01 X111.3744 Y8.4072
G01 X111.3612 Y8.4036
G01 X111.3481 Y8.3993
G01 X111.1864 Y8.3414
G01 X111.1736 Y8.3365
G01 X111.1610 Y8.3309
G01 X111.0058 Y8.2575
G01 X110.9935 Y8.2513
G01 X110.9816 Y8.2445
G01 X110.8343 Y8.1562
G01 X110.8170 Y8.1450
G01 X110.6735 Y8.0387
G01 X110.6626 Y8.0302
G01 X110.6522 Y8.0212
G01 X110.5250 Y7.9059
G01 X110.5150 Y7.8964
G01 X110.5055 Y7.8865
G01 X110.3902 Y7.7592
G01 X110.3769 Y7.7434
G01 X110.2705 Y7.6000
G01 X110.2626 Y7.5888
G01 X110.2552 Y7.5772
G01 X110.1635 Y7.4239
G01 X110.1540 Y7.4056
G01 X110.0777 Y7.2442
G01 X110.0700 Y7.2250
G01 X110.0397 Y7.1401
G01 X102.5633 Y7.1401
G01 X102.5330 Y7.2250
G01 X102.5253 Y7.2442
G01 X102.4490 Y7.4056
G01 X102.4395 Y7.4239
G01 X102.3478 Y7.5772
G01 X102.3404 Y7.5888
G01 X102.3325 Y7.6000
G01 X102.2260 Y7.7434
G01 X102.2128 Y7.7592
G01 X102.0974 Y7.8865
G01 X102.0880 Y7.8964
G01 X102.0780 Y7.9059
G01 X101.9508 Y8.0212
G01 X101.9403 Y8.0302
G01 X101.9295 Y8.0387
G01 X101.7860 Y8.1450
G01 X101.7687 Y8.1562
G01 X101.6214 Y8.2445
G01 X101.6095 Y8.2513
G01 X101.5972 Y8.2575
G01 X101.4419 Y8.3309
G01 X101.4294 Y8.3365
G01 X101.4166 Y8.3414
G01 X101.2549 Y8.3993
G01 X101.2418 Y8.4036
G01 X101.2286 Y8.4072
G01 X101.0620 Y8.4490
G01 X101.0486 Y8.4520
G01 X101.0350 Y8.4543
G01 X100.8651 Y8.4795
G01 X100.8515 Y8.4812
G01 X100.8378 Y8.4822
G01 X100.6663 Y8.4907
G01 X100.6525 Y8.4910
G01 X100.6388 Y8.4907
G01 X100.4673 Y8.4822
G01 X100.4536 Y8.4812
G01 X100.4399 Y8.4795
G01 X100.2700 Y8.4543
G01 X100.2565 Y8.4520
G01 X100.2431 Y8.4490
G01 X100.0765 Y8.4072
G01 X100.0633 Y8.4036
G01 X100.0502 Y8.3993
G01 X99.8885 Y8.3414
G01 X99.8757 Y8.3365
G01 X99.8631 Y8.3309
G01 X99.7079 Y8.2575
G01 X99.6956 Y8.2513
G01 X99.6836 Y8.2445
G01 X99.5363 Y8.1562
G01 X99.5191 Y8.1450
G01 X99.3755 Y8.0387
G01 X99.3647 Y8.0302
G01 X99.3543 Y8.0212
G01 X99.2271 Y7.9059
G01 X99.2171 Y7.8964
G01 X99.2076 Y7.8865
G01 X99.0923 Y7.7592
G01 X99.0790 Y7.7434
G01 X98.9726 Y7.6000
G01 X98.9646 Y7.5888
G01 X98.9573 Y7.5772
G01 X98.8655 Y7.4239
G01 X98.8561 Y7.4056
G01 X98.7798 Y7.2442
G01 X98.7721 Y7.2250
G01 X98.7417 Y7.1401
G01 X90.0614 Y7.1401
G01 X90.0311 Y7.2250
G01 X90.0234 Y7.2442
G01 X89.9471 Y7.4056
G01 X89.9376 Y7.4239
G01 X89.8459 Y7.5772
G01 X89.8385 Y7.5888
G01 X89.8306 Y7.6000
G01 X89.7242 Y7.7434
G01 X89.7109 Y7.7592
G01 X89.5956 Y7.8865
G01 X89.5861 Y7.8964
G01 X89.5761 Y7.9059
G01 X89.4489 Y8.0212
G01 X89.4385 Y8.0302
G01 X89.4276 Y8.0387
G01 X89.2841 Y8.1450
G01 X89.2668 Y8.1562
G01 X89.1195 Y8.2445
G01 X89.1076 Y8.2513
G01 X89.0953 Y8.2575
G01 X88.9401 Y8.3309
G01 X88.9275 Y8.3365
G01 X88.9147 Y8.3414
G01 X88.7530 Y8.3993
G01 X88.7399 Y8.4036
G01 X88.7267 Y8.4072
G01 X88.5601 Y8.4490
G01 X88.5467 Y8.4520
G01 X88.5331 Y8.4543
G01 X88.3633 Y8.4795
G01 X88.3496 Y8.4812
G01 X88.3359 Y8.4822
G01 X88.1644 Y8.4907
G01 X88.1507 Y8.4910
G01 X88.1369 Y8.4907
G01 X87.9654 Y8.4822
G01 X87.9517 Y8.4812
G01 X87.9380 Y8.4795
G01 X87.7682 Y8.4543
G01 X87.7546 Y8.4520
G01 X87.7412 Y8.4490
G01 X87.5746 Y8.4072
G01 X87.5614 Y8.4036
G01 X87.5483 Y8.3993
G01 X87.3866 Y8.3414
G01 X87.3738 Y8.3365
G01 X87.3612 Y8.3309
G01 X87.2060 Y8.2575
G01 X87.1937 Y8.2513
G01 X87.1818 Y8.2445
G01 X87.0345 Y8.1562
G01 X87.0172 Y8.1450
G01 X86.8737 Y8.0387
G01 X86.8628 Y8.0302
G01 X86.8524 Y8.0212
G01 X86.7252 Y7.9059
G01 X86.7152 Y7.8964
G01 X86.7057 Y7.8865
G01 X86.5904 Y7.7592
G01 X86.5771 Y7.7434
G01 X86.4707 Y7.6000
G01 X86.4628 Y7.5888
G01 X86.4554 Y7.5772
G01 X86.3637 Y7.4239
G01 X86.3542 Y7.4056
G01 X86.2779 Y7.2442
G01 X86.2702 Y7.2250
G01 X86.2399 Y7.1401
G01 X78.7635 Y7.1401
G01 X78.7332 Y7.2250
G01 X78.7255 Y7.2442
G01 X78.6492 Y7.4056
G01 X78.6397 Y7.4239
G01 X78.5480 Y7.5772
G01 X78.5406 Y7.5888
G01 X78.5327 Y7.6000
G01 X78.4262 Y7.7434
G01 X78.4130 Y7.7592
G01 X78.2976 Y7.8865
G01 X78.2882 Y7.8964
G01 X78.2782 Y7.9059
G01 X78.1510 Y8.0212
G01 X78.1405 Y8.0302
G01 X78.1297 Y8.0387
G01 X77.9862 Y8.1450
G01 X77.9689 Y8.1562
G01 X77.8216 Y8.2445
G01 X77.8097 Y8.2513
G01 X77.7974 Y8.2575
G01 X77.6421 Y8.3309
G01 X77.6296 Y8.3365
G01 X77.6168 Y8.3414
G01 X77.4551 Y8.3993
G01 X77.4420 Y8.4036
G01 X77.4288 Y8.4072
G01 X77.2622 Y8.4490
G01 X77.2488 Y8.4520
G01 X77.2352 Y8.4543
G01 X77.0653 Y8.4795
G01 X77.0517 Y8.4812
G01 X77.0380 Y8.4822
G01 X76.8665 Y8.4907
G01 X76.8527 Y8.4910
G01 X76.8390 Y8.4907
G01 X76.6675 Y8.4822
G01 X76.6538 Y8.4812
G01 X76.6401 Y8.4795
G01 X76.4702 Y8.4543
G01 X76.4567 Y8.4520
G01 X76.4433 Y8.4490
G01 X76.2767 Y8.4072
G01 X76.2635 Y8.4036
G01 X76.2504 Y8.3993
G01 X76.0887 Y8.3414
G01 X76.0759 Y8.3365
G01 X76.0633 Y8.3309
G01 X75.9081 Y8.2575
G01 X75.8958 Y8.2513
G01 X75.8838 Y8.2445
G01 X75.7365 Y8.1562
G01 X75.7193 Y8.1450
G01 X75.5757 Y8.0387
G01 X75.5649 Y8.0302
G01 X75.5545 Y8.0212
G01 X75.4273 Y7.9059
G01 X75.4173 Y7.8964
G01 X75.4078 Y7.8865
G01 X75.2925 Y7.7592
G01 X75.2792 Y7.7434
G01 X75.1728 Y7.6000
G01 X75.1648 Y7.5888
G01 X75.1575 Y7.5772
G01 X75.0657 Y7.4239
G01 X75.0563 Y7.4056
G01 X74.9800 Y7.2442
G01 X74.9723 Y7.2250
G01 X74.9419 Y7.1401
G01 X66.2616 Y7.1401
G01 X66.2313 Y7.2250
G01 X66.2236 Y7.2442
G01 X66.1473 Y7.4056
G01 X66.1378 Y7.4239
G01 X66.0461 Y7.5772
G01 X66.0387 Y7.5888
G01 X66.0308 Y7.6000
G01 X65.9244 Y7.7434
G01 X65.9111 Y7.7592
G01 X65.7958 Y7.8865
G01 X65.7863 Y7.8964
G01 X65.7763 Y7.9059
G01 X65.6491 Y8.0212
G01 X65.6387 Y8.0302
G01 X65.6278 Y8.0387
G01 X65.4843 Y8.1450
G01 X65.4670 Y8.1562
G01 X65.3197 Y8.2445
G01 X65.3078 Y8.2513
G01 X65.2955 Y8.2575
G01 X65.1403 Y8.3309
G01 X65.1277 Y8.3365
G01 X65.1149 Y8.3414
G01 X64.9532 Y8.3993
G01 X64.9401 Y8.4036
G01 X64.9269 Y8.4072
G01 X64.7603 Y8.4490
G01 X64.7469 Y8.4520
G01 X64.7333 Y8.4543
G01 X64.5635 Y8.4795
G01 X64.5498 Y8.4812
G01 X64.5361 Y8.4822
G01 X64.3646 Y8.4907
G01 X64.3509 Y8.4910
G01 X64.3371 Y8.4907
G01 X64.1656 Y8.4822
G01 X64.1519 Y8.4812
G01 X64.1382 Y8.4795
G01 X63.9684 Y8.4543
G01 X63.9548 Y8.4520
G01 X63.9414 Y8.4490
G01 X63.7748 Y8.4072
G01 X63.7616 Y8.4036
G01 X63.7485 Y8.3993
G01 X63.5868 Y8.3414
G01 X63.5740 Y8.3365
G01 X63.5614 Y8.3309
G01 X63.4062 Y8.2575
G01 X63.3939 Y8.2513
G01 X63.3820 Y8.2445
G01 X63.2347 Y8.1562
G01 X63.2174 Y8.1450
G01 X63.0739 Y8.0387
G01 X63.0630 Y8.0302
G01 X63.0526 Y8.0212
G01 X62.9254 Y7.9059
G01 X62.9154 Y7.8964
G01 X62.9059 Y7.8865
G01 X62.7906 Y7.7592
G01 X62.7773 Y7.7434
G01 X62.6709 Y7.6000
G01 X62.6630 Y7.5888
G01 X62.6556 Y7.5772
G01 X62.5639 Y7.4239
G01 X62.5544 Y7.4056
G01 X62.4781 Y7.2442
G01 X62.4704 Y7.2250
G01 X62.4401 Y7.1401
G01 X54.9637 Y7.1401
G01 X54.9334 Y7.2250
G01 X54.9257 Y7.2442
G01 X54.8494 Y7.4056
G01 X54.8399 Y7.4239
G01 X54.7482 Y7.5772
G01 X54.7408 Y7.5888
G01 X54.7329 Y7.6000
G01 X54.6264 Y7.7434
G01 X54.6132 Y7.7592
G01 X54.4978 Y7.8865
G01 X54.4884 Y7.8964
G01 X54.4784 Y7.9059
G01 X54.3512 Y8.0212
G01 X54.3407 Y8.0302
G01 X54.3299 Y8.0387
G01 X54.1864 Y8.1450
G01 X54.1691 Y8.1562
G01 X54.0218 Y8.2445
G01 X54.0099 Y8.2513
G01 X53.9976 Y8.2575
G01 X53.8423 Y8.3309
G01 X53.8298 Y8.3365
G01 X53.8170 Y8.3414
G01 X53.6553 Y8.3993
G01 X53.6422 Y8.4036
G01 X53.6290 Y8.4072
G01 X53.4624 Y8.4490
G01 X53.4490 Y8.4520
G01 X53.4354 Y8.4543
G01 X53.2655 Y8.4795
G01 X53.2519 Y8.4812
G01 X53.2382 Y8.4822
G01 X53.0667 Y8.4907
G01 X53.0529 Y8.4910
G01 X53.0392 Y8.4907
G01 X52.8677 Y8.4822
G01 X52.8540 Y8.4812
G01 X52.8403 Y8.4795
G01 X52.6704 Y8.4543
G01 X52.6569 Y8.4520
G01 X52.6435 Y8.4490
G01 X52.4769 Y8.4072
G01 X52.4637 Y8.4036
G01 X52.4506 Y8.3993
G01 X52.2889 Y8.3414
G01 X52.2761 Y8.3365
G01 X52.2635 Y8.3309
G01 X52.1083 Y8.2575
G01 X52.0960 Y8.2513
G01 X52.0840 Y8.2445
G01 X51.9367 Y8.1562
G01 X51.9195 Y8.1450
G01 X51.7759 Y8.0387
G01 X51.7651 Y8.0302
G01 X51.7547 Y8.0212
G01 X51.6275 Y7.9059
G01 X51.6175 Y7.8964
G01 X51.6080 Y7.8865
G01 X51.4927 Y7.7592
G01 X51.4794 Y7.7434
G01 X51.3730 Y7.6000
G01 X51.3650 Y7.5888
G01 X51.3577 Y7.5772
G01 X51.2659 Y7.4239
G01 X51.2565 Y7.4056
G01 X51.1802 Y7.2442
G01 X51.1725 Y7.2250
G01 X51.1421 Y7.1401
G01 X42.4618 Y7.1401
G01 X42.4315 Y7.2250
G01 X42.4238 Y7.2442
G01 X42.3475 Y7.4056
G01 X42.3380 Y7.4239
G01 X42.2463 Y7.5772
G01 X42.2389 Y7.5888
G01 X42.2310 Y7.6000
G01 X42.1246 Y7.7434
G01 X42.1113 Y7.7592
G01 X41.9960 Y7.8865
G01 X41.9865 Y7.8964
G01 X41.9765 Y7.9059
G01 X41.8493 Y8.0212
G01 X41.8389 Y8.0302
G01 X41.8280 Y8.0387
G01 X41.6845 Y8.1450
G01 X41.6672 Y8.1562
G01 X41.5199 Y8.2445
G01 X41.5080 Y8.2513
G01 X41.4957 Y8.2575
G01 X41.3405 Y8.3309
G01 X41.3279 Y8.3365
G01 X41.3151 Y8.3414
G01 X41.1534 Y8.3993
G01 X41.1403 Y8.4036
G01 X41.1271 Y8.4072
G01 X40.9605 Y8.4490
G01 X40.9471 Y8.4520
G01 X40.9335 Y8.4543
G01 X40.7637 Y8.4795
G01 X40.7500 Y8.4812
G01 X40.7363 Y8.4822
G01 X40.5648 Y8.4907
G01 X40.5511 Y8.4910
G01 X40.5373 Y8.4907
G01 X40.3658 Y8.4822
G01 X40.3521 Y8.4812
G01 X40.3384 Y8.4795
G01 X40.1686 Y8.4543
G01 X40.1550 Y8.4520
G01 X40.1416 Y8.4490
G01 X39.9750 Y8.4072
G01 X39.9618 Y8.4036
G01 X39.9487 Y8.3993
G01 X39.7870 Y8.3414
G01 X39.7742 Y8.3365
G01 X39.7616 Y8.3309
G01 X39.6064 Y8.2575
G01 X39.5941 Y8.2513
G01 X39.5822 Y8.2445
G01 X39.4349 Y8.1562
G01 X39.4176 Y8.1450
G01 X39.2741 Y8.0387
G01 X39.2632 Y8.0302
G01 X39.2528 Y8.0212
G01 X39.1256 Y7.9059
G01 X39.1156 Y7.8964
G01 X39.1061 Y7.8865
G01 X38.9908 Y7.7592
G01 X38.9775 Y7.7434
G01 X38.8711 Y7.6000
G01 X38.8632 Y7.5888
G01 X38.8558 Y7.5772
G01 X38.7641 Y7.4239
G01 X38.7546 Y7.4056
G01 X38.6783 Y7.2442
G01 X38.6706 Y7.2250
G01 X38.6403 Y7.1401
G01 X31.1614 Y7.1401
G01 X31.1310 Y7.2250
G01 X31.1234 Y7.2442
G01 X31.0471 Y7.4056
G01 X31.0376 Y7.4239
G01 X30.9458 Y7.5772
G01 X30.9385 Y7.5888
G01 X30.9306 Y7.6000
G01 X30.8241 Y7.7434
G01 X30.8108 Y7.7592
G01 X30.6955 Y7.8865
G01 X30.6860 Y7.8964
G01 X30.6761 Y7.9059
G01 X30.5488 Y8.0212
G01 X30.5384 Y8.0302
G01 X30.5276 Y8.0387
G01 X30.3841 Y8.1450
G01 X30.3668 Y8.1562
G01 X30.2195 Y8.2445
G01 X30.2075 Y8.2513
G01 X30.1953 Y8.2575
G01 X30.0400 Y8.3309
G01 X30.0274 Y8.3365
G01 X30.0146 Y8.3414
G01 X29.8529 Y8.3993
G01 X29.8399 Y8.4036
G01 X29.8266 Y8.4072
G01 X29.6600 Y8.4490
G01 X29.6466 Y8.4520
G01 X29.6331 Y8.4543
G01 X29.4632 Y8.4795
G01 X29.4496 Y8.4812
G01 X29.4359 Y8.4822
G01 X29.2643 Y8.4907
G01 X29.2506 Y8.4910
G01 X29.2369 Y8.4907
G01 X29.0653 Y8.4822
G01 X29.0516 Y8.4812
G01 X29.0380 Y8.4795
G01 X28.8681 Y8.4543
G01 X28.8546 Y8.4520
G01 X28.8411 Y8.4490
G01 X28.6746 Y8.4072
G01 X28.6613 Y8.4036
G01 X28.6483 Y8.3993
G01 X28.4866 Y8.3414
G01 X28.4737 Y8.3365
G01 X28.4612 Y8.3309
G01 X28.3059 Y8.2575
G01 X28.2937 Y8.2513
G01 X28.2817 Y8.2445
G01 X28.1344 Y8.1562
G01 X28.1171 Y8.1450
G01 X27.9736 Y8.0387
G01 X27.9628 Y8.0302
G01 X27.9524 Y8.0212
G01 X27.8251 Y7.9059
G01 X27.8152 Y7.8964
G01 X27.8057 Y7.8865
G01 X27.6904 Y7.7592
G01 X27.6771 Y7.7434
G01 X27.5706 Y7.6000
G01 X27.5627 Y7.5888
G01 X27.5554 Y7.5772
G01 X27.4636 Y7.4239
G01 X27.4541 Y7.4056
G01 X27.3778 Y7.2442
G01 X27.3702 Y7.2250
G01 X27.3398 Y7.1401
G01 X18.6595 Y7.1401
G01 X18.6291 Y7.2250
G01 X18.6215 Y7.2442
G01 X18.5452 Y7.4056
G01 X18.5357 Y7.4239
G01 X18.4439 Y7.5772
G01 X18.4366 Y7.5888
G01 X18.4287 Y7.6000
G01 X18.3222 Y7.7434
G01 X18.3089 Y7.7592
G01 X18.1936 Y7.8865
G01 X18.1841 Y7.8964
G01 X18.1742 Y7.9059
G01 X18.0469 Y8.0212
G01 X18.0365 Y8.0302
G01 X18.0257 Y8.0387
G01 X17.8822 Y8.1450
G01 X17.8649 Y8.1562
G01 X17.7176 Y8.2445
G01 X17.7056 Y8.2513
G01 X17.6934 Y8.2575
G01 X17.5381 Y8.3309
G01 X17.5256 Y8.3365
G01 X17.5127 Y8.3414
G01 X17.3510 Y8.3993
G01 X17.3380 Y8.4036
G01 X17.3247 Y8.4072
G01 X17.1582 Y8.4490
G01 X17.1447 Y8.4520
G01 X17.1312 Y8.4543
G01 X16.9613 Y8.4795
G01 X16.9477 Y8.4812
G01 X16.9340 Y8.4822
G01 X16.7624 Y8.4907
G01 X16.7418 Y8.4909
G01 X16.5634 Y8.4822
G01 X16.5497 Y8.4812
G01 X16.5361 Y8.4795
G01 X16.3662 Y8.4543
G01 X16.3527 Y8.4520
G01 X16.3393 Y8.4490
G01 X16.1727 Y8.4072
G01 X16.1594 Y8.4036
G01 X16.1464 Y8.3993
G01 X15.9847 Y8.3414
G01 X15.9719 Y8.3365
G01 X15.9593 Y8.3309
G01 X15.8041 Y8.2575
G01 X15.7918 Y8.2513
G01 X15.7798 Y8.2445
G01 X15.6325 Y8.1562
G01 X15.6152 Y8.1450
G01 X15.4717 Y8.0387
G01 X15.4609 Y8.0302
G01 X15.4505 Y8.0212
G01 X15.3232 Y7.9059
G01 X15.3133 Y7.8964
G01 X15.3038 Y7.8865
G01 X15.1885 Y7.7592
G01 X15.1752 Y7.7434
G01 X15.0687 Y7.6000
G01 X15.0608 Y7.5888
G01 X15.0535 Y7.5772
G01 X14.9617 Y7.4239
G01 X14.9522 Y7.4056
G01 X14.8759 Y7.2442
G01 X14.8683 Y7.2250
G01 X14.8379 Y7.1402
G00 Z2.0000
G00 X16.0685 Y13.4514
G01 F60.00
G01 Z0.0000
G01 F120.00
G01 X15.9847 Y13.4214
G01 X15.9655 Y13.4138
G01 X15.8041 Y13.3375
G01 X15.7858 Y13.3280
G01 X15.6325 Y13.2362
G01 X15.6209 Y13.2289
G01 X15.6097 Y13.2210
G01 X15.4663 Y13.1145
G01 X15.4505 Y13.1012
G01 X15.3232 Y12.9859
G01 X15.3133 Y12.9764
G01 X15.3038 Y12.9665
G01 X15.1885 Y12.8392
G01 X15.1795 Y12.8288
G01 X15.1710 Y12.8180
G01 X15.0687 Y12.6800
G01 X15.0571 Y12.6630
G01 X14.9652 Y12.5099
G01 X14.9584 Y12.4979
G01 X14.9522 Y12.4856
G01 X14.8788 Y12.3304
G01 X14.8732 Y12.3178
G01 X14.8683 Y12.3050
G01 X14.8104 Y12.1433
G01 X14.8061 Y12.1303
G01 X14.8025 Y12.1170
G01 X14.7607 Y11.9504
G01 X14.7577 Y11.9370
G01 X14.7554 Y11.9235
G01 X14.7302 Y11.7536
G01 X14.7285 Y11.7400
G01 X14.7275 Y11.7263
G01 X14.7190 Y11.5547
G01 X14.7187 Y11.5410
G01 X14.7190 Y11.5273
G01 X14.7275 Y11.3557
G01 X14.7292 Y11.3352
G01 X14.7554 Y11.1585
G01 X14.7577 Y11.1450
G01 X14.7607 Y11.1315
G01 X14.8025 Y10.9650
G01 X14.8061 Y10.9517
G01 X14.8104 Y10.9387
G01 X14.8683 Y10.7770
G01 X14.8732 Y10.7641
G01 X14.8788 Y10.7516
G01 X14.9522 Y10.5963
G01 X14.9584 Y10.5841
G01 X14.9652 Y10.5721
G01 X15.0535 Y10.4248
G01 X15.0608 Y10.4132
G01 X15.0687 Y10.4019
G01 X15.1710 Y10.2640
G01 X15.1795 Y10.2532
G01 X15.1885 Y10.2428
G01 X15.3038 Y10.1155
G01 X15.3133 Y10.1056
G01 X15.3232 Y10.0961
G01 X15.4505 Y9.9808
G01 X15.4609 Y9.9718
G01 X15.4717 Y9.9633
G01 X15.6097 Y9.8610
G01 X15.6209 Y9.8531
G01 X15.6325 Y9.8458
G01 X15.7798 Y9.7575
G01 X15.7918 Y9.7507
G01 X15.8041 Y9.7445
G01 X15.9593 Y9.6711
G01 X15.9719 Y9.6655
G01 X15.9847 Y9.6606
G01 X16.1464 Y9.6027
G01 X16.1594 Y9.5984
G01 X16.1727 Y9.5947
G01 X16.3393 Y9.5530
G01 X16.3527 Y9.5500
G01 X16.3662 Y9.5476
G01 X16.5361 Y9.5224
G01 X16.5497 Y9.5208
G01 X16.5634 Y9.5198
G01 X16.7350 Y9.5113
G01 X16.7487 Y9.5110
G01 X16.7624 Y9.5113
G01 X16.9340 Y9.5198
G01 X16.9477 Y9.5208
G01 X16.9613 Y9.5224
G01 X17.1312 Y9.5476
G01 X17.1447 Y9.5500
G01 X17.1582 Y9.5530
G01 X17.3247 Y9.5947
G01 X17.3380 Y9.5984
G01 X17.3510 Y9.6027
G01 X17.5127 Y9.6606
G01 X17.5256 Y9.6655
G01 X17.5381 Y9.6711
G01 X17.6934 Y9.7445
G01 X17.7056 Y9.7507
G01 X17.7176 Y9.7575
G01 X17.8708 Y9.8494
G01 X17.8878 Y9.8610
G01 X18.0257 Y9.9633
G01 X18.0365 Y9.9718
G01 X18.0469 Y9.9808
G01 X18.1742 Y10.0961
G01 X18.1841 Y10.1056
G01 X18.1936 Y10.1155
G01 X18.3089 Y10.2428
G01 X18.3222 Y10.2585
G01 X18.4287 Y10.4019
G01 X18.4366 Y10.4132
G01 X18.4439 Y10.4248
G01 X18.5357 Y10.5780
G01 X18.5452 Y10.5963
G01 X18.6215 Y10.7578
G01 X18.6291 Y10.7770
G01 X18.6588 Y10.8598
G01 X27.3405 Y10.8598
G01 X27.3702 Y10.7770
G01 X27.3778 Y10.7578
G01 X27.4541 Y10.5963
G01 X27.4636 Y10.5780
G01 X27.5554 Y10.4248
G01 X27.5627 Y10.4132
G01 X27.5706 Y10.4019
G01 X27.6771 Y10.2585
G01 X27.6904 Y10.2428
G01 X27.8057 Y10.1155
G01 X27.8152 Y10.1056
G01 X27.8251 Y10.0961
G01 X27.9524 Y9.9808
G01 X27.9628 Y9.9718
G01 X27.9736 Y9.9633
G01 X28.1115 Y9.8610
G01 X28.1285 Y9.8494
G01 X28.2817 Y9.7575
G01 X28.2937 Y9.7507
G01 X28.3059 Y9.7445
G01 X28.4612 Y9.6711
G01 X28.4737 Y9.6655
G01 X28.4866 Y9.6606
G01 X28.6483 Y9.6027
G01 X28.6613 Y9.5984
G01 X28.6746 Y9.5947
G01 X28.8411 Y9.5530
G01 X28.8546 Y9.5500
G01 X28.8681 Y9.5476
G01 X29.0380 Y9.5224
G01 X29.0516 Y9.5208
G01 X29.0653 Y9.5198
G01 X29.2369 Y9.5113
G01 X29.2506 Y9.5110
G01 X29.2643 Y9.5113
G01 X29.4359 Y9.5198
G01 X29.4564 Y9.5215
G01 X29.6331 Y9.5476
G01 X29.6466 Y9.5500
G01 X29.6600 Y9.5530
G01 X29.8266 Y9.5947
G01 X29.8399 Y9.5984
G01 X29.8529 Y9.6027
G01 X30.0146 Y9.6606
G01 X30.0274 Y9.6655
G01 X30.0400 Y9.6711
G01 X30.1953 Y9.7445
G01 X30.2075 Y9.7507
G01 X30.2195 Y9.7575
G01 X30.3668 Y9.8458
G01 X30.3784 Y9.8531
G01 X30.3896 Y9.8610
G01 X30.5276 Y9.9633
G01 X30.5384 Y9.9718
G01 X30.5488 Y9.9808
G01 X30.6761 Y10.0961
G01 X30.6860 Y10.1056
G01 X30.6955 Y10.1155
G01 X30.8108 Y10.2428
G01 X30.8198 Y10.2532
G01 X30.8283 Y10.2640
G01 X30.9306 Y10.4019
G01 X30.9385 Y10.4132
G01 X30.9458 Y10.4248
G01 X31.0341 Y10.5721
G01 X31.0409 Y10.5841
G01 X31.0471 Y10.5963
G01 X31.1205 Y10.7516
G01 X31.1261 Y10.7641
G01 X31.1310 Y10.7770
G01 X31.1889 Y10.9387
G01 X31.1932 Y10.9517
G01 X31.1968 Y10.9650
G01 X31.2386 Y11.1315
G01 X31.2416 Y11.1450
G01 X31.2439 Y11.1585
G01 X31.2691 Y11.3284
G01 X31.2708 Y11.3420
G01 X31.2718 Y11.3557
G01 X31.2803 Y11.5273
G01 X31.2806 Y11.5410
G01 X31.2803 Y11.5547
G01 X31.2718 Y11.7263
G01 X31.2708 Y11.7400
G01 X31.2691 Y11.7536
G01 X31.2439 Y11.9235
G01 X31.2416 Y11.9370
G01 X31.2386 Y11.9504
G01 X31.1968 Y12.1170
G01 X31.1932 Y12.1303
G01 X31.1889 Y12.1433
G01 X31.1310 Y12.3050
G01 X31.1261 Y12.3178
G01 X31.1205 Y12.3304
G01 X31.0471 Y12.4856
G01 X31.0409 Y12.4979
G01 X31.0341 Y12.5099
G01 X30.9458 Y12.6572
G01 X30.9385 Y12.6688
G01 X30.9306 Y12.6800
G01 X30.8283 Y12.8180
G01 X30.8198 Y12.8288
G01 X30.8108 Y12.8392
G01 X30.6955 Y12.9665
G01 X30.6860 Y12.9764
G01 X30.6761 Y12.9859
G01 X30.5488 Y13.1012
G01 X30.5384 Y13.1102
G01 X30.5276 Y13.1187
G01 X30.3896 Y13.2210
G01 X30.3784 Y13.2289
G01 X30.3668 Y13.2362
G01 X30.2195 Y13.3245
G01 X30.2075 Y13.3313
G01 X30.1953 Y13.3375
G01 X30.0400 Y13.4109
G01 X30.0274 Y13.4165
G01 X30.0146 Y13.4214
G01 X29.8529 Y13.4793
G01 X29.8399 Y13.4836
G01 X29.8266 Y13.4872
G01 X29.6600 Y13.5290
G01 X29.6466 Y13.5320
G01 X29.6331 Y13.5343
G01 X29.4632 Y13.5595
G01 X29.4427 Y13.5618
G01 X29.2643 Y13.5707
G01 X29.2506 Y13.5710
G01 X29.2369 Y13.5707
G01 X29.0653 Y13.5622
G01 X29.0516 Y13.5612
G01 X29.0380 Y13.5595
G01 X28.8681 Y13.5343
G01 X28.8546 Y13.5320
G01 X28.8411 Y13.5290
G01 X28.6746 Y13.4872
G01 X28.6613 Y13.4836
G01 X28.6483 Y13.4793
G01 X28.4866 Y13.4214
G01 X28.4737 Y13.4165
G01 X28.4612 Y13.4109
G01 X28.3059 Y13.3375
G01 X28.2937 Y13.3313
G01 X28.2817 Y13.3245
G01 X28.1285 Y13.2326
G01 X28.1115 Y13.2210
G01 X27.9736 Y13.1187
G01 X27.9628 Y13.1102
G01 X27.9524 Y13.1012
G01 X27.8251 Y12.9859
G01 X27.8152 Y12.9764
G01 X27.8057 Y12.9665
G01 X27.6904 Y12.8392
G01 X27.6771 Y12.8234
G01 X27.5706 Y12.6800
G01 X27.5627 Y12.6688
G01 X27.5554 Y12.6572
G01 X27.4636 Y12.5039
G01 X27.4541 Y12.4856
G01 X27.3778 Y12.3242
G01 X27.3702 Y12.3050
G01 X27.3398 Y12.2202
G01 X18.6595 Y12.2202
G01 X18.6291 Y12.3050
G01 X18.6215 Y12.3242
G01 X18.5422 Y12.4918
G01 X18.5322 Y12.5099
G01 X18.4403 Y12.6630
G01 X18.4287 Y12.6800
G01 X18.3264 Y12.8180
G01 X18.3179 Y12.8288
G01 X18.3089 Y12.8392
G01 X18.1936 Y12.9665
G01 X18.1841 Y12.9764
G01 X18.1742 Y12.9859
G01 X18.0469 Y13.1012
G01 X18.0365 Y13.1102
G01 X18.0257 Y13.1187
G01 X17.8878 Y13.2210
G01 X17.8708 Y13.2326
G01 X17.7176 Y13.3245
G01 X17.6995 Y13.3345
G01 X17.5319 Y13.4138
G01 X17.5127 Y13.4214
G01 X17.4289 Y13.4514
G01 X17.4289 Y26.2501
G01 X17.4266 Y26.3031
G01 X17.4256 Y26.3168
G01 X17.4240 Y26.3304
G01 X17.4171 Y26.3761
G01 X17.4128 Y26.3962
G01 X17.3996 Y26.4476
G01 X17.3821 Y26.4976
G01 X17.3744 Y26.5167
G01 X17.3518 Y26.5647
G01 X17.3453 Y26.5768
G01 X17.3216 Y26.6164
G01 X17.3143 Y26.6280
G01 X17.3064 Y26.6392
G01 X17.2745 Y26.6816
G01 X17.2392 Y26.7211
G01 X17.2297 Y26.7311
G01 X14.4788 Y29.4819
G01 X14.4689 Y29.4914
G01 X14.4294 Y29.5268
G01 X14.3870 Y29.5586
G01 X14.3758 Y29.5665
G01 X14.3641 Y29.5739
G01 X14.3185 Y29.6008
G01 X14.2707 Y29.6238
G01 X14.2582 Y29.6294
G01 X14.2453 Y29.6343
G01 X14.1953 Y29.6519
G01 X14.1440 Y29.6651
G01 X14.1306 Y29.6681
G01 X14.1170 Y29.6704
G01 X14.0645 Y29.6779
G01 X14.0116 Y29.6808
G01 X13.9979 Y29.6811
G01 X11.0007 Y29.6811
G01 X10.0003 Y29.6802
G01 X9.9866 Y29.6798
G01 X9.9336 Y29.6768
G01 X9.8811 Y29.6693
G01 X9.8676 Y29.6670
G01 X9.8161 Y29.6544
G01 X9.8029 Y29.6507
G01 X9.7898 Y29.6464
G01 X9.7464 Y29.6307
G01 X9.7337 Y29.6254
G01 X9.6920 Y29.6057
G01 X9.6797 Y29.5995
G01 X9.6678 Y29.5927
G01 X9.6225 Y29.5652
G01 X9.6113 Y29.5572
G01 X9.5743 Y29.5296
G01 X9.5585 Y29.5163
G01 X9.5244 Y29.4853
G01 X9.5147 Y29.4755
G01 X9.4837 Y29.4414
G01 X9.4747 Y29.4310
G01 X9.4429 Y29.3885
G01 X9.4313 Y29.3715
G01 X9.4075 Y29.3320
G01 X9.4008 Y29.3200
G01 X9.3946 Y29.3077
G01 X9.3750 Y29.2660
G01 X9.3674 Y29.2468
G01 X9.3499 Y29.1968
G01 X9.3462 Y29.1835
G01 X9.3351 Y29.1387
G01 X9.3325 Y29.1252
G01 X9.3256 Y29.0796
G01 X9.3240 Y29.0660
G01 X9.3230 Y29.0523
G01 X9.3208 Y28.9993
G01 X9.3231 Y28.9463
G01 X9.3249 Y28.9258
G01 X9.3316 Y28.8801
G01 X9.3340 Y28.8666
G01 X9.3370 Y28.8532
G01 X9.3483 Y28.8085
G01 X9.3546 Y28.7888
G01 X9.3728 Y28.7390
G01 X9.3952 Y28.6910
G01 X9.4014 Y28.6787
G01 X9.4082 Y28.6668
G01 X9.4358 Y28.6215
G01 X9.4671 Y28.5788
G01 X9.4800 Y28.5627
G01 X9.5110 Y28.5285
G01 X9.5205 Y28.5185
G01 X9.5304 Y28.5090
G01 X9.5647 Y28.4782
G01 X9.5808 Y28.4653
G01 X9.6236 Y28.4340
G01 X9.6353 Y28.4267
G01 X9.6749 Y28.4031
G01 X9.6932 Y28.3936
G01 X9.7413 Y28.3713
G01 X9.7541 Y28.3663
G01 X9.7976 Y28.3509
G01 X9.8174 Y28.3452
G01 X9.8689 Y28.3327
G01 X9.9213 Y28.3246
G01 X9.9418 Y28.3224
G01 X9.9948 Y28.3198
G01 X11.0010 Y28.3208
G01 X13.7161 Y28.3208
G01 X16.0685 Y25.9684
G01 X16.0685 Y13.4514
G00 Z2.0000
G00 X27.4712 Y11.0398
G01 F60.00
G01 Z0.0000
G01 F120.00
G01 X27.4810 Y11.0016
G01 X27.5405 Y10.8353
G01 X27.5434 Y10.8285
G01 X27.6190 Y10.6689
G01 X27.7124 Y10.5132
G01 X27.8205 Y10.3674
G01 X27.9424 Y10.2328
G01 X28.0770 Y10.1109
G01 X28.2228 Y10.0028
G01 X28.3785 Y9.9094
G01 X28.5426 Y9.8318
G01 X28.7136 Y9.7707
G01 X28.8897 Y9.7265
G01 X29.0693 Y9.6999
G01 X29.2506 Y9.6910
G01 X29.4319 Y9.6999
G01 X29.6115 Y9.7265
G01 X29.7876 Y9.7707
G01 X29.9586 Y9.8318
G01 X30.1227 Y9.9094
G01 X30.2784 Y10.0028
G01 X30.4242 Y10.1109
G01 X30.5587 Y10.2328
G01 X30.6807 Y10.3674
G01 X30.7888 Y10.5132
G01 X30.8821 Y10.6689
G01 X30.9598 Y10.8330
G01 X31.0209 Y11.0040
G01 X31.0650 Y11.1801
G01 X31.0917 Y11.3597
G01 X31.1006 Y11.5410
G01 X31.0917 Y11.7223
G01 X31.0650 Y11.9019
G01 X31.0209 Y12.0780
G01 X30.9615 Y12.2444
G01 X30.9578 Y12.2534
G01 X30.8821 Y12.4131
G01 X30.7888 Y12.5688
G01 X30.6807 Y12.7146
G01 X30.5621 Y12.8456
G01 X30.5552 Y12.8525
G01 X30.4279 Y12.9679
G01 X30.4203 Y12.9741
G01 X30.2784 Y13.0792
G01 X30.1227 Y13.1725
G01 X29.9586 Y13.2502
G01 X29.7923 Y13.3098
G01 X29.7829 Y13.3126
G01 X29.6163 Y13.3544
G01 X29.6067 Y13.3563
G01 X29.4319 Y13.3821
G01 X29.2506 Y13.3910
G01 X29.0693 Y13.3821
G01 X28.8945 Y13.3563
G01 X28.8849 Y13.3544
G01 X28.7183 Y13.3126
G01 X28.7089 Y13.3098
G01 X28.5426 Y13.2502
G01 X28.3785 Y13.1725
G01 X28.2228 Y13.0792
G01 X28.0808 Y12.9741
G01 X28.0732 Y12.9679
G01 X27.9460 Y12.8525
G01 X27.9391 Y12.8456
G01 X27.8205 Y12.7146
G01 X27.7124 Y12.5688
G01 X27.6190 Y12.4131
G01 X27.5424 Y12.2512
G01 X27.5396 Y12.2444
G01 X27.4810 Y12.0804
G01 X27.4707 Y12.0402
G01 X18.5286 Y12.0402
G01 X18.5183 Y12.0804
G01 X18.4588 Y12.2467
G01 X18.4559 Y12.2534
G01 X18.3825 Y12.4087
G01 X18.3778 Y12.4173
G01 X18.2869 Y12.5688
G01 X18.1818 Y12.7107
G01 X18.1756 Y12.7183
G01 X18.0569 Y12.8491
G01 X17.9261 Y12.9679
G01 X17.9185 Y12.9741
G01 X17.7765 Y13.0792
G01 X17.6251 Y13.1701
G01 X17.6164 Y13.1748
G01 X17.4567 Y13.2502
G01 X17.2881 Y13.3106
G01 X17.2489 Y13.3207
G01 X17.2489 Y26.2501
G01 X17.2465 Y26.2991
G01 X17.2401 Y26.3429
G01 X17.2382 Y26.3525
G01 X17.2274 Y26.3953
G01 X17.2126 Y26.4369
G01 X17.2088 Y26.4460
G01 X17.1921 Y26.4815
G01 X17.1874 Y26.4902
G01 X17.1672 Y26.5239
G01 X17.1618 Y26.5320
G01 X17.1354 Y26.5674
G01 X17.1024 Y26.6038
G01 X14.3516 Y29.3546
G01 X14.3152 Y29.3876
G01 X14.2758 Y29.4169
G01 X14.2337 Y29.4421
G01 X14.1870 Y29.4640
G01 X14.1431 Y29.4796
G01 X14.0954 Y29.4915
G01 X14.0469 Y29.4987
G01 X13.9979 Y29.5011
G01 X11.0007 Y29.5011
G01 X9.9980 Y29.5001
G01 X9.9514 Y29.4977
G01 X9.9029 Y29.4905
G01 X9.8553 Y29.4785
G01 X9.8091 Y29.4619
G01 X9.7647 Y29.4409
G01 X9.7227 Y29.4156
G01 X9.6833 Y29.3863
G01 X9.6487 Y29.3550
G01 X9.6172 Y29.3206
G01 X9.6110 Y29.3130
G01 X9.5848 Y29.2774
G01 X9.5620 Y29.2396
G01 X9.5574 Y29.2309
G01 X9.5387 Y29.1909
G01 X9.5237 Y29.1493
G01 X9.5209 Y29.1400
G01 X9.5103 Y29.0971
G01 X9.5037 Y29.0534
G01 X9.5028 Y29.0436
G01 X9.5008 Y28.9995
G01 X9.5032 Y28.9504
G01 X9.5096 Y28.9067
G01 X9.5116 Y28.8971
G01 X9.5225 Y28.8543
G01 X9.5390 Y28.8081
G01 X9.5579 Y28.7681
G01 X9.5625 Y28.7595
G01 X9.5853 Y28.7217
G01 X9.6116 Y28.6861
G01 X9.6178 Y28.6785
G01 X9.6476 Y28.6459
G01 X9.6803 Y28.6162
G01 X9.6879 Y28.6100
G01 X9.7235 Y28.5838
G01 X9.7613 Y28.5610
G01 X9.7700 Y28.5564
G01 X9.8100 Y28.5376
G01 X9.8516 Y28.5227
G01 X9.8610 Y28.5199
G01 X9.9039 Y28.5093
G01 X9.9524 Y28.5021
G01 X10.0015 Y28.4998
G01 X11.0010 Y28.5008
G01 X13.7907 Y28.5008
G01 X16.2485 Y26.0429
G01 X16.2485 Y13.3207
G01 X16.2093 Y13.3106
G01 X16.0407 Y13.2502
G01 X15.8810 Y13.1748
G01 X15.8724 Y13.1701
G01 X15.7209 Y13.0792
G01 X15.5790 Y12.9741
G01 X15.5714 Y12.9679
G01 X15.4406 Y12.8491
G01 X15.3218 Y12.7183
G01 X15.3156 Y12.7107
G01 X15.2105 Y12.5688
G01 X15.1196 Y12.4173
G01 X15.1149 Y12.4087
G01 X15.0395 Y12.2490
G01 X14.9799 Y12.0827
G01 X14.9771 Y12.0733
G01 X14.9343 Y11.9019
G01 X14.9082 Y11.7272
G01 X14.9073 Y11.7174
G01 X14.8987 Y11.5410
G01 X14.9073 Y11.3646
G01 X14.9082 Y11.3548
G01 X14.9343 Y11.1801
G01 X14.9771 Y11.0087
G01 X14.9799 Y10.9993
G01 X15.0395 Y10.8330
G01 X15.1149 Y10.6733
G01 X15.1196 Y10.6646
G01 X15.2105 Y10.5132
G01 X15.3156 Y10.3712
G01 X15.3218 Y10.3636
G01 X15.4388 Y10.2346
G01 X15.4441 Y10.2295
G01 X15.5751 Y10.1109
G01 X15.7209 Y10.0028
G01 X15.8766 Y9.9094
G01 X16.0363 Y9.8338
G01 X16.0453 Y9.8300
G01 X16.2070 Y9.7722
G01 X16.2164 Y9.7693
G01 X16.3878 Y9.7265
G01 X16.5625 Y9.7005
G01 X16.5723 Y9.6995
G01 X16.7487 Y9.6910
G01 X16.9276 Y9.6997
G01 X16.9349 Y9.7005
G01 X17.1048 Y9.7257
G01 X17.1144 Y9.7276
G01 X17.2857 Y9.7707
G01 X17.4567 Y9.8318
G01 X17.6164 Y9.9072
G01 X17.6251 Y9.9119
G01 X17.7765 Y10.0028
G01 X17.9223 Y10.1109
G01 X18.0533 Y10.2295
G01 X18.0602 Y10.2364
G01 X18.1788 Y10.3674
G01 X18.2869 Y10.5132
G01 X18.3803 Y10.6689
G01 X18.4559 Y10.8285
G01 X18.4597 Y10.8376
G01 X18.5183 Y11.0016
G01 X18.5282 Y11.0398
G01 X27.4712 Y11.0398
G00 Z2.0000
G00 X38.7192 Y12.4109
G01 F60.00
G01 Z0.0000
G01 F120.00
G01 X38.6811 Y12.3304
G01 X38.6730 Y12.3115
G01 X38.6105 Y12.1368
G01 X38.6048 Y12.1170
G01 X38.5615 Y11.9437
G01 X38.5577 Y11.9235
G01 X38.5325 Y11.7536
G01 X38.5308 Y11.7400
G01 X38.5298 Y11.7263
G01 X38.5214 Y11.5547
G01 X38.5211 Y11.5341
G01 X38.5298 Y11.3557
G01 X38.5308 Y11.3420
G01 X38.5325 Y11.3284
G01 X38.5577 Y11.1585
G01 X38.5601 Y11.1450
G01 X38.5631 Y11.1315
G01 X38.6048 Y10.9650
G01 X38.6085 Y10.9517
G01 X38.6128 Y10.9387
G01 X38.6706 Y10.7770
G01 X38.6756 Y10.7641
G01 X38.6811 Y10.7516
G01 X38.7546 Y10.5963
G01 X38.7641 Y10.5780
G01 X38.8558 Y10.4248
G01 X38.8632 Y10.4132
G01 X38.8711 Y10.4019
G01 X38.9734 Y10.2640
G01 X38.9818 Y10.2532
G01 X38.9908 Y10.2428
G01 X39.1061 Y10.1155
G01 X39.1156 Y10.1056
G01 X39.1256 Y10.0961
G01 X39.2528 Y9.9808
G01 X39.2632 Y9.9718
G01 X39.2741 Y9.9633
G01 X39.4120 Y9.8610
G01 X39.4232 Y9.8531
G01 X39.4349 Y9.8458
G01 X39.5822 Y9.7575
G01 X39.5941 Y9.7507
G01 X39.6064 Y9.7445
G01 X39.7616 Y9.6711
G01 X39.7742 Y9.6655
G01 X39.7870 Y9.6606
G01 X39.9487 Y9.6027
G01 X39.9618 Y9.5984
G01 X39.9750 Y9.5947
G01 X40.1416 Y9.5530
G01 X40.1550 Y9.5500
G01 X40.1686 Y9.5476
G01 X40.3384 Y9.5224
G01 X40.3589 Y9.5202
G01 X40.5373 Y9.5113
G01 X40.5511 Y9.5110
G01 X40.5648 Y9.5113
G01 X40.7363 Y9.5198
G01 X40.7500 Y9.5208
G01 X40.7637 Y9.5224
G01 X40.9335 Y9.5476
G01 X40.9471 Y9.5500
G01 X40.9605 Y9.5530
G01 X41.1271 Y9.5947
G01 X41.1403 Y9.5984
G01 X41.1534 Y9.6027
G01 X41.3151 Y9.6606
G01 X41.3279 Y9.6655
G01 X41.3405 Y9.6711
G01 X41.4957 Y9.7445
G01 X41.5080 Y9.7507
G01 X41.5199 Y9.7575
G01 X41.6731 Y9.8494
G01 X41.6901 Y9.8610
G01 X41.8280 Y9.9633
G01 X41.8389 Y9.9718
G01 X41.8493 Y9.9808
G01 X41.9765 Y10.0961
G01 X41.9865 Y10.1056
G01 X41.9960 Y10.1155
G01 X42.1113 Y10.2428
G01 X42.1246 Y10.2585
G01 X42.2310 Y10.4019
G01 X42.2389 Y10.4132
G01 X42.2463 Y10.4248
G01 X42.3380 Y10.5780
G01 X42.3475 Y10.5963
G01 X42.4238 Y10.7578
G01 X42.4315 Y10.7770
G01 X42.4611 Y10.8598
G01 X51.1429 Y10.8598
G01 X51.1725 Y10.7770
G01 X51.1802 Y10.7578
G01 X51.2565 Y10.5963
G01 X51.2659 Y10.5780
G01 X51.3577 Y10.4248
G01 X51.3650 Y10.4132
G01 X51.3730 Y10.4019
G01 X51.4794 Y10.2585
G01 X51.4927 Y10.2428
G01 X51.6080 Y10.1155
G01 X51.6175 Y10.1056
G01 X51.6275 Y10.0961
G01 X51.7547 Y9.9808
G01 X51.7651 Y9.9718
G01 X51.7759 Y9.9633
G01 X51.9139 Y9.8610
G01 X51.9309 Y9.8494
G01 X52.0840 Y9.7575
G01 X52.0960 Y9.7507
G01 X52.1083 Y9.7445
G01 X52.2635 Y9.6711
G01 X52.2761 Y9.6655
G01 X52.2889 Y9.6606
G01 X52.4506 Y9.6027
G01 X52.4637 Y9.5984
G01 X52.4769 Y9.5947
G01 X52.6435 Y9.5530
G01 X52.6569 Y9.5500
G01 X52.6704 Y9.5476
G01 X52.8403 Y9.5224
G01 X52.8540 Y9.5208
G01 X52.8677 Y9.5198
G01 X53.0392 Y9.5113
G01 X53.0529 Y9.5110
G01 X53.0667 Y9.5113
G01 X53.2382 Y9.5198
G01 X53.2587 Y9.5215
G01 X53.4354 Y9.5476
G01 X53.4490 Y9.5500
G01 X53.4624 Y9.5530
G01 X53.6290 Y9.5947
G01 X53.6422 Y9.5984
G01 X53.6553 Y9.6027
G01 X53.8170 Y9.6606
G01 X53.8298 Y9.6655
G01 X53.8423 Y9.6711
G01 X53.9976 Y9.7445
G01 X54.0099 Y9.7507
G01 X54.0218 Y9.7575
G01 X54.1691 Y9.8458
G01 X54.1807 Y9.8531
G01 X54.1920 Y9.8610
G01 X54.3299 Y9.9633
G01 X54.3407 Y9.9718
G01 X54.3512 Y9.9808
G01 X54.4784 Y10.0961
G01 X54.4884 Y10.1056
G01 X54.4978 Y10.1155
G01 X54.6132 Y10.2428
G01 X54.6221 Y10.2532
G01 X54.6306 Y10.2640
G01 X54.7329 Y10.4019
G01 X54.7408 Y10.4132
G01 X54.7482 Y10.4248
G01 X54.8365 Y10.5721
G01 X54.8432 Y10.5841
G01 X54.8494 Y10.5963
G01 X54.9228 Y10.7516
G01 X54.9284 Y10.7641
G01 X54.9334 Y10.7770
G01 X54.9912 Y10.9387
G01 X54.9955 Y10.9517
G01 X54.9992 Y10.9650
G01 X55.0409 Y11.1315
G01 X55.0439 Y11.1450
G01 X55.0463 Y11.1585
G01 X55.0715 Y11.3284
G01 X55.0737 Y11.3489
G01 X55.0826 Y11.5273
G01 X55.0829 Y11.5410
G01 X55.0826 Y11.5547
G01 X55.0742 Y11.7263
G01 X55.0732 Y11.7400
G01 X55.0715 Y11.7536
G01 X55.0463 Y11.9235
G01 X55.0439 Y11.9370
G01 X55.0409 Y11.9504
G01 X54.9992 Y12.1170
G01 X54.9955 Y12.1303
G01 X54.9912 Y12.1433
G01 X54.9334 Y12.3050
G01 X54.9284 Y12.3178
G01 X54.9228 Y12.3304
G01 X54.8494 Y12.4856
G01 X54.8432 Y12.4979
G01 X54.8365 Y12.5099
G01 X54.7482 Y12.6572
G01 X54.7408 Y12.6688
G01 X54.7329 Y12.6800
G01 X54.6306 Y12.8180
G01 X54.6221 Y12.8288
G01 X54.6132 Y12.8392
G01 X54.4978 Y12.9665
G01 X54.4884 Y12.9764
G01 X54.4784 Y12.9859
G01 X54.3512 Y13.1012
G01 X54.3407 Y13.1102
G01 X54.3299 Y13.1187
G01 X54.1920 Y13.2210
G01 X54.1807 Y13.2289
G01 X54.1691 Y13.2362
G01 X54.0218 Y13.3245
G01 X54.0099 Y13.3313
G01 X53.9976 Y13.3375
G01 X53.8423 Y13.4109
G01 X53.8298 Y13.4165
G01 X53.8170 Y13.4214
G01 X53.6553 Y13.4793
G01 X53.6422 Y13.4836
G01 X53.6290 Y13.4872
G01 X53.4624 Y13.5290
G01 X53.4490 Y13.5320
G01 X53.4354 Y13.5343
G01 X53.2587 Y13.5605
G01 X53.2382 Y13.5622
G01 X53.0667 Y13.5707
G01 X53.0529 Y13.5710
G01 X53.0392 Y13.5707
G01 X52.8677 Y13.5622
G01 X52.8540 Y13.5612
G01 X52.8403 Y13.5595
G01 X52.6704 Y13.5343
G01 X52.6569 Y13.5320
G01 X52.6435 Y13.5290
G01 X52.4769 Y13.4872
G01 X52.4637 Y13.4836
G01 X52.4506 Y13.4793
G01 X52.2889 Y13.4214
G01 X52.2761 Y13.4165
G01 X52.2635 Y13.4109
G01 X52.1083 Y13.3375
G01 X52.0960 Y13.3313
G01 X52.0840 Y13.3245
G01 X51.9309 Y13.2326
G01 X51.9139 Y13.2210
G01 X51.7759 Y13.1187
G01 X51.7651 Y13.1102
G01 X51.7547 Y13.1012
G01 X51.6275 Y12.9859
G01 X51.6175 Y12.9764
G01 X51.6080 Y12.9665
G01 X51.4927 Y12.8392
G01 X51.4794 Y12.8234
G01 X51.3730 Y12.6800
G01 X51.3650 Y12.6688
G01 X51.3577 Y12.6572
G01 X51.2659 Y12.5039
G01 X51.2565 Y12.4856
G01 X51.1802 Y12.3242
G01 X51.1725 Y12.3050
G01 X51.1422 Y12.2202
G01 X42.4618 Y12.2202
G01 X42.4315 Y12.3050
G01 X42.4238 Y12.3242
G01 X42.3445 Y12.4918
G01 X42.3346 Y12.5099
G01 X42.2427 Y12.6630
G01 X42.2310 Y12.6800
G01 X42.1287 Y12.8180
G01 X42.1203 Y12.8288
G01 X42.1113 Y12.8392
G01 X41.9913 Y12.9715
G01 X41.9765 Y12.9859
G01 X41.8493 Y13.1012
G01 X41.8389 Y13.1102
G01 X41.8280 Y13.1187
G01 X41.6901 Y13.2210
G01 X41.6789 Y13.2289
G01 X41.6672 Y13.2362
G01 X41.5199 Y13.3245
G01 X41.5080 Y13.3313
G01 X41.4957 Y13.3375
G01 X41.3405 Y13.4109
G01 X41.3279 Y13.4165
G01 X41.3151 Y13.4214
G01 X41.1534 Y13.4793
G01 X41.1403 Y13.4836
G01 X41.1271 Y13.4872
G01 X40.9605 Y13.5290
G01 X40.9471 Y13.5320
G01 X40.9335 Y13.5343
G01 X40.7637 Y13.5595
G01 X40.7500 Y13.5612
G01 X40.7363 Y13.5622
G01 X40.5648 Y13.5707
G01 X40.5442 Y13.5709
G01 X40.3658 Y13.5622
G01 X40.3521 Y13.5612
G01 X40.3384 Y13.5595
G01 X40.1686 Y13.5343
G01 X40.1483 Y13.5306
G01 X39.9750 Y13.4872
G01 X39.9552 Y13.4815
G01 X39.7806 Y13.4190
G01 X39.7616 Y13.4109
G01 X39.6812 Y13.3728
G01 X21.5731 Y31.4809
G01 X21.5341 Y31.5168
G01 X21.5236 Y31.5258
G01 X21.4813 Y31.5576
G01 X21.4700 Y31.5655
G01 X21.4247 Y31.5931
G01 X21.4128 Y31.5998
G01 X21.4005 Y31.6060
G01 X21.3587 Y31.6257
G01 X21.3396 Y31.6333
G01 X21.2896 Y31.6509
G01 X21.2763 Y31.6545
G01 X21.2248 Y31.6671
G01 X21.2113 Y31.6694
G01 X21.1588 Y31.6769
G01 X21.1059 Y31.6798
G01 X21.0921 Y31.6802
G01 X9.9941 Y31.6801
G01 X9.9411 Y31.6775
G01 X9.9207 Y31.6752
G01 X9.8683 Y31.6671
G01 X9.8168 Y31.6545
G01 X9.7970 Y31.6488
G01 X9.7535 Y31.6333
G01 X9.7407 Y31.6284
G01 X9.7281 Y31.6228
G01 X9.6803 Y31.5998
G01 X9.6684 Y31.5931
G01 X9.6288 Y31.5693
G01 X9.6118 Y31.5576
G01 X9.5695 Y31.5258
G01 X9.5300 Y31.4904
G01 X9.5152 Y31.4760
G01 X9.4841 Y31.4419
G01 X9.4752 Y31.4315
G01 X9.4433 Y31.3891
G01 X9.4317 Y31.3721
G01 X9.4079 Y31.3326
G01 X9.4011 Y31.3206
G01 X9.3781 Y31.2728
G01 X9.3700 Y31.2539
G01 X9.3521 Y31.2040
G01 X9.3464 Y31.1842
G01 X9.3338 Y31.1327
G01 X9.3315 Y31.1191
G01 X9.3248 Y31.0735
G01 X9.3230 Y31.0529
G01 X9.3208 Y31.0000
G01 X9.3230 Y30.9470
G01 X9.3248 Y30.9265
G01 X9.3315 Y30.8808
G01 X9.3338 Y30.8673
G01 X9.3369 Y30.8539
G01 X9.3481 Y30.8091
G01 X9.3544 Y30.7895
G01 X9.3725 Y30.7397
G01 X9.3949 Y30.6916
G01 X9.4044 Y30.6733
G01 X9.4281 Y30.6337
G01 X9.4354 Y30.6221
G01 X9.4433 Y30.6108
G01 X9.4709 Y30.5738
G01 X9.4841 Y30.5580
G01 X9.5200 Y30.5190
G01 X9.5591 Y30.4831
G01 X9.5748 Y30.4699
G01 X9.6118 Y30.4423
G01 X9.6231 Y30.4344
G01 X9.6347 Y30.4270
G01 X9.6803 Y30.4001
G01 X9.6926 Y30.3939
G01 X9.7344 Y30.3742
G01 X9.7535 Y30.3666
G01 X9.8035 Y30.3490
G01 X9.8549 Y30.3358
G01 X9.8750 Y30.3316
G01 X9.9207 Y30.3247
G01 X9.9343 Y30.3230
G01 X9.9872 Y30.3201
G01 X10.0010 Y30.3198
G01 X20.8104 Y30.3198
G01 X38.7192 Y12.4109
G00 Z2.0000
G00 X51.2735 Y11.0398
G01 F60.00
G01 Z0.0000
G01 F120.00
G01 X51.2833 Y11.0016
G01 X51.3428 Y10.8353
G01 X51.3457 Y10.8285
G01 X51.4214 Y10.6689
G01 X51.5147 Y10.5132
G01 X51.6229 Y10.3674
G01 X51.7448 Y10.2328
G01 X51.8793 Y10.1109
G01 X52.0251 Y10.0028
G01 X52.1808 Y9.9094
G01 X52.3450 Y9.8318
G01 X52.5159 Y9.7707
G01 X52.6920 Y9.7265
G01 X52.8716 Y9.6999
G01 X53.0529 Y9.6910
G01 X53.2343 Y9.6999
G01 X53.4138 Y9.7265
G01 X53.5900 Y9.7707
G01 X53.7609 Y9.8318
G01 X53.9250 Y9.9094
G01 X54.0807 Y10.0028
G01 X54.2266 Y10.1109
G01 X54.3611 Y10.2328
G01 X54.4830 Y10.3674
G01 X54.5911 Y10.5132
G01 X54.6845 Y10.6689
G01 X54.7621 Y10.8330
G01 X54.8233 Y11.0040
G01 X54.8674 Y11.1801
G01 X54.8940 Y11.3597
G01 X54.9029 Y11.5410
G01 X54.8940 Y11.7223
G01 X54.8674 Y11.9019
G01 X54.8233 Y12.0780
G01 X54.7621 Y12.2490
G01 X54.6867 Y12.4087
G01 X54.6821 Y12.4173
G01 X54.5911 Y12.5688
G01 X54.4830 Y12.7146
G01 X54.3645 Y12.8456
G01 X54.3575 Y12.8525
G01 X54.2266 Y12.9711
G01 X54.0807 Y13.0792
G01 X53.9293 Y13.1701
G01 X53.9206 Y13.1748
G01 X53.7609 Y13.2502
G01 X53.5900 Y13.3113
G01 X53.4186 Y13.3544
G01 X53.4090 Y13.3563
G01 X53.2391 Y13.3815
G01 X53.2318 Y13.3823
G01 X53.0529 Y13.3910
G01 X52.8716 Y13.3821
G01 X52.6920 Y13.3554
G01 X52.5206 Y13.3126
G01 X52.5112 Y13.3098
G01 X52.3495 Y13.2519
G01 X52.3405 Y13.2482
G01 X52.1808 Y13.1725
G01 X52.0251 Y13.0792
G01 X51.8793 Y12.9711
G01 X51.7448 Y12.8491
G01 X51.6229 Y12.7146
G01 X51.5175 Y12.5728
G01 X51.5121 Y12.5646
G01 X51.4214 Y12.4131
G01 X51.3457 Y12.2534
G01 X51.3420 Y12.2444
G01 X51.2833 Y12.0804
G01 X51.2730 Y12.0402
G01 X42.3310 Y12.0402
G01 X42.3206 Y12.0804
G01 X42.2611 Y12.2467
G01 X42.2582 Y12.2534
G01 X42.1826 Y12.4131
G01 X42.0893 Y12.5688
G01 X41.9841 Y12.7107
G01 X41.9779 Y12.7183
G01 X41.8626 Y12.8456
G01 X41.8556 Y12.8525
G01 X41.7247 Y12.9711
G01 X41.5829 Y13.0764
G01 X41.5747 Y13.0818
G01 X41.4231 Y13.1725
G01 X41.2590 Y13.2502
G01 X41.0881 Y13.3113
G01 X40.9168 Y13.3544
G01 X40.9071 Y13.3563
G01 X40.7373 Y13.3815
G01 X40.7275 Y13.3824
G01 X40.5511 Y13.3910
G01 X40.3746 Y13.3824
G01 X40.3648 Y13.3815
G01 X40.1901 Y13.3554
G01 X40.0140 Y13.3113
G01 X39.8477 Y13.2519
G01 X39.8408 Y13.2492
G01 X39.6811 Y13.1737
G01 X39.6463 Y13.1531
G01 X21.4458 Y31.3537
G01 X21.4095 Y31.3866
G01 X21.3740 Y31.4130
G01 X21.3659 Y31.4185
G01 X21.3322 Y31.4387
G01 X21.3235 Y31.4433
G01 X21.2880 Y31.4601
G01 X21.2790 Y31.4639
G01 X21.2373 Y31.4786
G01 X21.1945 Y31.4895
G01 X21.1849 Y31.4914
G01 X21.1412 Y31.4978
G01 X21.0921 Y31.5002
G01 X9.9985 Y31.5001
G01 X9.9519 Y31.4978
G01 X9.9082 Y31.4914
G01 X9.8986 Y31.4895
G01 X9.8558 Y31.4786
G01 X9.8141 Y31.4639
G01 X9.8051 Y31.4601
G01 X9.7652 Y31.4411
G01 X9.7272 Y31.4185
G01 X9.7191 Y31.4130
G01 X9.6836 Y31.3866
G01 X9.6508 Y31.3570
G01 X9.6439 Y31.3501
G01 X9.6143 Y31.3173
G01 X9.5879 Y31.2819
G01 X9.5824 Y31.2737
G01 X9.5623 Y31.2400
G01 X9.5576 Y31.2314
G01 X9.5408 Y31.1959
G01 X9.5371 Y31.1868
G01 X9.5223 Y31.1452
G01 X9.5115 Y31.1023
G01 X9.5095 Y31.0927
G01 X9.5032 Y31.0490
G01 X9.5008 Y31.0000
G01 X9.5032 Y30.9509
G01 X9.5095 Y30.9072
G01 X9.5115 Y30.8976
G01 X9.5223 Y30.8548
G01 X9.5371 Y30.8131
G01 X9.5408 Y30.8041
G01 X9.5598 Y30.7642
G01 X9.5824 Y30.7262
G01 X9.5879 Y30.7181
G01 X9.6143 Y30.6826
G01 X9.6439 Y30.6498
G01 X9.6508 Y30.6429
G01 X9.6836 Y30.6133
G01 X9.7231 Y30.5841
G01 X9.7609 Y30.5612
G01 X9.7696 Y30.5566
G01 X9.8096 Y30.5378
G01 X9.8511 Y30.5228
G01 X9.8605 Y30.5200
G01 X9.9034 Y30.5094
G01 X9.9544 Y30.5020
G01 X10.0010 Y30.4998
G01 X20.8849 Y30.4998
G01 X38.9389 Y12.4457
G01 X38.9184 Y12.4109
G01 X38.8428 Y12.2512
G01 X38.8401 Y12.2444
G01 X38.7807 Y12.0780
G01 X38.7366 Y11.9019
G01 X38.7100 Y11.7223
G01 X38.7011 Y11.5410
G01 X38.7100 Y11.3597
G01 X38.7366 Y11.1801
G01 X38.7807 Y11.0040
G01 X38.8419 Y10.8330
G01 X38.9195 Y10.6689
G01 X39.0128 Y10.5132
G01 X39.1210 Y10.3674
G01 X39.2429 Y10.2328
G01 X39.3774 Y10.1109
G01 X39.5232 Y10.0028
G01 X39.6747 Y9.9119
G01 X39.6834 Y9.9072
G01 X39.8431 Y9.8318
G01 X40.0094 Y9.7722
G01 X40.0188 Y9.7693
G01 X40.1901 Y9.7265
G01 X40.3648 Y9.7005
G01 X40.3746 Y9.6995
G01 X40.5461 Y9.6911
G01 X40.5560 Y9.6911
G01 X40.7324 Y9.6999
G01 X40.9120 Y9.7265
G01 X41.0881 Y9.7707
G01 X41.2590 Y9.8318
G01 X41.4231 Y9.9094
G01 X41.5747 Y10.0001
G01 X41.5829 Y10.0056
G01 X41.7247 Y10.1109
G01 X41.8556 Y10.2295
G01 X41.8626 Y10.2364
G01 X41.9779 Y10.3636
G01 X41.9841 Y10.3712
G01 X42.0893 Y10.5132
G01 X42.1826 Y10.6689
G01 X42.2582 Y10.8285
G01 X42.2611 Y10.8353
G01 X42.3206 Y11.0016
G01 X42.3305 Y11.0398
G01 X51.2735 Y11.0398
G00 Z2.0000
G00 X62.5190 Y12.4109
G01 F60.00
G01 Z0.0000
G01 F120.00
G01 X62.4809 Y12.3304
G01 X62.4728 Y12.3115
G01 X62.4103 Y12.1368
G01 X62.4046 Y12.1170
G01 X62.3613 Y11.9437
G01 X62.3575 Y11.9235
G01 X62.3323 Y11.7536
G01 X62.3306 Y11.7400
G01 X62.3296 Y11.7263
G01 X62.3212 Y11.5547
G01 X62.3209 Y11.5341
G01 X62.3296 Y11.3557
G01 X62.3306 Y11.3420
G01 X62.3323 Y11.3284
G01 X62.3575 Y11.1585
G01 X62.3599 Y11.1450
G01 X62.3629 Y11.1315
G01 X62.4046 Y10.9650
G01 X62.4083 Y10.9517
G01 X62.4126 Y10.9387
G01 X62.4704 Y10.7770
G01 X62.4754 Y10.7641
G01 X62.4809 Y10.7516
G01 X62.5544 Y10.5963
G01 X62.5639 Y10.5780
G01 X62.6556 Y10.4248
G01 X62.6630 Y10.4132
G01 X62.6709 Y10.4019
G01 X62.7732 Y10.2640
G01 X62.7816 Y10.2532
G01 X62.7906 Y10.2428
G01 X62.9059 Y10.1155
G01 X62.9154 Y10.1056
G01 X62.9254 Y10.0961
G01 X63.0526 Y9.9808
G01 X63.0630 Y9.9718
G01 X63.0739 Y9.9633
G01 X63.2118 Y9.8610
G01 X63.2230 Y9.8531
G01 X63.2347 Y9.8458
G01 X63.3820 Y9.7575
G01 X63.3939 Y9.7507
G01 X63.4062 Y9.7445
G01 X63.5614 Y9.6711
G01 X63.5740 Y9.6655
G01 X63.5868 Y9.6606
G01 X63.7485 Y9.6027
G01 X63.7616 Y9.5984
G01 X63.7748 Y9.5947
G01 X63.9414 Y9.5530
G01 X63.9548 Y9.5500
G01 X63.9684 Y9.5476
G01 X64.1382 Y9.5224
G01 X64.1587 Y9.5202
G01 X64.3371 Y9.5113
G01 X64.3509 Y9.5110
G01 X64.3646 Y9.5113
G01 X64.5361 Y9.5198
G01 X64.5498 Y9.5208
G01 X64.5635 Y9.5224
G01 X64.7333 Y9.5476
G01 X64.7469 Y9.5500
G01 X64.7603 Y9.5530
G01 X64.9269 Y9.5947
G01 X64.9401 Y9.5984
G01 X64.9532 Y9.6027
G01 X65.1149 Y9.6606
G01 X65.1277 Y9.6655
G01 X65.1403 Y9.6711
G01 X65.2955 Y9.7445
G01 X65.3078 Y9.7507
G01 X65.3197 Y9.7575
G01 X65.4729 Y9.8494
G01 X65.4899 Y9.8610
G01 X65.6278 Y9.9633
G01 X65.6387 Y9.9718
G01 X65.6491 Y9.9808
G01 X65.7763 Y10.0961
G01 X65.7863 Y10.1056
G01 X65.7958 Y10.1155
G01 X65.9111 Y10.2428
G01 X65.9244 Y10.2585
G01 X66.0308 Y10.4019
G01 X66.0387 Y10.4132
G01 X66.0461 Y10.4248
G01 X66.1378 Y10.5780
G01 X66.1473 Y10.5963
G01 X66.2236 Y10.7578
G01 X66.2313 Y10.7770
G01 X66.2609 Y10.8598
G01 X74.9427 Y10.8598
G01 X74.9723 Y10.7770
G01 X74.9800 Y10.7578
G01 X75.0563 Y10.5963
G01 X75.0657 Y10.5780
G01 X75.1575 Y10.4248
G01 X75.1648 Y10.4132
G01 X75.1728 Y10.4019
G01 X75.2792 Y10.2585
G01 X75.2925 Y10.2428
G01 X75.4078 Y10.1155
G01 X75.4173 Y10.1056
G01 X75.4273 Y10.0961
G01 X75.5545 Y9.9808
G01 X75.5649 Y9.9718
G01 X75.5757 Y9.9633
G01 X75.7137 Y9.8610
G01 X75.7307 Y9.8494
G01 X75.8838 Y9.7575
G01 X75.8958 Y9.7507
G01 X75.9081 Y9.7445
G01 X76.0633 Y9.6711
G01 X76.0759 Y9.6655
G01 X76.0887 Y9.6606
G01 X76.2504 Y9.6027
G01 X76.2635 Y9.5984
G01 X76.2767 Y9.5947
G01 X76.4433 Y9.5530
G01 X76.4567 Y9.5500
G01 X76.4702 Y9.5476
G01 X76.6401 Y9.5224
G01 X76.6538 Y9.5208
G01 X76.6675 Y9.5198
G01 X76.8390 Y9.5113
G01 X76.8527 Y9.5110
G01 X76.8665 Y9.5113
G01 X77.0380 Y9.5198
G01 X77.0585 Y9.5215
G01 X77.2352 Y9.5476
G01 X77.2488 Y9.5500
G01 X77.2622 Y9.5530
G01 X77.4288 Y9.5947
G01 X77.4420 Y9.5984
G01 X77.4551 Y9.6027
G01 X77.6168 Y9.6606
G01 X77.6296 Y9.6655
G01 X77.6421 Y9.6711
G01 X77.7974 Y9.7445
G01 X77.8097 Y9.7507
G01 X77.8216 Y9.7575
G01 X77.9689 Y9.8458
G01 X77.9805 Y9.8531
G01 X77.9918 Y9.8610
G01 X78.1297 Y9.9633
G01 X78.1405 Y9.9718
G01 X78.1510 Y9.9808
G01 X78.2782 Y10.0961
G01 X78.2882 Y10.1056
G01 X78.2976 Y10.1155
G01 X78.4130 Y10.2428
G01 X78.4219 Y10.2532
G01 X78.4304 Y10.2640
G01 X78.5327 Y10.4019
G01 X78.5406 Y10.4132
G01 X78.5480 Y10.4248
G01 X78.6363 Y10.5721
G01 X78.6430 Y10.5841
G01 X78.6492 Y10.5963
G01 X78.7226 Y10.7516
G01 X78.7282 Y10.7641
G01 X78.7332 Y10.7770
G01 X78.7910 Y10.9387
G01 X78.7953 Y10.9517
G01 X78.7990 Y10.9650
G01 X78.8407 Y11.1315
G01 X78.8437 Y11.1450
G01 X78.8461 Y11.1585
G01 X78.8713 Y11.3284
G01 X78.8735 Y11.3489
G01 X78.8824 Y11.5273
G01 X78.8827 Y11.5410
G01 X78.8824 Y11.5547
G01 X78.8740 Y11.7263
G01 X78.8730 Y11.7400
G01 X78.8713 Y11.7536
G01 X78.8461 Y11.9235
G01 X78.8437 Y11.9370
G01 X78.8407 Y11.9504
G01 X78.7990 Y12.1170
G01 X78.7953 Y12.1303
G01 X78.7910 Y12.1433
G01 X78.7332 Y12.3050
G01 X78.7282 Y12.3178
G01 X78.7226 Y12.3304
G01 X78.6492 Y12.4856
G01 X78.6430 Y12.4979
G01 X78.6363 Y12.5099
G01 X78.5480 Y12.6572
G01 X78.5406 Y12.6688
G01 X78.5327 Y12.6800
G01 X78.4304 Y12.8180
G01 X78.4219 Y12.8288
G01 X78.4130 Y12.8392
G01 X78.2976 Y12.9665
G01 X78.2882 Y12.9764
G01 X78.2782 Y12.9859
G01 X78.1510 Y13.1012
G01 X78.1405 Y13.1102
G01 X78.1297 Y13.1187
G01 X77.9918 Y13.2210
G01 X77.9805 Y13.2289
G01 X77.9689 Y13.2362
G01 X77.8216 Y13.3245
G01 X77.8097 Y13.3313
G01 X77.7974 Y13.3375
G01 X77.6421 Y13.4109
G01 X77.6296 Y13.4165
G01 X77.6168 Y13.4214
G01 X77.4551 Y13.4793
G01 X77.4420 Y13.4836
G01 X77.4288 Y13.4872
G01 X77.2622 Y13.5290
G01 X77.2488 Y13.5320
G01 X77.2352 Y13.5343
G01 X77.0585 Y13.5605
G01 X77.0380 Y13.5622
G01 X76.8665 Y13.5707
G01 X76.8527 Y13.5710
G01 X76.8390 Y13.5707
G01 X76.6675 Y13.5622
G01 X76.6538 Y13.5612
G01 X76.6401 Y13.5595
G01 X76.4702 Y13.5343
G01 X76.4567 Y13.5320
G01 X76.4433 Y13.5290
G01 X76.2767 Y13.4872
G01 X76.2635 Y13.4836
G01 X76.2504 Y13.4793
G01 X76.0887 Y13.4214
G01 X76.0759 Y13.4165
G01 X76.0633 Y13.4109
G01 X75.9081 Y13.3375
G01 X75.8958 Y13.3313
G01 X75.8838 Y13.3245
G01 X75.7307 Y13.2326
G01 X75.7137 Y13.2210
G01 X75.5757 Y13.1187
G01 X75.5649 Y13.1102
G01 X75.5545 Y13.1012
G01 X75.4273 Y12.9859
G01 X75.4173 Y12.9764
G01 X75.4078 Y12.9665
G01 X75.2925 Y12.8392
G01 X75.2792 Y12.8234
G01 X75.1728 Y12.6800
G01 X75.1648 Y12.6688
G01 X75.1575 Y12.6572
G01 X75.0657 Y12.5039
G01 X75.0563 Y12.4856
G01 X74.9800 Y12.3242
G01 X74.9723 Y12.3050
G01 X74.9420 Y12.2202
G01 X66.2616 Y12.2202
G01 X66.2313 Y12.3050
G01 X66.2236 Y12.3242
G01 X66.1443 Y12.4918
G01 X66.1344 Y12.5099
G01 X66.0425 Y12.6630
G01 X66.0308 Y12.6800
G01 X65.9285 Y12.8180
G01 X65.9201 Y12.8288
G01 X65.9111 Y12.8392
G01 X65.7911 Y12.9715
G01 X65.7763 Y12.9859
G01 X65.6491 Y13.1012
G01 X65.6387 Y13.1102
G01 X65.6278 Y13.1187
G01 X65.4899 Y13.2210
G01 X65.4787 Y13.2289
G01 X65.4670 Y13.2362
G01 X65.3197 Y13.3245
G01 X65.3078 Y13.3313
G01 X65.2955 Y13.3375
G01 X65.1403 Y13.4109
G01 X65.1277 Y13.4165
G01 X65.1149 Y13.4214
G01 X64.9532 Y13.4793
G01 X64.9401 Y13.4836
G01 X64.9269 Y13.4872
G01 X64.7603 Y13.5290
G01 X64.7469 Y13.5320
G01 X64.7333 Y13.5343
G01 X64.5635 Y13.5595
G01 X64.5498 Y13.5612
G01 X64.5361 Y13.5622
G01 X64.3646 Y13.5707
G01 X64.3440 Y13.5709
G01 X64.1656 Y13.5622
G01 X64.1519 Y13.5612
G01 X64.1382 Y13.5595
G01 X63.9684 Y13.5343
G01 X63.9481 Y13.5306
G01 X63.7748 Y13.4872
G01 X63.7550 Y13.4815
G01 X63.5804 Y13.4190
G01 X63.5614 Y13.4109
G01 X63.4810 Y13.3728
G01 X43.3713 Y33.4824
G01 X43.3323 Y33.5183
G01 X43.3219 Y33.5273
G01 X43.3110 Y33.5357
G01 X43.2739 Y33.5631
G01 X43.2566 Y33.5744
G01 X43.2110 Y33.6013
G01 X43.1632 Y33.6243
G01 X43.1443 Y33.6324
G01 X43.1008 Y33.6481
G01 X43.0878 Y33.6524
G01 X43.0745 Y33.6560
G01 X43.0230 Y33.6686
G01 X42.9706 Y33.6767
G01 X42.9501 Y33.6790
G01 X42.9040 Y33.6813
G01 X42.8903 Y33.6816
G01 X11.0010 Y33.6791
G01 X9.9948 Y33.6800
G01 X9.9487 Y33.6779
G01 X9.9350 Y33.6769
G01 X9.8825 Y33.6695
G01 X9.8622 Y33.6657
G01 X9.8174 Y33.6547
G01 X9.8042 Y33.6510
G01 X9.7911 Y33.6467
G01 X9.7413 Y33.6286
G01 X9.6932 Y33.6063
G01 X9.6749 Y33.5968
G01 X9.6353 Y33.5732
G01 X9.6236 Y33.5658
G01 X9.5808 Y33.5346
G01 X9.5700 Y33.5261
G01 X9.5304 Y33.4908
G01 X9.5157 Y33.4764
G01 X9.4846 Y33.4423
G01 X9.4756 Y33.4319
G01 X9.4437 Y33.3896
G01 X9.4358 Y33.3784
G01 X9.4082 Y33.3331
G01 X9.4014 Y33.3211
G01 X9.3952 Y33.3089
G01 X9.3755 Y33.2671
G01 X9.3702 Y33.2544
G01 X9.3523 Y33.2045
G01 X9.3466 Y33.1848
G01 X9.3340 Y33.1333
G01 X9.3258 Y33.0809
G01 X9.3235 Y33.0604
G01 X9.3211 Y33.0143
G01 X9.3208 Y33.0006
G01 X9.3211 Y32.9868
G01 X9.3240 Y32.9339
G01 X9.3314 Y32.8814
G01 X9.3337 Y32.8679
G01 X9.3367 Y32.8544
G01 X9.3480 Y32.8097
G01 X9.3542 Y32.7900
G01 X9.3723 Y32.7402
G01 X9.3946 Y32.6921
G01 X9.4041 Y32.6738
G01 X9.4277 Y32.6342
G01 X9.4350 Y32.6226
G01 X9.4429 Y32.6113
G01 X9.4705 Y32.5743
G01 X9.4837 Y32.5585
G01 X9.5195 Y32.5194
G01 X9.5585 Y32.4835
G01 X9.5743 Y32.4702
G01 X9.6113 Y32.4426
G01 X9.6225 Y32.4347
G01 X9.6341 Y32.4273
G01 X9.6797 Y32.4003
G01 X9.6920 Y32.3941
G01 X9.7400 Y32.3717
G01 X9.7529 Y32.3668
G01 X9.7963 Y32.3513
G01 X9.8161 Y32.3455
G01 X9.8676 Y32.3329
G01 X9.9200 Y32.3247
G01 X9.9405 Y32.3224
G01 X9.9934 Y32.3198
G01 X11.0006 Y32.3187
G01 X42.6086 Y32.3212
G01 X62.5190 Y12.4109
G00 Z2.0000
G00 X75.0733 Y11.0398
G01 F60.00
G01 Z0.0000
G01 F120.00
G01 X75.0831 Y11.0016
G01 X75.1426 Y10.8353
G01 X75.1455 Y10.8285
G01 X75.2212 Y10.6689
G01 X75.3145 Y10.5132
G01 X75.4227 Y10.3674
G01 X75.5446 Y10.2328
G01 X75.6791 Y10.1109
G01 X75.8249 Y10.0028
G01 X75.9806 Y9.9094
G01 X76.1448 Y9.8318
G01 X76.3157 Y9.7707
G01 X76.4918 Y9.7265
G01 X76.6714 Y9.6999
G01 X76.8527 Y9.6910
G01 X77.0341 Y9.6999
G01 X77.2136 Y9.7265
G01 X77.3898 Y9.7707
G01 X77.5607 Y9.8318
G01 X77.7248 Y9.9094
G01 X77.8805 Y10.0028
G01 X78.0264 Y10.1109
G01 X78.1609 Y10.2328
G01 X78.2828 Y10.3674
G01 X78.3909 Y10.5132
G01 X78.4843 Y10.6689
G01 X78.5619 Y10.8330
G01 X78.6231 Y11.0040
G01 X78.6672 Y11.1801
G01 X78.6938 Y11.3597
G01 X78.7027 Y11.5410
G01 X78.6938 Y11.7223
G01 X78.6672 Y11.9019
G01 X78.6231 Y12.0780
G01 X78.5619 Y12.2490
G01 X78.4865 Y12.4087
G01 X78.4819 Y12.4173
G01 X78.3909 Y12.5688
G01 X78.2828 Y12.7146
G01 X78.1643 Y12.8456
G01 X78.1573 Y12.8525
G01 X78.0264 Y12.9711
G01 X77.8805 Y13.0792
G01 X77.7291 Y13.1701
G01 X77.7204 Y13.1748
G01 X77.5607 Y13.2502
G01 X77.3898 Y13.3113
G01 X77.2184 Y13.3544
G01 X77.2088 Y13.3563
G01 X77.0389 Y13.3815
G01 X77.0316 Y13.3823
G01 X76.8527 Y13.3910
G01 X76.6714 Y13.3821
G01 X76.4918 Y13.3554
G01 X76.3204 Y13.3126
G01 X76.3110 Y13.3098
G01 X76.1493 Y13.2519
G01 X76.1403 Y13.2482
G01 X75.9806 Y13.1725
G01 X75.8249 Y13.0792
G01 X75.6791 Y12.9711
G01 X75.5446 Y12.8491
G01 X75.4227 Y12.7146
G01 X75.3173 Y12.5728
G01 X75.3119 Y12.5646
G01 X75.2212 Y12.4131
G01 X75.1455 Y12.2534
G01 X75.1418 Y12.2444
G01 X75.0831 Y12.0804
G01 X75.0728 Y12.0402
G01 X66.1308 Y12.0402
G01 X66.1204 Y12.0804
G01 X66.0609 Y12.2467
G01 X66.0580 Y12.2534
G01 X65.9824 Y12.4131
G01 X65.8891 Y12.5688
G01 X65.7839 Y12.7107
G01 X65.7777 Y12.7183
G01 X65.6624 Y12.8456
G01 X65.6554 Y12.8525
G01 X65.5245 Y12.9711
G01 X65.3827 Y13.0764
G01 X65.3745 Y13.0818
G01 X65.2229 Y13.1725
G01 X65.0588 Y13.2502
G01 X64.8879 Y13.3113
G01 X64.7166 Y13.3544
G01 X64.7069 Y13.3563
G01 X64.5322 Y13.3821
G01 X64.3558 Y13.3909
G01 X64.3459 Y13.3909
G01 X64.1744 Y13.3824
G01 X64.1646 Y13.3815
G01 X63.9899 Y13.3554
G01 X63.8138 Y13.3113
G01 X63.6475 Y13.2519
G01 X63.6406 Y13.2492
G01 X63.4809 Y13.1737
G01 X63.4461 Y13.1531
G01 X43.2441 Y33.3551
G01 X43.2077 Y33.3881
G01 X43.1723 Y33.4145
G01 X43.1641 Y33.4200
G01 X43.1261 Y33.4426
G01 X43.0862 Y33.4616
G01 X43.0772 Y33.4653
G01 X43.0379 Y33.4794
G01 X42.9927 Y33.4910
G01 X42.9831 Y33.4929
G01 X42.9394 Y33.4992
G01 X42.8903 Y33.5016
G01 X11.0009 Y33.4991
G01 X10.0015 Y33.5001
G01 X9.9573 Y33.4981
G01 X9.9476 Y33.4971
G01 X9.9039 Y33.4906
G01 X9.8562 Y33.4787
G01 X9.8100 Y33.4622
G01 X9.7700 Y33.4435
G01 X9.7613 Y33.4389
G01 X9.7276 Y33.4187
G01 X9.7195 Y33.4133
G01 X9.6840 Y33.3869
G01 X9.6476 Y33.3539
G01 X9.6146 Y33.3176
G01 X9.5882 Y33.2822
G01 X9.5827 Y33.2741
G01 X9.5625 Y33.2404
G01 X9.5579 Y33.2317
G01 X9.5390 Y33.1918
G01 X9.5232 Y33.1479
G01 X9.5105 Y33.0980
G01 X9.5038 Y33.0543
G01 X9.5029 Y33.0445
G01 X9.5009 Y33.0053
G01 X9.5009 Y32.9955
G01 X9.5031 Y32.9514
G01 X9.5095 Y32.9076
G01 X9.5114 Y32.8980
G01 X9.5222 Y32.8552
G01 X9.5387 Y32.8089
G01 X9.5596 Y32.7645
G01 X9.5822 Y32.7266
G01 X9.5876 Y32.7184
G01 X9.6140 Y32.6830
G01 X9.6435 Y32.6501
G01 X9.6505 Y32.6432
G01 X9.6796 Y32.6168
G01 X9.6871 Y32.6105
G01 X9.7227 Y32.5843
G01 X9.7647 Y32.5590
G01 X9.8091 Y32.5380
G01 X9.8506 Y32.5229
G01 X9.8600 Y32.5201
G01 X9.9029 Y32.5094
G01 X9.9466 Y32.5028
G01 X9.9563 Y32.5018
G01 X9.9980 Y32.4997
G01 X11.0007 Y32.4987
G01 X42.6832 Y32.5012
G01 X62.7387 Y12.4458
G01 X62.7182 Y12.4109
G01 X62.6437 Y12.2534
G01 X62.6399 Y12.2444
G01 X62.5805 Y12.0780
G01 X62.5375 Y11.9067
G01 X62.5356 Y11.8971
G01 X62.5098 Y11.7223
G01 X62.5009 Y11.5410
G01 X62.5098 Y11.3597
G01 X62.5356 Y11.1849
G01 X62.5375 Y11.1753
G01 X62.5805 Y11.0040
G01 X62.6417 Y10.8330
G01 X62.7193 Y10.6689
G01 X62.8126 Y10.5132
G01 X62.9208 Y10.3674
G01 X63.0427 Y10.2328
G01 X63.1772 Y10.1109
G01 X63.3230 Y10.0028
G01 X63.4788 Y9.9094
G01 X63.6384 Y9.8338
G01 X63.6475 Y9.8300
G01 X63.8138 Y9.7707
G01 X63.9851 Y9.7276
G01 X63.9948 Y9.7257
G01 X64.1695 Y9.6999
G01 X64.3509 Y9.6910
G01 X64.5273 Y9.6995
G01 X64.5371 Y9.7005
G01 X64.7069 Y9.7257
G01 X64.7166 Y9.7276
G01 X64.8879 Y9.7707
G01 X65.0542 Y9.8300
G01 X65.0633 Y9.8338
G01 X65.2229 Y9.9094
G01 X65.3745 Y10.0001
G01 X65.3827 Y10.0056
G01 X65.5245 Y10.1109
G01 X65.6554 Y10.2295
G01 X65.6624 Y10.2364
G01 X65.7777 Y10.3636
G01 X65.7839 Y10.3712
G01 X65.8891 Y10.5132
G01 X65.9824 Y10.6689
G01 X66.0580 Y10.8285
G01 X66.0609 Y10.8353
G01 X66.1204 Y11.0016
G01 X66.1303 Y11.0398
G01 X75.0733 Y11.0398
G00 Z2.0000
G00 X86.3188 Y12.4109
G01 F60.00
G01 Z0.0000
G01 F120.00
G01 X86.2807 Y12.3304
G01 X86.2726 Y12.3115
G01 X86.2101 Y12.1368
G01 X86.2044 Y12.1170
G01 X86.1611 Y11.9437
G01 X86.1573 Y11.9235
G01 X86.1321 Y11.7536
G01 X86.1304 Y11.7400
G01 X86.1294 Y11.7263
G01 X86.1210 Y11.5547
G01 X86.1207 Y11.5341
G01 X86.1294 Y11.3557
G01 X86.1304 Y11.3420
G01 X86.1321 Y11.3284
G01 X86.1573 Y11.1585
G01 X86.1597 Y11.1450
G01 X86.1627 Y11.1315
G01 X86.2044 Y10.9650
G01 X86.2081 Y10.9517
G01 X86.2124 Y10.9387
G01 X86.2702 Y10.7770
G01 X86.2752 Y10.7641
G01 X86.2807 Y10.7516
G01 X86.3542 Y10.5963
G01 X86.3637 Y10.5780
G01 X86.4554 Y10.4248
G01 X86.4628 Y10.4132
G01 X86.4707 Y10.4019
G01 X86.5730 Y10.2640
G01 X86.5814 Y10.2532
G01 X86.5904 Y10.2428
G01 X86.7057 Y10.1155
G01 X86.7152 Y10.1056
G01 X86.7252 Y10.0961
G01 X86.8524 Y9.9808
G01 X86.8628 Y9.9718
G01 X86.8737 Y9.9633
G01 X87.0116 Y9.8610
G01 X87.0228 Y9.8531
G01 X87.0345 Y9.8458
G01 X87.1818 Y9.7575
G01 X87.1937 Y9.7507
G01 X87.2060 Y9.7445
G01 X87.3612 Y9.6711
G01 X87.3738 Y9.6655
G01 X87.3866 Y9.6606
G01 X87.5483 Y9.6027
G01 X87.5614 Y9.5984
G01 X87.5746 Y9.5947
G01 X87.7412 Y9.5530
G01 X87.7546 Y9.5500
G01 X87.7682 Y9.5476
G01 X87.9380 Y9.5224
G01 X87.9585 Y9.5202
G01 X88.1369 Y9.5113
G01 X88.1507 Y9.5110
G01 X88.1644 Y9.5113
G01 X88.3359 Y9.5198
G01 X88.3496 Y9.5208
G01 X88.3633 Y9.5224
G01 X88.5331 Y9.5476
G01 X88.5467 Y9.5500
G01 X88.5601 Y9.5530
G01 X88.7267 Y9.5947
G01 X88.7399 Y9.5984
G01 X88.7530 Y9.6027
G01 X88.9147 Y9.6606
G01 X88.9275 Y9.6655
G01 X88.9401 Y9.6711
G01 X89.0953 Y9.7445
G01 X89.1076 Y9.7507
G01 X89.1195 Y9.7575
G01 X89.2727 Y9.8494
G01 X89.2897 Y9.8610
G01 X89.4276 Y9.9633
G01 X89.4385 Y9.9718
G01 X89.4489 Y9.9808
G01 X89.5761 Y10.0961
G01 X89.5861 Y10.1056
G01 X89.5956 Y10.1155
G01 X89.7109 Y10.2428
G01 X89.7242 Y10.2585
G01 X89.8306 Y10.4019
G01 X89.8385 Y10.4132
G01 X89.8459 Y10.4248
G01 X89.9376 Y10.5780
G01 X89.9471 Y10.5963
G01 X90.0234 Y10.7578
G01 X90.0311 Y10.7770
G01 X90.0607 Y10.8598
G01 X98.7425 Y10.8598
G01 X98.7721 Y10.7770
G01 X98.7798 Y10.7578
G01 X98.8561 Y10.5963
G01 X98.8655 Y10.5780
G01 X98.9573 Y10.4248
G01 X98.9646 Y10.4132
G01 X98.9726 Y10.4019
G01 X99.0790 Y10.2585
G01 X99.0923 Y10.2428
G01 X99.2076 Y10.1155
G01 X99.2171 Y10.1056
G01 X99.2271 Y10.0961
G01 X99.3543 Y9.9808
G01 X99.3647 Y9.9718
G01 X99.3755 Y9.9633
G01 X99.5135 Y9.8610
G01 X99.5305 Y9.8494
G01 X99.6836 Y9.7575
G01 X99.6956 Y9.7507
G01 X99.7079 Y9.7445
G01 X99.8631 Y9.6711
G01 X99.8757 Y9.6655
G01 X99.8885 Y9.6606
G01 X100.0502 Y9.6027
G01 X100.0633 Y9.5984
G01 X100.0765 Y9.5947
G01 X100.2431 Y9.5530
G01 X100.2565 Y9.5500
G01 X100.2700 Y9.5476
G01 X100.4399 Y9.5224
G01 X100.4536 Y9.5208
G01 X100.4673 Y9.5198
G01 X100.6388 Y9.5113
G01 X100.6525 Y9.5110
G01 X100.6663 Y9.5113
G01 X100.8378 Y9.5198
G01 X100.8583 Y9.5215
G01 X101.0350 Y9.5476
G01 X101.0486 Y9.5500
G01 X101.0620 Y9.5530
G01 X101.2286 Y9.5947
G01 X101.2418 Y9.5984
G01 X101.2549 Y9.6027
G01 X101.4166 Y9.6606
G01 X101.4294 Y9.6655
G01 X101.4419 Y9.6711
G01 X101.5972 Y9.7445
G01 X101.6095 Y9.7507
G01 X101.6214 Y9.7575
G01 X101.7687 Y9.8458
G01 X101.7803 Y9.8531
G01 X101.7916 Y9.8610
G01 X101.9295 Y9.9633
G01 X101.9403 Y9.9718
G01 X101.9508 Y9.9808
G01 X102.0780 Y10.0961
G01 X102.0880 Y10.1056
G01 X102.0974 Y10.1155
G01 X102.2128 Y10.2428
G01 X102.2217 Y10.2532
G01 X102.2302 Y10.2640
G01 X102.3325 Y10.4019
G01 X102.3404 Y10.4132
G01 X102.3478 Y10.4248
G01 X102.4361 Y10.5721
G01 X102.4428 Y10.5841
G01 X102.4490 Y10.5963
G01 X102.5224 Y10.7516
G01 X102.5280 Y10.7641
G01 X102.5330 Y10.7770
G01 X102.5908 Y10.9387
G01 X102.5951 Y10.9517
G01 X102.5988 Y10.9650
G01 X102.6405 Y11.1315
G01 X102.6435 Y11.1450
G01 X102.6459 Y11.1585
G01 X102.6711 Y11.3284
G01 X102.6733 Y11.3489
G01 X102.6822 Y11.5273
G01 X102.6825 Y11.5410
G01 X102.6822 Y11.5547
G01 X102.6738 Y11.7263
G01 X102.6728 Y11.7400
G01 X102.6711 Y11.7536
G01 X102.6459 Y11.9235
G01 X102.6435 Y11.9370
G01 X102.6405 Y11.9504
G01 X102.5988 Y12.1170
G01 X102.5951 Y12.1303
G01 X102.5908 Y12.1433
G01 X102.5330 Y12.3050
G01 X102.5280 Y12.3178
G01 X102.5224 Y12.3304
G01 X102.4490 Y12.4856
G01 X102.4428 Y12.4979
G01 X102.4361 Y12.5099
G01 X102.3478 Y12.6572
G01 X102.3404 Y12.6688
G01 X102.3325 Y12.6800
G01 X102.2302 Y12.8180
G01 X102.2217 Y12.8288
G01 X102.2128 Y12.8392
G01 X102.0974 Y12.9665
G01 X102.0880 Y12.9764
G01 X102.0780 Y12.9859
G01 X101.9508 Y13.1012
G01 X101.9403 Y13.1102
G01 X101.9295 Y13.1187
G01 X101.7916 Y13.2210
G01 X101.7803 Y13.2289
G01 X101.7687 Y13.2362
G01 X101.6214 Y13.3245
G01 X101.6095 Y13.3313
G01 X101.5972 Y13.3375
G01 X101.4419 Y13.4109
G01 X101.4294 Y13.4165
G01 X101.4166 Y13.4214
G01 X101.2549 Y13.4793
G01 X101.2418 Y13.4836
G01 X101.2286 Y13.4872
G01 X101.0620 Y13.5290
G01 X101.0486 Y13.5320
G01 X101.0350 Y13.5343
G01 X100.8583 Y13.5605
G01 X100.8378 Y13.5622
G01 X100.6663 Y13.5707
G01 X100.6525 Y13.5710
G01 X100.6388 Y13.5707
G01 X100.4673 Y13.5622
G01 X100.4536 Y13.5612
G01 X100.4399 Y13.5595
G01 X100.2700 Y13.5343
G01 X100.2565 Y13.5320
G01 X100.2431 Y13.5290
G01 X100.0765 Y13.4872
G01 X100.0633 Y13.4836
G01 X100.0502 Y13.4793
G01 X99.8885 Y13.4214
G01 X99.8757 Y13.4165
G01 X99.8631 Y13.4109
G01 X99.7079 Y13.3375
G01 X99.6956 Y13.3313
G01 X99.6836 Y13.3245
G01 X99.5305 Y13.2326
G01 X99.5135 Y13.2210
G01 X99.3755 Y13.1187
G01 X99.3647 Y13.1102
G01 X99.3543 Y13.1012
G01 X99.2271 Y12.9859
G01 X99.2171 Y12.9764
G01 X99.2076 Y12.9665
G01 X99.0923 Y12.8392
G01 X99.0790 Y12.8234
G01 X98.9726 Y12.6800
G01 X98.9646 Y12.6688
G01 X98.9573 Y12.6572
G01 X98.8655 Y12.5039
G01 X98.8561 Y12.4856
G01 X98.7798 Y12.3242
G01 X98.7721 Y12.3050
G01 X98.7418 Y12.2202
G01 X90.0614 Y12.2202
G01 X90.0311 Y12.3050
G01 X90.0234 Y12.3242
G01 X89.9441 Y12.4918
G01 X89.9342 Y12.5099
G01 X89.8423 Y12.6630
G01 X89.8306 Y12.6800
G01 X89.7283 Y12.8180
G01 X89.7199 Y12.8288
G01 X89.7109 Y12.8392
G01 X89.5909 Y12.9715
G01 X89.5761 Y12.9859
G01 X89.4489 Y13.1012
G01 X89.4385 Y13.1102
G01 X89.4276 Y13.1187
G01 X89.2897 Y13.2210
G01 X89.2785 Y13.2289
G01 X89.2668 Y13.2362
G01 X89.1195 Y13.3245
G01 X89.1076 Y13.3313
G01 X89.0953 Y13.3375
G01 X88.9401 Y13.4109
G01 X88.9275 Y13.4165
G01 X88.9147 Y13.4214
G01 X88.7530 Y13.4793
G01 X88.7399 Y13.4836
G01 X88.7267 Y13.4872
G01 X88.5601 Y13.5290
G01 X88.5467 Y13.5320
G01 X88.5331 Y13.5343
G01 X88.3633 Y13.5595
G01 X88.3496 Y13.5612
G01 X88.3359 Y13.5622
G01 X88.1644 Y13.5707
G01 X88.1438 Y13.5709
G01 X87.9654 Y13.5622
G01 X87.9517 Y13.5612
G01 X87.9380 Y13.5595
G01 X87.7682 Y13.5343
G01 X87.7479 Y13.5306
G01 X87.5746 Y13.4872
G01 X87.5548 Y13.4815
G01 X87.3802 Y13.4190
G01 X87.3612 Y13.4109
G01 X87.2807 Y13.3728
G01 X65.1722 Y35.4814
G01 X65.1622 Y35.4909
G01 X65.1280 Y35.5218
G01 X65.1119 Y35.5347
G01 X65.0691 Y35.5660
G01 X65.0238 Y35.5936
G01 X65.0058 Y35.6035
G01 X64.9641 Y35.6233
G01 X64.9515 Y35.6289
G01 X64.9387 Y35.6338
G01 X64.8952 Y35.6493
G01 X64.8754 Y35.6550
G01 X64.8239 Y35.6676
G01 X64.7715 Y35.6757
G01 X64.7510 Y35.6780
G01 X64.7049 Y35.6803
G01 X64.6912 Y35.6807
G01 X11.0007 Y35.6807
G01 X10.0006 Y35.6801
G01 X9.9869 Y35.6798
G01 X9.9408 Y35.6774
G01 X9.9203 Y35.6751
G01 X9.8679 Y35.6670
G01 X9.8545 Y35.6639
G01 X9.8032 Y35.6507
G01 X9.7531 Y35.6331
G01 X9.7403 Y35.6282
G01 X9.6923 Y35.6058
G01 X9.6740 Y35.5963
G01 X9.6344 Y35.5726
G01 X9.6228 Y35.5653
G01 X9.6115 Y35.5573
G01 X9.5692 Y35.5255
G01 X9.5297 Y35.4901
G01 X9.5197 Y35.4806
G01 X9.5103 Y35.4706
G01 X9.4749 Y35.4311
G01 X9.4431 Y35.3887
G01 X9.4352 Y35.3775
G01 X9.4278 Y35.3659
G01 X9.4042 Y35.3262
G01 X9.3947 Y35.3079
G01 X9.3724 Y35.2598
G01 X9.3675 Y35.2470
G01 X9.3499 Y35.1970
G01 X9.3368 Y35.1456
G01 X9.3338 Y35.1322
G01 X9.3314 Y35.1187
G01 X9.3248 Y35.0730
G01 X9.3230 Y35.0525
G01 X9.3208 Y34.9995
G01 X9.3231 Y34.9466
G01 X9.3248 Y34.9260
G01 X9.3316 Y34.8804
G01 X9.3353 Y34.8601
G01 X9.3465 Y34.8153
G01 X9.3502 Y34.8021
G01 X9.3677 Y34.7521
G01 X9.3727 Y34.7392
G01 X9.3783 Y34.7267
G01 X9.4013 Y34.6789
G01 X9.4080 Y34.6670
G01 X9.4319 Y34.6274
G01 X9.4435 Y34.6105
G01 X9.4711 Y34.5735
G01 X9.4844 Y34.5577
G01 X9.5203 Y34.5187
G01 X9.5593 Y34.4828
G01 X9.5751 Y34.4696
G01 X9.6121 Y34.4420
G01 X9.6234 Y34.4341
G01 X9.6350 Y34.4268
G01 X9.6807 Y34.3998
G01 X9.7285 Y34.3769
G01 X9.7410 Y34.3713
G01 X9.7538 Y34.3664
G01 X9.7973 Y34.3510
G01 X9.8171 Y34.3452
G01 X9.8686 Y34.3327
G01 X9.9210 Y34.3246
G01 X9.9415 Y34.3224
G01 X9.9945 Y34.3198
G01 X11.0009 Y34.3203
G01 X64.4095 Y34.3203
G01 X86.3188 Y12.4109
G00 Z2.0000
G00 X98.8731 Y11.0398
G01 F60.00
G01 Z0.0000
G01 F120.00
G01 X98.8829 Y11.0016
G01 X98.9424 Y10.8353
G01 X98.9453 Y10.8285
G01 X99.0210 Y10.6689
G01 X99.1143 Y10.5132
G01 X99.2225 Y10.3674
G01 X99.3444 Y10.2328
G01 X99.4789 Y10.1109
G01 X99.6247 Y10.0028
G01 X99.7804 Y9.9094
G01 X99.9446 Y9.8318
G01 X100.1155 Y9.7707
G01 X100.2916 Y9.7265
G01 X100.4712 Y9.6999
G01 X100.6525 Y9.6910
G01 X100.8339 Y9.6999
G01 X101.0134 Y9.7265
G01 X101.1896 Y9.7707
G01 X101.3605 Y9.8318
G01 X101.5246 Y9.9094
G01 X101.6803 Y10.0028
G01 X101.8262 Y10.1109
G01 X101.9607 Y10.2328
G01 X102.0826 Y10.3674
G01 X102.1907 Y10.5132
G01 X102.2841 Y10.6689
G01 X102.3617 Y10.8330
G01 X102.4229 Y11.0040
G01 X102.4670 Y11.1801
G01 X102.4936 Y11.3597
G01 X102.5025 Y11.5410
G01 X102.4936 Y11.7223
G01 X102.4670 Y11.9019
G01 X102.4229 Y12.0780
G01 X102.3617 Y12.2490
G01 X102.2863 Y12.4087
G01 X102.2817 Y12.4173
G01 X102.1907 Y12.5688
G01 X102.0826 Y12.7146
G01 X101.9641 Y12.8456
G01 X101.9571 Y12.8525
G01 X101.8262 Y12.9711
G01 X101.6803 Y13.0792
G01 X101.5289 Y13.1701
G01 X101.5202 Y13.1748
G01 X101.3605 Y13.2502
G01 X101.1896 Y13.3113
G01 X101.0182 Y13.3544
G01 X101.0086 Y13.3563
G01 X100.8387 Y13.3815
G01 X100.8314 Y13.3823
G01 X100.6525 Y13.3910
G01 X100.4712 Y13.3821
G01 X100.2916 Y13.3554
G01 X100.1202 Y13.3126
G01 X100.1108 Y13.3098
G01 X99.9491 Y13.2519
G01 X99.9401 Y13.2482
G01 X99.7804 Y13.1725
G01 X99.6247 Y13.0792
G01 X99.4789 Y12.9711
G01 X99.3444 Y12.8491
G01 X99.2225 Y12.7146
G01 X99.1171 Y12.5728
G01 X99.1117 Y12.5646
G01 X99.0210 Y12.4131
G01 X98.9453 Y12.2534
G01 X98.9416 Y12.2444
G01 X98.8829 Y12.0804
G01 X98.8726 Y12.0402
G01 X89.9306 Y12.0402
G01 X89.9202 Y12.0804
G01 X89.8607 Y12.2467
G01 X89.8578 Y12.2534
G01 X89.7822 Y12.4131
G01 X89.6889 Y12.5688
G01 X89.5837 Y12.7107
G01 X89.5775 Y12.7183
G01 X89.4622 Y12.8456
G01 X89.4552 Y12.8525
G01 X89.3243 Y12.9711
G01 X89.1825 Y13.0764
G01 X89.1743 Y13.0818
G01 X89.0227 Y13.1725
G01 X88.8586 Y13.2502
G01 X88.6877 Y13.3113
G01 X88.5164 Y13.3544
G01 X88.5067 Y13.3563
G01 X88.3320 Y13.3821
G01 X88.1556 Y13.3909
G01 X88.1457 Y13.3909
G01 X87.9742 Y13.3824
G01 X87.9644 Y13.3815
G01 X87.7897 Y13.3554
G01 X87.6136 Y13.3113
G01 X87.4473 Y13.2519
G01 X87.4404 Y13.2492
G01 X87.2807 Y13.1737
G01 X87.2459 Y13.1531
G01 X65.0449 Y35.3542
G01 X65.0123 Y35.3839
G01 X65.0047 Y35.3901
G01 X64.9691 Y35.4164
G01 X64.9313 Y35.4392
G01 X64.9226 Y35.4438
G01 X64.8826 Y35.4626
G01 X64.8341 Y35.4798
G01 X64.7888 Y35.4910
G01 X64.7451 Y35.4977
G01 X64.7353 Y35.4986
G01 X64.6912 Y35.5007
G01 X11.0007 Y35.5007
G01 X10.0007 Y35.5001
G01 X9.9517 Y35.4977
G01 X9.9079 Y35.4913
G01 X9.8983 Y35.4894
G01 X9.8602 Y35.4798
G01 X9.8508 Y35.4769
G01 X9.8093 Y35.4619
G01 X9.7649 Y35.4409
G01 X9.7228 Y35.4156
G01 X9.6873 Y35.3894
G01 X9.6797 Y35.3832
G01 X9.6506 Y35.3568
G01 X9.6437 Y35.3498
G01 X9.6141 Y35.3170
G01 X9.5849 Y35.2776
G01 X9.5597 Y35.2354
G01 X9.5407 Y35.1955
G01 X9.5370 Y35.1865
G01 X9.5215 Y35.1425
G01 X9.5114 Y35.1020
G01 X9.5095 Y35.0924
G01 X9.5032 Y35.0486
G01 X9.5009 Y35.0045
G01 X9.5009 Y34.9947
G01 X9.5032 Y34.9506
G01 X9.5104 Y34.9020
G01 X9.5224 Y34.8544
G01 X9.5372 Y34.8128
G01 X9.5409 Y34.8037
G01 X9.5578 Y34.7682
G01 X9.5624 Y34.7596
G01 X9.5852 Y34.7218
G01 X9.6115 Y34.6862
G01 X9.6177 Y34.6786
G01 X9.6475 Y34.6460
G01 X9.6839 Y34.6131
G01 X9.7233 Y34.5838
G01 X9.7612 Y34.5610
G01 X9.7698 Y34.5564
G01 X9.8053 Y34.5397
G01 X9.8144 Y34.5359
G01 X9.8560 Y34.5212
G01 X9.8989 Y34.5103
G01 X9.9085 Y34.5084
G01 X9.9522 Y34.5021
G01 X10.0013 Y34.4997
G01 X11.0009 Y34.5003
G01 X64.4840 Y34.5003
G01 X86.5385 Y12.4457
G01 X86.5180 Y12.4109
G01 X86.4435 Y12.2534
G01 X86.4397 Y12.2444
G01 X86.3803 Y12.0780
G01 X86.3373 Y11.9067
G01 X86.3354 Y11.8971
G01 X86.3096 Y11.7223
G01 X86.3007 Y11.5410
G01 X86.3096 Y11.3597
G01 X86.3354 Y11.1849
G01 X86.3373 Y11.1753
G01 X86.3803 Y11.0040
G01 X86.4415 Y10.8330
G01 X86.5191 Y10.6689
G01 X86.6124 Y10.5132
G01 X86.7206 Y10.3674
G01 X86.8425 Y10.2328
G01 X86.9770 Y10.1109
G01 X87.1228 Y10.0028
G01 X87.2786 Y9.9094
G01 X87.4382 Y9.8338
G01 X87.4473 Y9.8300
G01 X87.6136 Y9.7707
G01 X87.7849 Y9.7276
G01 X87.7946 Y9.7257
G01 X87.9693 Y9.6999
G01 X88.1507 Y9.6910
G01 X88.3271 Y9.6995
G01 X88.3369 Y9.7005
G01 X88.5067 Y9.7257
G01 X88.5164 Y9.7276
G01 X88.6877 Y9.7707
G01 X88.8540 Y9.8300
G01 X88.8631 Y9.8338
G01 X89.0227 Y9.9094
G01 X89.1743 Y10.0001
G01 X89.1825 Y10.0056
G01 X89.3243 Y10.1109
G01 X89.4552 Y10.2295
G01 X89.4622 Y10.2364
G01 X89.5775 Y10.3636
G01 X89.5837 Y10.3712
G01 X89.6889 Y10.5132
G01 X89.7822 Y10.6689
G01 X89.8578 Y10.8285
G01 X89.8607 Y10.8353
G01 X89.9202 Y11.0016
G01 X89.9301 Y11.0398
G01 X98.8731 Y11.0398
G00 Z2.0000
G00 X110.1186 Y12.4109
G01 F60.00
G01 Z0.0000
G01 F120.00
G01 X110.0805 Y12.3304
G01 X110.0724 Y12.3115
G01 X110.0099 Y12.1368
G01 X110.0042 Y12.1170
G01 X109.9609 Y11.9437
G01 X109.9571 Y11.9235
G01 X109.9319 Y11.7536
G01 X109.9302 Y11.7400
G01 X109.9292 Y11.7263
G01 X109.9208 Y11.5547
G01 X109.9205 Y11.5341
G01 X109.9292 Y11.3557
G01 X109.9302 Y11.3420
G01 X109.9319 Y11.3284
G01 X109.9571 Y11.1585
G01 X109.9595 Y11.1450
G01 X109.9625 Y11.1315
G01 X110.0042 Y10.9650
G01 X110.0079 Y10.9517
G01 X110.0122 Y10.9387
G01 X110.0700 Y10.7770
G01 X110.0750 Y10.7641
G01 X110.0805 Y10.7516
G01 X110.1540 Y10.5963
G01 X110.1635 Y10.5780
G01 X110.2552 Y10.4248
G01 X110.2626 Y10.4132
G01 X110.2705 Y10.4019
G01 X110.3728 Y10.2640
G01 X110.3812 Y10.2532
G01 X110.3902 Y10.2428
G01 X110.5055 Y10.1155
G01 X110.5150 Y10.1056
G01 X110.5250 Y10.0961
G01 X110.6522 Y9.9808
G01 X110.6626 Y9.9718
G01 X110.6735 Y9.9633
G01 X110.8114 Y9.8610
G01 X110.8226 Y9.8531
G01 X110.8343 Y9.8458
G01 X110.9816 Y9.7575
G01 X110.9935 Y9.7507
G01 X111.0058 Y9.7445
G01 X111.1610 Y9.6711
G01 X111.1736 Y9.6655
G01 X111.1864 Y9.6606
G01 X111.3481 Y9.6027
G01 X111.3612 Y9.5984
G01 X111.3744 Y9.5947
G01 X111.5410 Y9.5530
G01 X111.5544 Y9.5500
G01 X111.5680 Y9.5476
G01 X111.7378 Y9.5224
G01 X111.7583 Y9.5202
G01 X111.9367 Y9.5113
G01 X111.9505 Y9.5110
G01 X111.9642 Y9.5113
G01 X112.1357 Y9.5198
G01 X112.1494 Y9.5208
G01 X112.1631 Y9.5224
G01 X112.3329 Y9.5476
G01 X112.3465 Y9.5500
G01 X112.3599 Y9.5530
G01 X112.5265 Y9.5947
G01 X112.5397 Y9.5984
G01 X112.5528 Y9.6027
G01 X112.7145 Y9.6606
G01 X112.7273 Y9.6655
G01 X112.7399 Y9.6711
G01 X112.8951 Y9.7445
G01 X112.9074 Y9.7507
G01 X112.9193 Y9.7575
G01 X113.0725 Y9.8494
G01 X113.0895 Y9.8610
G01 X113.2274 Y9.9633
G01 X113.2383 Y9.9718
G01 X113.2487 Y9.9808
G01 X113.3759 Y10.0961
G01 X113.3859 Y10.1056
G01 X113.3954 Y10.1155
G01 X113.5107 Y10.2428
G01 X113.5240 Y10.2585
G01 X113.6304 Y10.4019
G01 X113.6383 Y10.4132
G01 X113.6457 Y10.4248
G01 X113.7374 Y10.5780
G01 X113.7469 Y10.5963
G01 X113.8232 Y10.7578
G01 X113.8309 Y10.7770
G01 X113.8605 Y10.8598
G01 X122.5423 Y10.8598
G01 X122.5719 Y10.7770
G01 X122.5796 Y10.7578
G01 X122.6559 Y10.5963
G01 X122.6653 Y10.5780
G01 X122.7571 Y10.4248
G01 X122.7644 Y10.4132
G01 X122.7724 Y10.4019
G01 X122.8788 Y10.2585
G01 X122.8921 Y10.2428
G01 X123.0074 Y10.1155
G01 X123.0169 Y10.1056
G01 X123.0269 Y10.0961
G01 X123.1541 Y9.9808
G01 X123.1645 Y9.9718
G01 X123.1753 Y9.9633
G01 X123.3133 Y9.8610
G01 X123.3303 Y9.8494
G01 X123.4834 Y9.7575
G01 X123.4954 Y9.7507
G01 X123.5077 Y9.7445
G01 X123.6629 Y9.6711
G01 X123.6755 Y9.6655
G01 X123.6883 Y9.6606
G01 X123.8500 Y9.6027
G01 X123.8631 Y9.5984
G01 X123.8763 Y9.5947
G01 X124.0429 Y9.5530
G01 X124.0563 Y9.5500
G01 X124.0698 Y9.5476
G01 X124.2397 Y9.5224
G01 X124.2534 Y9.5208
G01 X124.2671 Y9.5198
G01 X124.4386 Y9.5113
G01 X124.4523 Y9.5110
G01 X124.4661 Y9.5113
G01 X124.6376 Y9.5198
G01 X124.6581 Y9.5215
G01 X124.8348 Y9.5476
G01 X124.8484 Y9.5500
G01 X124.8618 Y9.5530
G01 X125.0284 Y9.5947
G01 X125.0416 Y9.5984
G01 X125.0547 Y9.6027
G01 X125.2164 Y9.6606
G01 X125.2292 Y9.6655
G01 X125.2417 Y9.6711
G01 X125.3970 Y9.7445
G01 X125.4093 Y9.7507
G01 X125.4212 Y9.7575
G01 X125.5685 Y9.8458
G01 X125.5801 Y9.8531
G01 X125.5914 Y9.8610
G01 X125.7293 Y9.9633
G01 X125.7401 Y9.9718
G01 X125.7506 Y9.9808
G01 X125.8778 Y10.0961
G01 X125.8878 Y10.1056
G01 X125.8972 Y10.1155
G01 X126.0126 Y10.2428
G01 X126.0215 Y10.2532
G01 X126.0300 Y10.2640
G01 X126.1323 Y10.4019
G01 X126.1402 Y10.4132
G01 X126.1476 Y10.4248
G01 X126.2359 Y10.5721
G01 X126.2426 Y10.5841
G01 X126.2488 Y10.5963
G01 X126.3222 Y10.7516
G01 X126.3278 Y10.7641
G01 X126.3328 Y10.7770
G01 X126.3906 Y10.9387
G01 X126.3949 Y10.9517
G01 X126.3986 Y10.9650
G01 X126.4403 Y11.1315
G01 X126.4433 Y11.1450
G01 X126.4457 Y11.1585
G01 X126.4709 Y11.3284
G01 X126.4731 Y11.3489
G01 X126.4820 Y11.5273
G01 X126.4823 Y11.5410
G01 X126.4820 Y11.5547
G01 X126.4736 Y11.7263
G01 X126.4726 Y11.7400
G01 X126.4709 Y11.7536
G01 X126.4457 Y11.9235
G01 X126.4433 Y11.9370
G01 X126.4403 Y11.9504
G01 X126.3986 Y12.1170
G01 X126.3949 Y12.1303
G01 X126.3906 Y12.1433
G01 X126.3328 Y12.3050
G01 X126.3278 Y12.3178
G01 X126.3222 Y12.3304
G01 X126.2488 Y12.4856
G01 X126.2426 Y12.4979
G01 X126.2359 Y12.5099
G01 X126.1476 Y12.6572
G01 X126.1402 Y12.6688
G01 X126.1323 Y12.6800
G01 X126.0300 Y12.8180
G01 X126.0215 Y12.8288
G01 X126.0126 Y12.8392
G01 X125.8972 Y12.9665
G01 X125.8878 Y12.9764
G01 X125.8778 Y12.9859
G01 X125.7506 Y13.1012
G01 X125.7401 Y13.1102
G01 X125.7293 Y13.1187
G01 X125.5914 Y13.2210
G01 X125.5801 Y13.2289
G01 X125.5685 Y13.2362
G01 X125.4212 Y13.3245
G01 X125.4093 Y13.3313
G01 X125.3970 Y13.3375
G01 X125.2417 Y13.4109
G01 X125.2292 Y13.4165
G01 X125.2164 Y13.4214
G01 X125.0547 Y13.4793
G01 X125.0416 Y13.4836
G01 X125.0284 Y13.4872
G01 X124.8618 Y13.5290
G01 X124.8484 Y13.5320
G01 X124.8348 Y13.5343
G01 X124.6581 Y13.5605
G01 X124.6376 Y13.5622
G01 X124.4661 Y13.5707
G01 X124.4523 Y13.5710
G01 X124.4386 Y13.5707
G01 X124.2671 Y13.5622
G01 X124.2534 Y13.5612
G01 X124.2397 Y13.5595
G01 X124.0698 Y13.5343
G01 X124.0563 Y13.5320
G01 X124.0429 Y13.5290
G01 X123.8763 Y13.4872
G01 X123.8631 Y13.4836
G01 X123.8500 Y13.4793
G01 X123.6883 Y13.4214
G01 X123.6755 Y13.4165
G01 X123.6629 Y13.4109
G01 X123.5077 Y13.3375
G01 X123.4954 Y13.3313
G01 X123.4834 Y13.3245
G01 X123.3303 Y13.2326
G01 X123.3133 Y13.2210
G01 X123.1753 Y13.1187
G01 X123.1645 Y13.1102
G01 X123.1541 Y13.1012
G01 X123.0269 Y12.9859
G01 X123.0169 Y12.9764
G01 X123.0074 Y12.9665
G01 X122.8921 Y12.8392
G01 X122.8788 Y12.8234
G01 X122.7724 Y12.6800
G01 X122.7644 Y12.6688
G01 X122.7571 Y12.6572
G01 X122.6653 Y12.5039
G01 X122.6559 Y12.4856
G01 X122.5796 Y12.3242
G01 X122.5719 Y12.3050
G01 X122.5416 Y12.2202
G01 X113.8612 Y12.2202
G01 X113.8309 Y12.3050
G01 X113.8232 Y12.3242
G01 X113.7439 Y12.4918
G01 X113.7340 Y12.5099
G01 X113.6421 Y12.6630
G01 X113.6304 Y12.6800
G01 X113.5281 Y12.8180
G01 X113.5197 Y12.8288
G01 X113.5107 Y12.8392
G01 X113.3907 Y12.9715
G01 X113.3759 Y12.9859
G01 X113.2487 Y13.1012
G01 X113.2383 Y13.1102
G01 X113.2274 Y13.1187
G01 X113.0895 Y13.2210
G01 X113.0783 Y13.2289
G01 X113.0666 Y13.2362
G01 X112.9193 Y13.3245
G01 X112.9074 Y13.3313
G01 X112.8951 Y13.3375
G01 X112.7399 Y13.4109
G01 X112.7273 Y13.4165
G01 X112.7145 Y13.4214
G01 X112.5528 Y13.4793
G01 X112.5397 Y13.4836
G01 X112.5265 Y13.4872
G01 X112.3599 Y13.5290
G01 X112.3465 Y13.5320
G01 X112.3329 Y13.5343
G01 X112.1631 Y13.5595
G01 X112.1494 Y13.5612
G01 X112.1357 Y13.5622
G01 X111.9642 Y13.5707
G01 X111.9436 Y13.5709
G01 X111.7652 Y13.5622
G01 X111.7515 Y13.5612
G01 X111.7378 Y13.5595
G01 X111.5680 Y13.5343
G01 X111.5477 Y13.5306
G01 X111.3744 Y13.4872
G01 X111.3546 Y13.4815
G01 X111.1800 Y13.4190
G01 X111.1610 Y13.4109
G01 X111.0806 Y13.3728
G01 X86.9730 Y37.4804
G01 X86.9631 Y37.4899
G01 X86.9288 Y37.5208
G01 X86.9127 Y37.5337
G01 X86.8700 Y37.5650
G01 X86.8583 Y37.5723
G01 X86.8127 Y37.5993
G01 X86.8004 Y37.6055
G01 X86.7587 Y37.6251
G01 X86.7395 Y37.6328
G01 X86.6895 Y37.6503
G01 X86.6382 Y37.6635
G01 X86.6180 Y37.6678
G01 X86.5724 Y37.6747
G01 X86.5587 Y37.6763
G01 X86.5058 Y37.6793
G01 X86.4921 Y37.6796
G01 X10.0010 Y37.6801
G01 X9.9872 Y37.6798
G01 X9.9343 Y37.6768
G01 X9.8818 Y37.6694
G01 X9.8683 Y37.6670
G01 X9.8549 Y37.6640
G01 X9.8101 Y37.6527
G01 X9.7905 Y37.6465
G01 X9.7407 Y37.6283
G01 X9.7281 Y37.6228
G01 X9.6803 Y37.5998
G01 X9.6684 Y37.5930
G01 X9.6231 Y37.5655
G01 X9.5803 Y37.5342
G01 X9.5695 Y37.5257
G01 X9.5591 Y37.5167
G01 X9.5200 Y37.4809
G01 X9.4841 Y37.4418
G01 X9.4709 Y37.4261
G01 X9.4433 Y37.3890
G01 X9.4354 Y37.3778
G01 X9.4281 Y37.3662
G01 X9.4011 Y37.3205
G01 X9.3949 Y37.3083
G01 X9.3725 Y37.2602
G01 X9.3544 Y37.2104
G01 X9.3501 Y37.1974
G01 X9.3369 Y37.1460
G01 X9.3326 Y37.1258
G01 X9.3257 Y37.0802
G01 X9.3240 Y37.0666
G01 X9.3211 Y37.0136
G01 X9.3208 Y36.9999
G01 X9.3211 Y36.9862
G01 X9.3240 Y36.9332
G01 X9.3257 Y36.9196
G01 X9.3326 Y36.8740
G01 X9.3369 Y36.8538
G01 X9.3481 Y36.8091
G01 X9.3544 Y36.7894
G01 X9.3725 Y36.7396
G01 X9.3949 Y36.6915
G01 X9.4044 Y36.6732
G01 X9.4281 Y36.6336
G01 X9.4354 Y36.6220
G01 X9.4667 Y36.5792
G01 X9.4752 Y36.5684
G01 X9.5105 Y36.5289
G01 X9.5200 Y36.5189
G01 X9.5299 Y36.5095
G01 X9.5642 Y36.4785
G01 X9.5803 Y36.4656
G01 X9.6231 Y36.4343
G01 X9.6684 Y36.4068
G01 X9.6864 Y36.3969
G01 X9.7281 Y36.3770
G01 X9.7470 Y36.3689
G01 X9.7905 Y36.3533
G01 X9.8035 Y36.3490
G01 X9.8168 Y36.3453
G01 X9.8683 Y36.3328
G01 X9.9207 Y36.3247
G01 X9.9343 Y36.3230
G01 X9.9872 Y36.3200
G01 X10.0010 Y36.3197
G01 X86.2103 Y36.3192
G01 X110.1186 Y12.4109
G00 Z2.0000
G00 X122.6729 Y11.0398
G01 F60.00
G01 Z0.0000
G01 F120.00
G01 X122.6827 Y11.0016
G01 X122.7422 Y10.8353
G01 X122.7451 Y10.8285
G01 X122.8208 Y10.6689
G01 X122.9141 Y10.5132
G01 X123.0223 Y10.3674
G01 X123.1442 Y10.2328
G01 X123.2787 Y10.1109
G01 X123.4245 Y10.0028
G01 X123.5802 Y9.9094
G01 X123.7444 Y9.8318
G01 X123.9153 Y9.7707
G01 X124.0914 Y9.7265
G01 X124.2710 Y9.6999
G01 X124.4523 Y9.6910
G01 X124.6337 Y9.6999
G01 X124.8132 Y9.7265
G01 X124.9894 Y9.7707
G01 X125.1603 Y9.8318
G01 X125.3244 Y9.9094
G01 X125.4801 Y10.0028
G01 X125.6260 Y10.1109
G01 X125.7605 Y10.2328
