(G-CODE GENERATED BY FLATCAM v8.994 - www.flatcam.org - Version Date: 2020/11/7)

(Name: Drill_PTH_Through_Via.DRL_mill_cnc)
(Type: G-code from Geometry)
(Units: MM)

(Created on Thursday, 29 August 2024 at 13:02)

(This preprocessor is the default preprocessor used by FlatCAM.)
(It is made to work with MACH3 compatible motion controllers.)

(TOOL DIAMETER: 0.8 mm)
(Feedrate_XY: 120.0 mm/min)
(Feedrate_Z: 60.0 mm/min)
(Feedrate rapids 1500.0 mm/min)

(Z_Cut: -2.4 mm)
(DepthPerCut: 0.8 mm <=>3 passes)
(Z_Move: 2.0 mm)
(Z Start: None mm)
(Z End: 15.0 mm)
(X,Y End: None mm)
(Steps per circle: 64)
(Preprocessor Geometry: default)

(X range:   14.6267 ...   18.6267  mm)
(Y range:   31.0000 ...   44.0000  mm)

(Spindle Speed: 0.0 RPM)
G21
G90
G94

G01 F120.00

M5
G00 Z15.0000
G00 X0.0000 Y0.0000
T1
M6    
(MSG, Change to Tool Dia = 0.8000)
M0
G00 Z15.0000

M03
G01 F120.00
G00 X14.6267 Y31.0000
G01 F60.00
G01 Z-0.8000
G01 F120.00
G01 X14.6267 Y31.0000
G01 X14.6267 Y31.0000
G01 X14.6267 Y31.0000
G01 X14.6267 Y31.0000
G00 X14.6267 Y31.0000
G01 F60.00
G01 Z-1.6000
G01 F120.00
G01 X14.6267 Y31.0000
G01 X14.6267 Y31.0000
G01 X14.6267 Y31.0000
G01 X14.6267 Y31.0000
G00 X14.6267 Y31.0000
G01 F60.00
G01 Z-2.4000
G01 F120.00
G01 X14.6267 Y31.0000
G01 X14.6267 Y31.0000
G01 X14.6267 Y31.0000
G01 X14.6267 Y31.0000
G00 Z2.0000
G00 X18.6267 Y34.0000
G01 F60.00
G01 Z-0.8000
G01 F120.00
G01 X18.6267 Y34.0000
G01 X18.6267 Y34.0000
G01 X18.6267 Y34.0000
G01 X18.6267 Y34.0000
G00 X18.6267 Y34.0000
G01 F60.00
G01 Z-1.6000
G01 F120.00
G01 X18.6267 Y34.0000
G01 X18.6267 Y34.0000
G01 X18.6267 Y34.0000
G01 X18.6267 Y34.0000
G00 X18.6267 Y34.0000
G01 F60.00
G01 Z-2.4000
G01 F120.00
G01 X18.6267 Y34.0000
G01 X18.6267 Y34.0000
G01 X18.6267 Y34.0000
G01 X18.6267 Y34.0000
G00 Z2.0000
G00 X14.6267 Y41.0000
G01 F60.00
G01 Z-0.8000
G01 F120.00
G01 X14.6267 Y41.0000
G01 X14.6267 Y41.0000
G01 X14.6267 Y41.0000
G01 X14.6267 Y41.0000
G00 X14.6267 Y41.0000
G01 F60.00
G01 Z-1.6000
G01 F120.00
G01 X14.6267 Y41.0000
G01 X14.6267 Y41.0000
G01 X14.6267 Y41.0000
G01 X14.6267 Y41.0000
G00 X14.6267 Y41.0000
G01 F60.00
G01 Z-2.4000
G01 F120.00
G01 X14.6267 Y41.0000
G01 X14.6267 Y41.0000
G01 X14.6267 Y41.0000
G01 X14.6267 Y41.0000
G00 Z2.0000
G00 X18.6267 Y44.0000
G01 F60.00
G01 Z-0.8000
G01 F120.00
G01 X18.6267 Y44.0000
G01 X18.6267 Y44.0000
G01 X18.6267 Y44.0000
G01 X18.6267 Y44.0000
G00 X18.6267 Y44.0000
G01 F60.00
G01 Z-1.6000
G01 F120.00
G01 X18.6267 Y44.0000
G01 X18.6267 Y44.0000
G01 X18.6267 Y44.0000
G01 X18.6267 Y44.0000
G00 X18.6267 Y44.0000
G01 F60.00
G01 Z-2.4000
G01 F120.00
G01 X18.6267 Y44.0000
G01 X18.6267 Y44.0000
G01 X18.6267 Y44.0000
G01 X18.6267 Y44.0000
G00 Z2.0000
M05
G00 Z2.0000
G00 Z15.00


