(G-CODE GENERATED BY FLATCAM v8.994 - www.flatcam.org - Version Date: 2020/11/7)

(Name: Drill_PTH_Through.DRL_mill_cnc)
(Type: G-code from Geometry)
(Units: MM)

(Created on Thursday, 29 August 2024 at 13:03)

(This preprocessor is the default preprocessor used by FlatCAM.)
(It is made to work with MACH3 compatible motion controllers.)

(TOOL DIAMETER: 0.8 mm)
(Feedrate_XY: 120.0 mm/min)
(Feedrate_Z: 60.0 mm/min)
(Feedrate rapids 1500.0 mm/min)

(Z_Cut: -2.4 mm)
(DepthPerCut: 0.8 mm <=>3 passes)
(Z_Move: 2.0 mm)
(Z Start: None mm)
(Z End: 15.0 mm)
(X,Y End: None mm)
(Steps per circle: 64)
(Preprocessor Geometry: default)

(X range:    7.5827 ...   66.1367  mm)
(Y range:   36.8870 ...   49.5870  mm)

(Spindle Speed: 0.0 RPM)
G21
G90
G94

G01 F120.00

M5
G00 Z15.0000
G00 X0.0000 Y0.0000
T1
M6    
(MSG, Change to Tool Dia = 0.8000)
M0
G00 Z15.0000

M03
G01 F120.00
G00 X7.5827 Y36.8870
G01 F60.00
G01 Z-0.8000
G01 F120.00
G01 X7.5827 Y36.8870
G01 X7.5827 Y36.8870
G01 X7.5827 Y36.8870
G01 X7.5827 Y36.8870
G00 X7.5827 Y36.8870
G01 F60.00
G01 Z-1.6000
G01 F120.00
G01 X7.5827 Y36.8870
G01 X7.5827 Y36.8870
G01 X7.5827 Y36.8870
G01 X7.5827 Y36.8870
G00 X7.5827 Y36.8870
G01 F60.00
G01 Z-2.4000
G01 F120.00
G01 X7.5827 Y36.8870
G01 X7.5827 Y36.8870
G01 X7.5827 Y36.8870
G01 X7.5827 Y36.8870
G00 Z2.0000
G00 X7.5827 Y39.4270
G01 F60.00
G01 Z-0.8000
G01 F120.00
G01 X7.5827 Y39.4270
G01 X7.5827 Y39.4270
G01 X7.5827 Y39.4270
G01 X7.5827 Y39.4270
G00 X7.5827 Y39.4270
G01 F60.00
G01 Z-1.6000
G01 F120.00
G01 X7.5827 Y39.4270
G01 X7.5827 Y39.4270
G01 X7.5827 Y39.4270
G01 X7.5827 Y39.4270
G00 X7.5827 Y39.4270
G01 F60.00
G01 Z-2.4000
G01 F120.00
G01 X7.5827 Y39.4270
G01 X7.5827 Y39.4270
G01 X7.5827 Y39.4270
G01 X7.5827 Y39.4270
G00 Z2.0000
G00 X7.5827 Y41.9670
G01 F60.00
G01 Z-0.8000
G01 F120.00
G01 X7.5827 Y41.9670
G01 X7.5827 Y41.9670
G01 X7.5827 Y41.9670
G01 X7.5827 Y41.9670
G00 X7.5827 Y41.9670
G01 F60.00
G01 Z-1.6000
G01 F120.00
G01 X7.5827 Y41.9670
G01 X7.5827 Y41.9670
G01 X7.5827 Y41.9670
G01 X7.5827 Y41.9670
G00 X7.5827 Y41.9670
G01 F60.00
G01 Z-2.4000
G01 F120.00
G01 X7.5827 Y41.9670
G01 X7.5827 Y41.9670
G01 X7.5827 Y41.9670
G01 X7.5827 Y41.9670
G00 Z2.0000
G00 X7.5827 Y44.5070
G01 F60.00
G01 Z-0.8000
G01 F120.00
G01 X7.5827 Y44.5070
G01 X7.5827 Y44.5070
G01 X7.5827 Y44.5070
G01 X7.5827 Y44.5070
G00 X7.5827 Y44.5070
G01 F60.00
G01 Z-1.6000
G01 F120.00
G01 X7.5827 Y44.5070
G01 X7.5827 Y44.5070
G01 X7.5827 Y44.5070
G01 X7.5827 Y44.5070
G00 X7.5827 Y44.5070
G01 F60.00
G01 Z-2.4000
G01 F120.00
G01 X7.5827 Y44.5070
G01 X7.5827 Y44.5070
G01 X7.5827 Y44.5070
G01 X7.5827 Y44.5070
G00 Z2.0000
G00 X7.5827 Y47.0470
G01 F60.00
G01 Z-0.8000
G01 F120.00
G01 X7.5827 Y47.0470
G01 X7.5827 Y47.0470
G01 X7.5827 Y47.0470
G01 X7.5827 Y47.0470
G00 X7.5827 Y47.0470
G01 F60.00
G01 Z-1.6000
G01 F120.00
G01 X7.5827 Y47.0470
G01 X7.5827 Y47.0470
G01 X7.5827 Y47.0470
G01 X7.5827 Y47.0470
G00 X7.5827 Y47.0470
G01 F60.00
G01 Z-2.4000
G01 F120.00
G01 X7.5827 Y47.0470
G01 X7.5827 Y47.0470
G01 X7.5827 Y47.0470
G01 X7.5827 Y47.0470
G00 Z2.0000
G00 X7.5827 Y49.5870
G01 F60.00
G01 Z-0.8000
G01 F120.00
G01 X7.5827 Y49.5870
G01 X7.5827 Y49.5870
G01 X7.5827 Y49.5870
G01 X7.5827 Y49.5870
G00 X7.5827 Y49.5870
G01 F60.00
G01 Z-1.6000
G01 F120.00
G01 X7.5827 Y49.5870
G01 X7.5827 Y49.5870
G01 X7.5827 Y49.5870
G01 X7.5827 Y49.5870
G00 X7.5827 Y49.5870
G01 F60.00
G01 Z-2.4000
G01 F120.00
G01 X7.5827 Y49.5870
G01 X7.5827 Y49.5870
G01 X7.5827 Y49.5870
G01 X7.5827 Y49.5870
G00 Z2.0000
G00 X33.1167 Y48.0000
G01 F60.00
G01 Z-0.8000
G01 F120.00
G01 X33.1167 Y48.0000
G01 X33.1167 Y48.0000
G01 X33.1167 Y48.0000
G01 X33.1167 Y48.0000
G00 X33.1167 Y48.0000
G01 F60.00
G01 Z-1.6000
G01 F120.00
G01 X33.1167 Y48.0000
G01 X33.1167 Y48.0000
G01 X33.1167 Y48.0000
G01 X33.1167 Y48.0000
G00 X33.1167 Y48.0000
G01 F60.00
G01 Z-2.4000
G01 F120.00
G01 X33.1167 Y48.0000
G01 X33.1167 Y48.0000
G01 X33.1167 Y48.0000
G01 X33.1167 Y48.0000
G00 Z2.0000
G00 X35.6567 Y48.0000
G01 F60.00
G01 Z-0.8000
G01 F120.00
G01 X35.6567 Y48.0000
G01 X35.6567 Y48.0000
G01 X35.6567 Y48.0000
G01 X35.6567 Y48.0000
G00 X35.6567 Y48.0000
G01 F60.00
G01 Z-1.6000
G01 F120.00
G01 X35.6567 Y48.0000
G01 X35.6567 Y48.0000
G01 X35.6567 Y48.0000
G01 X35.6567 Y48.0000
G00 X35.6567 Y48.0000
G01 F60.00
G01 Z-2.4000
G01 F120.00
G01 X35.6567 Y48.0000
G01 X35.6567 Y48.0000
G01 X35.6567 Y48.0000
G01 X35.6567 Y48.0000
G00 Z2.0000
G00 X38.1967 Y48.0000
G01 F60.00
G01 Z-0.8000
G01 F120.00
G01 X38.1967 Y48.0000
G01 X38.1967 Y48.0000
G01 X38.1967 Y48.0000
G01 X38.1967 Y48.0000
G00 X38.1967 Y48.0000
G01 F60.00
G01 Z-1.6000
G01 F120.00
G01 X38.1967 Y48.0000
G01 X38.1967 Y48.0000
G01 X38.1967 Y48.0000
G01 X38.1967 Y48.0000
G00 X38.1967 Y48.0000
G01 F60.00
G01 Z-2.4000
G01 F120.00
G01 X38.1967 Y48.0000
G01 X38.1967 Y48.0000
G01 X38.1967 Y48.0000
G01 X38.1967 Y48.0000
G00 Z2.0000
G00 X40.7367 Y48.0000
G01 F60.00
G01 Z-0.8000
G01 F120.00
G01 X40.7367 Y48.0000
G01 X40.7367 Y48.0000
G01 X40.7367 Y48.0000
G01 X40.7367 Y48.0000
G00 X40.7367 Y48.0000
G01 F60.00
G01 Z-1.6000
G01 F120.00
G01 X40.7367 Y48.0000
G01 X40.7367 Y48.0000
G01 X40.7367 Y48.0000
G01 X40.7367 Y48.0000
G00 X40.7367 Y48.0000
G01 F60.00
G01 Z-2.4000
G01 F120.00
G01 X40.7367 Y48.0000
G01 X40.7367 Y48.0000
G01 X40.7367 Y48.0000
G01 X40.7367 Y48.0000
G00 Z2.0000
G00 X43.2767 Y48.0000
G01 F60.00
G01 Z-0.8000
G01 F120.00
G01 X43.2767 Y48.0000
G01 X43.2767 Y48.0000
G01 X43.2767 Y48.0000
G01 X43.2767 Y48.0000
G00 X43.2767 Y48.0000
G01 F60.00
G01 Z-1.6000
G01 F120.00
G01 X43.2767 Y48.0000
G01 X43.2767 Y48.0000
G01 X43.2767 Y48.0000
G01 X43.2767 Y48.0000
G00 X43.2767 Y48.0000
G01 F60.00
G01 Z-2.4000
G01 F120.00
G01 X43.2767 Y48.0000
G01 X43.2767 Y48.0000
G01 X43.2767 Y48.0000
G01 X43.2767 Y48.0000
G00 Z2.0000
G00 X45.8167 Y48.0000
G01 F60.00
G01 Z-0.8000
G01 F120.00
G01 X45.8167 Y48.0000
G01 X45.8167 Y48.0000
G01 X45.8167 Y48.0000
G01 X45.8167 Y48.0000
G00 X45.8167 Y48.0000
G01 F60.00
G01 Z-1.6000
G01 F120.00
G01 X45.8167 Y48.0000
G01 X45.8167 Y48.0000
G01 X45.8167 Y48.0000
G01 X45.8167 Y48.0000
G00 X45.8167 Y48.0000
G01 F60.00
G01 Z-2.4000
G01 F120.00
G01 X45.8167 Y48.0000
G01 X45.8167 Y48.0000
G01 X45.8167 Y48.0000
G01 X45.8167 Y48.0000
G00 Z2.0000
G00 X48.3567 Y48.0000
G01 F60.00
G01 Z-0.8000
G01 F120.00
G01 X48.3567 Y48.0000
G01 X48.3567 Y48.0000
G01 X48.3567 Y48.0000
G01 X48.3567 Y48.0000
G00 X48.3567 Y48.0000
G01 F60.00
G01 Z-1.6000
G01 F120.00
G01 X48.3567 Y48.0000
G01 X48.3567 Y48.0000
G01 X48.3567 Y48.0000
G01 X48.3567 Y48.0000
G00 X48.3567 Y48.0000
G01 F60.00
G01 Z-2.4000
G01 F120.00
G01 X48.3567 Y48.0000
G01 X48.3567 Y48.0000
G01 X48.3567 Y48.0000
G01 X48.3567 Y48.0000
G00 Z2.0000
G00 X50.8967 Y48.0000
G01 F60.00
G01 Z-0.8000
G01 F120.00
G01 X50.8967 Y48.0000
G01 X50.8967 Y48.0000
G01 X50.8967 Y48.0000
G01 X50.8967 Y48.0000
G00 X50.8967 Y48.0000
G01 F60.00
G01 Z-1.6000
G01 F120.00
G01 X50.8967 Y48.0000
G01 X50.8967 Y48.0000
G01 X50.8967 Y48.0000
G01 X50.8967 Y48.0000
G00 X50.8967 Y48.0000
G01 F60.00
G01 Z-2.4000
G01 F120.00
G01 X50.8967 Y48.0000
G01 X50.8967 Y48.0000
G01 X50.8967 Y48.0000
G01 X50.8967 Y48.0000
G00 Z2.0000
G00 X53.4367 Y48.0000
G01 F60.00
G01 Z-0.8000
G01 F120.00
G01 X53.4367 Y48.0000
G01 X53.4367 Y48.0000
G01 X53.4367 Y48.0000
G01 X53.4367 Y48.0000
G00 X53.4367 Y48.0000
G01 F60.00
G01 Z-1.6000
G01 F120.00
G01 X53.4367 Y48.0000
G01 X53.4367 Y48.0000
G01 X53.4367 Y48.0000
G01 X53.4367 Y48.0000
G00 X53.4367 Y48.0000
G01 F60.00
G01 Z-2.4000
G01 F120.00
G01 X53.4367 Y48.0000
G01 X53.4367 Y48.0000
G01 X53.4367 Y48.0000
G01 X53.4367 Y48.0000
G00 Z2.0000
G00 X55.9767 Y48.0000
G01 F60.00
G01 Z-0.8000
G01 F120.00
G01 X55.9767 Y48.0000
G01 X55.9767 Y48.0000
G01 X55.9767 Y48.0000
G01 X55.9767 Y48.0000
G00 X55.9767 Y48.0000
G01 F60.00
G01 Z-1.6000
G01 F120.00
G01 X55.9767 Y48.0000
G01 X55.9767 Y48.0000
G01 X55.9767 Y48.0000
G01 X55.9767 Y48.0000
G00 X55.9767 Y48.0000
G01 F60.00
G01 Z-2.4000
G01 F120.00
G01 X55.9767 Y48.0000
G01 X55.9767 Y48.0000
G01 X55.9767 Y48.0000
G01 X55.9767 Y48.0000
G00 Z2.0000
G00 X58.5167 Y48.0000
G01 F60.00
G01 Z-0.8000
G01 F120.00
G01 X58.5167 Y48.0000
G01 X58.5167 Y48.0000
G01 X58.5167 Y48.0000
G01 X58.5167 Y48.0000
G00 X58.5167 Y48.0000
G01 F60.00
G01 Z-1.6000
G01 F120.00
G01 X58.5167 Y48.0000
G01 X58.5167 Y48.0000
G01 X58.5167 Y48.0000
G01 X58.5167 Y48.0000
G00 X58.5167 Y48.0000
G01 F60.00
G01 Z-2.4000
G01 F120.00
G01 X58.5167 Y48.0000
G01 X58.5167 Y48.0000
G01 X58.5167 Y48.0000
G01 X58.5167 Y48.0000
G00 Z2.0000
G00 X61.0567 Y48.0000
G01 F60.00
G01 Z-0.8000
G01 F120.00
G01 X61.0567 Y48.0000
G01 X61.0567 Y48.0000
G01 X61.0567 Y48.0000
G01 X61.0567 Y48.0000
G00 X61.0567 Y48.0000
G01 F60.00
G01 Z-1.6000
G01 F120.00
G01 X61.0567 Y48.0000
G01 X61.0567 Y48.0000
G01 X61.0567 Y48.0000
G01 X61.0567 Y48.0000
G00 X61.0567 Y48.0000
G01 F60.00
G01 Z-2.4000
G01 F120.00
G01 X61.0567 Y48.0000
G01 X61.0567 Y48.0000
G01 X61.0567 Y48.0000
G01 X61.0567 Y48.0000
G00 Z2.0000
G00 X63.5967 Y48.0000
G01 F60.00
G01 Z-0.8000
G01 F120.00
G01 X63.5967 Y48.0000
G01 X63.5967 Y48.0000
G01 X63.5967 Y48.0000
G01 X63.5967 Y48.0000
G00 X63.5967 Y48.0000
G01 F60.00
G01 Z-1.6000
G01 F120.00
G01 X63.5967 Y48.0000
G01 X63.5967 Y48.0000
G01 X63.5967 Y48.0000
G01 X63.5967 Y48.0000
G00 X63.5967 Y48.0000
G01 F60.00
G01 Z-2.4000
G01 F120.00
G01 X63.5967 Y48.0000
G01 X63.5967 Y48.0000
G01 X63.5967 Y48.0000
G01 X63.5967 Y48.0000
G00 Z2.0000
G00 X66.1367 Y48.0000
G01 F60.00
G01 Z-0.8000
G01 F120.00
G01 X66.1367 Y48.0000
G01 X66.1367 Y48.0000
G01 X66.1367 Y48.0000
G01 X66.1367 Y48.0000
G00 X66.1367 Y48.0000
G01 F60.00
G01 Z-1.6000
G01 F120.00
G01 X66.1367 Y48.0000
G01 X66.1367 Y48.0000
G01 X66.1367 Y48.0000
G01 X66.1367 Y48.0000
G00 X66.1367 Y48.0000
G01 F60.00
G01 Z-2.4000
G01 F120.00
G01 X66.1367 Y48.0000
G01 X66.1367 Y48.0000
G01 X66.1367 Y48.0000
G01 X66.1367 Y48.0000
G00 Z2.0000
G00 X66.1367 Y40.0000
G01 F60.00
G01 Z-0.8000
G01 F120.00
G01 X66.1367 Y40.0000
G01 X66.1367 Y40.0000
G01 X66.1367 Y40.0000
G01 X66.1367 Y40.0000
G00 X66.1367 Y40.0000
G01 F60.00
G01 Z-1.6000
G01 F120.00
G01 X66.1367 Y40.0000
G01 X66.1367 Y40.0000
G01 X66.1367 Y40.0000
G01 X66.1367 Y40.0000
G00 X66.1367 Y40.0000
G01 F60.00
G01 Z-2.4000
G01 F120.00
G01 X66.1367 Y40.0000
G01 X66.1367 Y40.0000
G01 X66.1367 Y40.0000
G01 X66.1367 Y40.0000
G00 Z2.0000
G00 X63.5967 Y40.0000
G01 F60.00
G01 Z-0.8000
G01 F120.00
G01 X63.5967 Y40.0000
G01 X63.5967 Y40.0000
G01 X63.5967 Y40.0000
G01 X63.5967 Y40.0000
G00 X63.5967 Y40.0000
G01 F60.00
G01 Z-1.6000
G01 F120.00
G01 X63.5967 Y40.0000
G01 X63.5967 Y40.0000
G01 X63.5967 Y40.0000
G01 X63.5967 Y40.0000
G00 X63.5967 Y40.0000
G01 F60.00
G01 Z-2.4000
G01 F120.00
G01 X63.5967 Y40.0000
G01 X63.5967 Y40.0000
G01 X63.5967 Y40.0000
G01 X63.5967 Y40.0000
G00 Z2.0000
G00 X61.0567 Y40.0000
G01 F60.00
G01 Z-0.8000
G01 F120.00
G01 X61.0567 Y40.0000
G01 X61.0567 Y40.0000
G01 X61.0567 Y40.0000
G01 X61.0567 Y40.0000
G00 X61.0567 Y40.0000
G01 F60.00
G01 Z-1.6000
G01 F120.00
G01 X61.0567 Y40.0000
G01 X61.0567 Y40.0000
G01 X61.0567 Y40.0000
G01 X61.0567 Y40.0000
G00 X61.0567 Y40.0000
G01 F60.00
G01 Z-2.4000
G01 F120.00
G01 X61.0567 Y40.0000
G01 X61.0567 Y40.0000
G01 X61.0567 Y40.0000
G01 X61.0567 Y40.0000
G00 Z2.0000
G00 X58.5167 Y40.0000
G01 F60.00
G01 Z-0.8000
G01 F120.00
G01 X58.5167 Y40.0000
G01 X58.5167 Y40.0000
G01 X58.5167 Y40.0000
G01 X58.5167 Y40.0000
G00 X58.5167 Y40.0000
G01 F60.00
G01 Z-1.6000
G01 F120.00
G01 X58.5167 Y40.0000
G01 X58.5167 Y40.0000
G01 X58.5167 Y40.0000
G01 X58.5167 Y40.0000
G00 X58.5167 Y40.0000
G01 F60.00
G01 Z-2.4000
G01 F120.00
G01 X58.5167 Y40.0000
G01 X58.5167 Y40.0000
G01 X58.5167 Y40.0000
G01 X58.5167 Y40.0000
G00 Z2.0000
G00 X55.9767 Y40.0000
G01 F60.00
G01 Z-0.8000
G01 F120.00
G01 X55.9767 Y40.0000
G01 X55.9767 Y40.0000
G01 X55.9767 Y40.0000
G01 X55.9767 Y40.0000
G00 X55.9767 Y40.0000
G01 F60.00
G01 Z-1.6000
G01 F120.00
G01 X55.9767 Y40.0000
G01 X55.9767 Y40.0000
G01 X55.9767 Y40.0000
G01 X55.9767 Y40.0000
G00 X55.9767 Y40.0000
G01 F60.00
G01 Z-2.4000
G01 F120.00
G01 X55.9767 Y40.0000
G01 X55.9767 Y40.0000
G01 X55.9767 Y40.0000
G01 X55.9767 Y40.0000
G00 Z2.0000
G00 X53.4367 Y40.0000
G01 F60.00
G01 Z-0.8000
G01 F120.00
G01 X53.4367 Y40.0000
G01 X53.4367 Y40.0000
G01 X53.4367 Y40.0000
G01 X53.4367 Y40.0000
G00 X53.4367 Y40.0000
G01 F60.00
G01 Z-1.6000
G01 F120.00
G01 X53.4367 Y40.0000
G01 X53.4367 Y40.0000
G01 X53.4367 Y40.0000
G01 X53.4367 Y40.0000
G00 X53.4367 Y40.0000
G01 F60.00
G01 Z-2.4000
G01 F120.00
G01 X53.4367 Y40.0000
G01 X53.4367 Y40.0000
G01 X53.4367 Y40.0000
G01 X53.4367 Y40.0000
G00 Z2.0000
G00 X50.8967 Y40.0000
G01 F60.00
G01 Z-0.8000
G01 F120.00
G01 X50.8967 Y40.0000
G01 X50.8967 Y40.0000
G01 X50.8967 Y40.0000
G01 X50.8967 Y40.0000
G00 X50.8967 Y40.0000
G01 F60.00
G01 Z-1.6000
G01 F120.00
G01 X50.8967 Y40.0000
G01 X50.8967 Y40.0000
G01 X50.8967 Y40.0000
G01 X50.8967 Y40.0000
G00 X50.8967 Y40.0000
G01 F60.00
G01 Z-2.4000
G01 F120.00
G01 X50.8967 Y40.0000
G01 X50.8967 Y40.0000
G01 X50.8967 Y40.0000
G01 X50.8967 Y40.0000
G00 Z2.0000
G00 X48.3567 Y40.0000
G01 F60.00
G01 Z-0.8000
G01 F120.00
G01 X48.3567 Y40.0000
G01 X48.3567 Y40.0000
G01 X48.3567 Y40.0000
G01 X48.3567 Y40.0000
G00 X48.3567 Y40.0000
G01 F60.00
G01 Z-1.6000
G01 F120.00
G01 X48.3567 Y40.0000
G01 X48.3567 Y40.0000
G01 X48.3567 Y40.0000
G01 X48.3567 Y40.0000
G00 X48.3567 Y40.0000
G01 F60.00
G01 Z-2.4000
G01 F120.00
G01 X48.3567 Y40.0000
G01 X48.3567 Y40.0000
G01 X48.3567 Y40.0000
G01 X48.3567 Y40.0000
G00 Z2.0000
G00 X45.8167 Y40.0000
G01 F60.00
G01 Z-0.8000
G01 F120.00
G01 X45.8167 Y40.0000
G01 X45.8167 Y40.0000
G01 X45.8167 Y40.0000
G01 X45.8167 Y40.0000
G00 X45.8167 Y40.0000
G01 F60.00
G01 Z-1.6000
G01 F120.00
G01 X45.8167 Y40.0000
G01 X45.8167 Y40.0000
G01 X45.8167 Y40.0000
G01 X45.8167 Y40.0000
G00 X45.8167 Y40.0000
G01 F60.00
G01 Z-2.4000
G01 F120.00
G01 X45.8167 Y40.0000
G01 X45.8167 Y40.0000
G01 X45.8167 Y40.0000
G01 X45.8167 Y40.0000
G00 Z2.0000
G00 X43.2767 Y40.0000
G01 F60.00
G01 Z-0.8000
G01 F120.00
G01 X43.2767 Y40.0000
G01 X43.2767 Y40.0000
G01 X43.2767 Y40.0000
G01 X43.2767 Y40.0000
G00 X43.2767 Y40.0000
G01 F60.00
G01 Z-1.6000
G01 F120.00
G01 X43.2767 Y40.0000
G01 X43.2767 Y40.0000
G01 X43.2767 Y40.0000
G01 X43.2767 Y40.0000
G00 X43.2767 Y40.0000
G01 F60.00
G01 Z-2.4000
G01 F120.00
G01 X43.2767 Y40.0000
G01 X43.2767 Y40.0000
G01 X43.2767 Y40.0000
G01 X43.2767 Y40.0000
G00 Z2.0000
G00 X40.7367 Y40.0000
G01 F60.00
G01 Z-0.8000
G01 F120.00
G01 X40.7367 Y40.0000
G01 X40.7367 Y40.0000
G01 X40.7367 Y40.0000
G01 X40.7367 Y40.0000
G00 X40.7367 Y40.0000
G01 F60.00
G01 Z-1.6000
G01 F120.00
G01 X40.7367 Y40.0000
G01 X40.7367 Y40.0000
G01 X40.7367 Y40.0000
G01 X40.7367 Y40.0000
G00 X40.7367 Y40.0000
G01 F60.00
G01 Z-2.4000
G01 F120.00
G01 X40.7367 Y40.0000
G01 X40.7367 Y40.0000
G01 X40.7367 Y40.0000
G01 X40.7367 Y40.0000
G00 Z2.0000
G00 X38.1967 Y40.0000
G01 F60.00
G01 Z-0.8000
G01 F120.00
G01 X38.1967 Y40.0000
G01 X38.1967 Y40.0000
G01 X38.1967 Y40.0000
G01 X38.1967 Y40.0000
G00 X38.1967 Y40.0000
G01 F60.00
G01 Z-1.6000
G01 F120.00
G01 X38.1967 Y40.0000
G01 X38.1967 Y40.0000
G01 X38.1967 Y40.0000
G01 X38.1967 Y40.0000
G00 X38.1967 Y40.0000
G01 F60.00
G01 Z-2.4000
G01 F120.00
G01 X38.1967 Y40.0000
G01 X38.1967 Y40.0000
G01 X38.1967 Y40.0000
G01 X38.1967 Y40.0000
G00 Z2.0000
G00 X35.6567 Y40.0000
G01 F60.00
G01 Z-0.8000
G01 F120.00
G01 X35.6567 Y40.0000
G01 X35.6567 Y40.0000
G01 X35.6567 Y40.0000
G01 X35.6567 Y40.0000
G00 X35.6567 Y40.0000
G01 F60.00
G01 Z-1.6000
G01 F120.00
G01 X35.6567 Y40.0000
G01 X35.6567 Y40.0000
G01 X35.6567 Y40.0000
G01 X35.6567 Y40.0000
G00 X35.6567 Y40.0000
G01 F60.00
G01 Z-2.4000
G01 F120.00
G01 X35.6567 Y40.0000
G01 X35.6567 Y40.0000
G01 X35.6567 Y40.0000
G01 X35.6567 Y40.0000
G00 Z2.0000
G00 X33.1167 Y40.0000
G01 F60.00
G01 Z-0.8000
G01 F120.00
G01 X33.1167 Y40.0000
G01 X33.1167 Y40.0000
G01 X33.1167 Y40.0000
G01 X33.1167 Y40.0000
G00 X33.1167 Y40.0000
G01 F60.00
G01 Z-1.6000
G01 F120.00
G01 X33.1167 Y40.0000
G01 X33.1167 Y40.0000
G01 X33.1167 Y40.0000
G01 X33.1167 Y40.0000
G00 X33.1167 Y40.0000
G01 F60.00
G01 Z-2.4000
G01 F120.00
G01 X33.1167 Y40.0000
G01 X33.1167 Y40.0000
G01 X33.1167 Y40.0000
G01 X33.1167 Y40.0000
G00 Z2.0000
M05
G00 Z2.0000
G00 Z15.00


