(G-CODE GENERATED BY FLATCAM v8.994 - www.flatcam.org - Version Date: 2020/11/7)

(Name: Gerber_BoardOutlineLayer.GKO_cutout_cnc)
(Type: G-code from Geometry)
(Units: MM)

(Created on Thursday, 29 August 2024 at 13:00)

(This preprocessor is the default preprocessor used by FlatCAM.)
(It is made to work with MACH3 compatible motion controllers.)

(TOOL DIAMETER: 1.6 mm)
(Feedrate_XY: 60.0 mm/min)
(Feedrate_Z: 60.0 mm/min)
(Feedrate rapids 1500.0 mm/min)

(Z_Cut: -2.4 mm)
(DepthPerCut: 0.6 mm <=>4 passes)
(Z_Move: 2.0 mm)
(Z Start: None mm)
(Z End: 15.0 mm)
(X,Y End: None mm)
(Steps per circle: 64)
(Preprocessor Geometry: default)

(X range:   -1.0271 ...  101.0269  mm)
(Y range:   -1.0271 ...   66.0269  mm)

(Spindle Speed: 0.0 RPM)
G21
G90
G94

G01 F60.00

M5
G00 Z15.0000
G00 X0.0000 Y0.0000
T1
M6    
(MSG, Change to Tool Dia = 1.6000)
M0
G00 Z15.0000

M03
G01 F60.00
G00 X-1.0271 Y29.7999
G01 F60.00
G01 Z-0.6000
G01 F60.00
G01 X-1.0271 Y-0.1271
G01 X-1.0227 Y-0.2153
G01 X-1.0098 Y-0.3026
G01 X-0.9883 Y-0.3883
G01 X-0.9586 Y-0.4715
G01 X-0.9208 Y-0.5513
G01 X-0.8754 Y-0.6271
G01 X-0.8228 Y-0.6980
G01 X-0.7635 Y-0.7635
G01 X-0.6980 Y-0.8228
G01 X-0.6271 Y-0.8754
G01 X-0.5513 Y-0.9208
G01 X-0.4715 Y-0.9586
G01 X-0.3883 Y-0.9883
G01 X-0.3026 Y-1.0098
G01 X-0.2153 Y-1.0227
G01 X-0.1271 Y-1.0271
G01 X47.2999 Y-1.0271
G00 X47.2999 Y-1.0271
G01 F60.00
G01 Z-1.2000
G01 F60.00
G01 X-0.1271 Y-1.0271
G01 X-0.2153 Y-1.0227
G01 X-0.3026 Y-1.0098
G01 X-0.3883 Y-0.9883
G01 X-0.4715 Y-0.9586
G01 X-0.5513 Y-0.9208
G01 X-0.6271 Y-0.8754
G01 X-0.6980 Y-0.8228
G01 X-0.7635 Y-0.7635
G01 X-0.8228 Y-0.6980
G01 X-0.8754 Y-0.6271
G01 X-0.9208 Y-0.5513
G01 X-0.9586 Y-0.4715
G01 X-0.9883 Y-0.3883
G01 X-1.0098 Y-0.3026
G01 X-1.0227 Y-0.2153
G01 X-1.0271 Y-0.1271
G01 X-1.0271 Y29.7999
G00 X-1.0271 Y29.7999
G01 F60.00
G01 Z-1.8000
G01 F60.00
G01 X-1.0271 Y-0.1271
G01 X-1.0227 Y-0.2153
G01 X-1.0098 Y-0.3026
G01 X-0.9883 Y-0.3883
G01 X-0.9586 Y-0.4715
G01 X-0.9208 Y-0.5513
G01 X-0.8754 Y-0.6271
G01 X-0.8228 Y-0.6980
G01 X-0.7635 Y-0.7635
G01 X-0.6980 Y-0.8228
G01 X-0.6271 Y-0.8754
G01 X-0.5513 Y-0.9208
G01 X-0.4715 Y-0.9586
G01 X-0.3883 Y-0.9883
G01 X-0.3026 Y-1.0098
G01 X-0.2153 Y-1.0227
G01 X-0.1271 Y-1.0271
G01 X47.2999 Y-1.0271
G00 X47.2999 Y-1.0271
G01 F60.00
G01 Z-2.4000
G01 F60.00
G01 X-0.1271 Y-1.0271
G01 X-0.2153 Y-1.0227
G01 X-0.3026 Y-1.0098
G01 X-0.3883 Y-0.9883
G01 X-0.4715 Y-0.9586
G01 X-0.5513 Y-0.9208
G01 X-0.6271 Y-0.8754
G01 X-0.6980 Y-0.8228
G01 X-0.7635 Y-0.7635
G01 X-0.8228 Y-0.6980
G01 X-0.8754 Y-0.6271
G01 X-0.9208 Y-0.5513
G01 X-0.9586 Y-0.4715
G01 X-0.9883 Y-0.3883
G01 X-1.0098 Y-0.3026
G01 X-1.0227 Y-0.2153
G01 X-1.0271 Y-0.1271
G01 X-1.0271 Y29.7999
G00 Z2.0000
G00 X-1.0271 Y35.3999
G01 F60.00
G01 Z-0.6000
G01 F60.00
G01 X-1.0271 Y65.1269
G01 X-1.0227 Y65.2151
G01 X-1.0098 Y65.3025
G01 X-0.9883 Y65.3882
G01 X-0.9586 Y65.4713
G01 X-0.9208 Y65.5512
G01 X-0.8754 Y65.6269
G01 X-0.8228 Y65.6979
G01 X-0.7635 Y65.7633
G01 X-0.6980 Y65.8226
G01 X-0.6271 Y65.8753
G01 X-0.5513 Y65.9207
G01 X-0.4715 Y65.9584
G01 X-0.3883 Y65.9882
G01 X-0.3026 Y66.0096
G01 X-0.2153 Y66.0226
G01 X-0.1271 Y66.0269
G01 X47.2999 Y66.0269
G00 X47.2999 Y66.0269
G01 F60.00
G01 Z-1.2000
G01 F60.00
G01 X-0.1271 Y66.0269
G01 X-0.2153 Y66.0226
G01 X-0.3026 Y66.0096
G01 X-0.3883 Y65.9882
G01 X-0.4715 Y65.9584
G01 X-0.5513 Y65.9207
G01 X-0.6271 Y65.8753
G01 X-0.6980 Y65.8226
G01 X-0.7635 Y65.7633
G01 X-0.8228 Y65.6979
G01 X-0.8754 Y65.6269
G01 X-0.9208 Y65.5512
G01 X-0.9586 Y65.4713
G01 X-0.9883 Y65.3882
G01 X-1.0098 Y65.3025
G01 X-1.0227 Y65.2151
G01 X-1.0271 Y65.1269
G01 X-1.0271 Y35.3999
G00 X-1.0271 Y35.3999
G01 F60.00
G01 Z-1.8000
G01 F60.00
G01 X-1.0271 Y65.1269
G01 X-1.0227 Y65.2151
G01 X-1.0098 Y65.3025
G01 X-0.9883 Y65.3882
G01 X-0.9586 Y65.4713
G01 X-0.9208 Y65.5512
G01 X-0.8754 Y65.6269
G01 X-0.8228 Y65.6979
G01 X-0.7635 Y65.7633
G01 X-0.6980 Y65.8226
G01 X-0.6271 Y65.8753
G01 X-0.5513 Y65.9207
G01 X-0.4715 Y65.9584
G01 X-0.3883 Y65.9882
G01 X-0.3026 Y66.0096
G01 X-0.2153 Y66.0226
G01 X-0.1271 Y66.0269
G01 X47.2999 Y66.0269
G00 X47.2999 Y66.0269
G01 F60.00
G01 Z-2.4000
G01 F60.00
G01 X-0.1271 Y66.0269
G01 X-0.2153 Y66.0226
G01 X-0.3026 Y66.0096
G01 X-0.3883 Y65.9882
G01 X-0.4715 Y65.9584
G01 X-0.5513 Y65.9207
G01 X-0.6271 Y65.8753
G01 X-0.6980 Y65.8226
G01 X-0.7635 Y65.7633
G01 X-0.8228 Y65.6979
G01 X-0.8754 Y65.6269
G01 X-0.9208 Y65.5512
G01 X-0.9586 Y65.4713
G01 X-0.9883 Y65.3882
G01 X-1.0098 Y65.3025
G01 X-1.0227 Y65.2151
G01 X-1.0271 Y65.1269
G01 X-1.0271 Y35.3999
G00 Z2.0000
G00 X52.8999 Y66.0269
G01 F60.00
G01 Z-0.6000
G01 F60.00
G01 X100.1269 Y66.0269
G01 X100.2151 Y66.0226
G01 X100.3025 Y66.0096
G01 X100.3882 Y65.9882
G01 X100.4713 Y65.9584
G01 X100.5512 Y65.9207
G01 X100.6269 Y65.8753
G01 X100.6979 Y65.8226
G01 X100.7633 Y65.7633
G01 X100.8226 Y65.6979
G01 X100.8752 Y65.6269
G01 X100.9206 Y65.5512
G01 X100.9584 Y65.4713
G01 X100.9882 Y65.3882
G01 X101.0096 Y65.3025
G01 X101.0226 Y65.2151
G01 X101.0269 Y65.1269
G01 X101.0269 Y35.3999
G00 X101.0269 Y35.3999
G01 F60.00
G01 Z-1.2000
G01 F60.00
G01 X101.0269 Y65.1269
G01 X101.0226 Y65.2151
G01 X101.0096 Y65.3025
G01 X100.9882 Y65.3882
G01 X100.9584 Y65.4713
G01 X100.9206 Y65.5512
G01 X100.8752 Y65.6269
G01 X100.8226 Y65.6979
G01 X100.7633 Y65.7633
G01 X100.6979 Y65.8226
G01 X100.6269 Y65.8753
G01 X100.5512 Y65.9207
G01 X100.4713 Y65.9584
G01 X100.3882 Y65.9882
G01 X100.3025 Y66.0096
G01 X100.2151 Y66.0226
G01 X100.1269 Y66.0269
G01 X52.8999 Y66.0269
G00 X52.8999 Y66.0269
G01 F60.00
G01 Z-1.8000
G01 F60.00
G01 X100.1269 Y66.0269
G01 X100.2151 Y66.0226
G01 X100.3025 Y66.0096
G01 X100.3882 Y65.9882
G01 X100.4713 Y65.9584
G01 X100.5512 Y65.9207
G01 X100.6269 Y65.8753
G01 X100.6979 Y65.8226
G01 X100.7633 Y65.7633
G01 X100.8226 Y65.6979
G01 X100.8752 Y65.6269
G01 X100.9206 Y65.5512
G01 X100.9584 Y65.4713
G01 X100.9882 Y65.3882
G01 X101.0096 Y65.3025
G01 X101.0226 Y65.2151
G01 X101.0269 Y65.1269
G01 X101.0269 Y35.3999
G00 X101.0269 Y35.3999
G01 F60.00
G01 Z-2.4000
G01 F60.00
G01 X101.0269 Y65.1269
G01 X101.0226 Y65.2151
G01 X101.0096 Y65.3025
G01 X100.9882 Y65.3882
G01 X100.9584 Y65.4713
G01 X100.9206 Y65.5512
G01 X100.8752 Y65.6269
G01 X100.8226 Y65.6979
G01 X100.7633 Y65.7633
G01 X100.6979 Y65.8226
G01 X100.6269 Y65.8753
G01 X100.5512 Y65.9207
G01 X100.4713 Y65.9584
G01 X100.3882 Y65.9882
G01 X100.3025 Y66.0096
G01 X100.2151 Y66.0226
G01 X100.1269 Y66.0269
G01 X52.8999 Y66.0269
G00 Z2.0000
G00 X101.0269 Y29.7999
G01 F60.00
G01 Z-0.6000
G01 F60.00
G01 X101.0269 Y-0.1271
G01 X101.0226 Y-0.2153
G01 X101.0096 Y-0.3026
G01 X100.9882 Y-0.3883
G01 X100.9584 Y-0.4715
G01 X100.9206 Y-0.5513
G01 X100.8752 Y-0.6271
G01 X100.8226 Y-0.6980
G01 X100.7633 Y-0.7635
G01 X100.6979 Y-0.8228
G01 X100.6269 Y-0.8754
G01 X100.5512 Y-0.9208
G01 X100.4713 Y-0.9586
G01 X100.3882 Y-0.9883
G01 X100.3025 Y-1.0098
G01 X100.2151 Y-1.0227
G01 X100.1269 Y-1.0271
G01 X52.8999 Y-1.0271
G00 X52.8999 Y-1.0271
G01 F60.00
G01 Z-1.2000
G01 F60.00
G01 X100.1269 Y-1.0271
G01 X100.2151 Y-1.0227
G01 X100.3025 Y-1.0098
G01 X100.3882 Y-0.9883
G01 X100.4713 Y-0.9586
G01 X100.5512 Y-0.9208
G01 X100.6269 Y-0.8754
G01 X100.6979 Y-0.8228
G01 X100.7633 Y-0.7635
G01 X100.8226 Y-0.6980
G01 X100.8752 Y-0.6271
G01 X100.9206 Y-0.5513
G01 X100.9584 Y-0.4715
G01 X100.9882 Y-0.3883
G01 X101.0096 Y-0.3026
G01 X101.0226 Y-0.2153
G01 X101.0269 Y-0.1271
G01 X101.0269 Y29.7999
G00 X101.0269 Y29.7999
G01 F60.00
G01 Z-1.8000
G01 F60.00
G01 X101.0269 Y-0.1271
G01 X101.0226 Y-0.2153
G01 X101.0096 Y-0.3026
G01 X100.9882 Y-0.3883
G01 X100.9584 Y-0.4715
G01 X100.9206 Y-0.5513
G01 X100.8752 Y-0.6271
G01 X100.8226 Y-0.6980
G01 X100.7633 Y-0.7635
G01 X100.6979 Y-0.8228
G01 X100.6269 Y-0.8754
G01 X100.5512 Y-0.9208
G01 X100.4713 Y-0.9586
G01 X100.3882 Y-0.9883
G01 X100.3025 Y-1.0098
G01 X100.2151 Y-1.0227
G01 X100.1269 Y-1.0271
G01 X52.8999 Y-1.0271
G00 X52.8999 Y-1.0271
G01 F60.00
G01 Z-2.4000
G01 F60.00
G01 X100.1269 Y-1.0271
G01 X100.2151 Y-1.0227
G01 X100.3025 Y-1.0098
G01 X100.3882 Y-0.9883
G01 X100.4713 Y-0.9586
G01 X100.5512 Y-0.9208
G01 X100.6269 Y-0.8754
G01 X100.6979 Y-0.8228
G01 X100.7633 Y-0.7635
G01 X100.8226 Y-0.6980
G01 X100.8752 Y-0.6271
G01 X100.9206 Y-0.5513
G01 X100.9584 Y-0.4715
G01 X100.9882 Y-0.3883
G01 X101.0096 Y-0.3026
G01 X101.0226 Y-0.2153
G01 X101.0269 Y-0.1271
G01 X101.0269 Y29.7999
G00 Z2.0000
M05
G00 Z2.0000
G00 Z15.00


