(G-CODE GENERATED BY FLATCAM v8.994 - www.flatcam.org - Version Date: 2020/11/7)

(Name: Gerber_BottomLayer.GBL_iso_combined_cnc)
(Type: G-code from Geometry)
(Units: MM)

(Created on Thursday, 29 August 2024 at 13:02)

(This preprocessor is the default preprocessor used by FlatCAM.)
(It is made to work with MACH3 compatible motion controllers.)

(TOOL DIAMETER: 0.1 mm)
(Feedrate_XY: 120.0 mm/min)
(Feedrate_Z: 60.0 mm/min)
(Feedrate rapids 1500.0 mm/min)

(Z_Cut: 0.0 mm)
(Z_Move: 2.0 mm)
(Z Start: None mm)
(Z End: 15.0 mm)
(X,Y End: None mm)
(Steps per circle: 64)
(Preprocessor Geometry: default)

(X range:    6.2780 ...  101.3319  mm)
(Y range:    3.4060 ...   62.7050  mm)

(Spindle Speed: 0.0 RPM)
G21
G90
G94

G01 F120.00

M5
G00 Z15.0000
G00 X0.0000 Y0.0000
T1
M6    
(MSG, Change to Tool Dia = 0.1000)
M0
G00 Z15.0000

M03
G01 F120.00
G00 X15.6278 Y31.5352
G01 F60.00
G01 Z0.0000
G01 F120.00
G01 X15.5706 Y31.6305
G01 X15.5043 Y31.7200
G01 X15.4295 Y31.8025
G01 X15.3469 Y31.8773
G01 X15.2575 Y31.9436
G01 X15.1619 Y32.0009
G01 X15.0612 Y32.0485
G01 X14.9564 Y32.0861
G01 X14.8483 Y32.1131
G01 X14.7381 Y32.1295
G01 X14.6269 Y32.1349
G01 X14.5156 Y32.1295
G01 X14.4055 Y32.1131
G01 X14.2974 Y32.0861
G01 X14.1925 Y32.0485
G01 X14.0919 Y32.0009
G01 X13.9963 Y31.9436
G01 X13.9069 Y31.8773
G01 X13.8243 Y31.8025
G01 X13.7495 Y31.7200
G01 X13.6832 Y31.6305
G01 X13.6259 Y31.5350
G01 X13.5783 Y31.4343
G01 X13.5408 Y31.3294
G01 X13.5137 Y31.2214
G01 X13.4974 Y31.1112
G01 X13.4919 Y30.9999
G01 X13.4974 Y30.8887
G01 X13.5137 Y30.7785
G01 X13.5408 Y30.6705
G01 X13.5783 Y30.5656
G01 X13.6259 Y30.4649
G01 X13.6796 Y30.3750
G01 X13.6870 Y30.3639
G01 X13.7495 Y30.2799
G01 X13.8243 Y30.1974
G01 X13.9018 Y30.1269
G01 X13.9121 Y30.1185
G01 X13.9963 Y30.0562
G01 X14.0861 Y30.0022
G01 X14.0978 Y29.9960
G01 X14.1925 Y29.9513
G01 X14.2911 Y29.9159
G01 X14.3038 Y29.9120
G01 X14.4055 Y29.8867
G01 X14.5091 Y29.8712
G01 X14.5223 Y29.8699
G01 X14.6269 Y29.8649
G01 X14.7315 Y29.8699
G01 X14.7447 Y29.8712
G01 X14.8483 Y29.8867
G01 X14.9500 Y29.9120
G01 X14.9627 Y29.9159
G01 X15.0612 Y29.9513
G01 X15.1560 Y29.9960
G01 X15.1677 Y30.0022
G01 X15.2575 Y30.0562
G01 X15.3417 Y30.1185
G01 X15.3519 Y30.1269
G01 X15.4295 Y30.1974
G01 X15.4999 Y30.2749
G01 X15.5083 Y30.2851
G01 X15.5706 Y30.3694
G01 X15.6278 Y30.4648
G01 X31.6269 Y30.4648
G01 X31.6794 Y30.4673
G01 X31.7313 Y30.4750
G01 X31.7823 Y30.4878
G01 X31.8287 Y30.5043
G01 X31.8378 Y30.5082
G01 X31.8792 Y30.5280
G01 X31.9243 Y30.5550
G01 X31.9664 Y30.5862
G01 X32.0054 Y30.6215
G01 X38.5752 Y37.1915
G01 X38.6062 Y37.2254
G01 X38.6146 Y37.2356
G01 X38.6418 Y37.2726
G01 X38.6655 Y37.3118
G01 X38.6718 Y37.3235
G01 X38.6913 Y37.3651
G01 X38.7090 Y37.4145
G01 X38.7203 Y37.4590
G01 X38.7229 Y37.4720
G01 X38.7286 Y37.5109
G01 X38.7297 Y37.5207
G01 X38.7320 Y37.5699
G01 X38.7320 Y38.9990
G01 X38.8274 Y39.0562
G01 X38.9169 Y39.1226
G01 X38.9994 Y39.1974
G01 X39.0699 Y39.2749
G01 X39.0783 Y39.2851
G01 X39.1405 Y39.3693
G01 X39.1945 Y39.4591
G01 X39.2008 Y39.4708
G01 X39.2427 Y39.5595
G01 X39.2478 Y39.5718
G01 X39.2830 Y39.6704
G01 X39.3100 Y39.7785
G01 X39.3264 Y39.8887
G01 X39.3318 Y39.9999
G01 X39.3264 Y40.1112
G01 X39.3100 Y40.2213
G01 X39.2830 Y40.3294
G01 X39.2467 Y40.4312
G01 X39.2427 Y40.4403
G01 X39.1978 Y40.5350
G01 X39.1441 Y40.6249
G01 X39.1367 Y40.6359
G01 X39.0742 Y40.7200
G01 X39.0040 Y40.7977
G01 X38.9946 Y40.8071
G01 X38.9169 Y40.8773
G01 X38.8328 Y40.9398
G01 X38.8218 Y40.9472
G01 X38.7319 Y41.0009
G01 X38.6372 Y41.0458
G01 X38.6250 Y41.0509
G01 X38.5263 Y41.0860
G01 X38.4247 Y41.1117
G01 X38.4117 Y41.1142
G01 X38.3081 Y41.1295
G01 X38.2034 Y41.1348
G01 X38.1902 Y41.1348
G01 X38.0856 Y41.1295
G01 X37.9819 Y41.1142
G01 X37.9689 Y41.1117
G01 X37.8674 Y41.0860
G01 X37.7687 Y41.0509
G01 X37.7564 Y41.0458
G01 X37.6618 Y41.0009
G01 X37.5718 Y40.9472
G01 X37.5608 Y40.9398
G01 X37.4768 Y40.8773
G01 X37.3991 Y40.8071
G01 X37.3897 Y40.7977
G01 X37.3216 Y40.7225
G01 X37.3154 Y40.7147
G01 X37.2531 Y40.6305
G01 X37.1958 Y40.5350
G01 X37.1482 Y40.4343
G01 X37.1107 Y40.3294
G01 X37.0836 Y40.2213
G01 X37.0673 Y40.1112
G01 X37.0618 Y39.9999
G01 X37.0668 Y39.8953
G01 X37.0677 Y39.8854
G01 X37.0825 Y39.7850
G01 X37.0851 Y39.7720
G01 X37.1107 Y39.6704
G01 X37.1458 Y39.5718
G01 X37.1509 Y39.5595
G01 X37.1958 Y39.4649
G01 X37.2531 Y39.3693
G01 X37.3195 Y39.2799
G01 X37.3897 Y39.2022
G01 X37.3991 Y39.1928
G01 X37.4768 Y39.1226
G01 X37.5608 Y39.0600
G01 X37.5718 Y39.0527
G01 X37.6616 Y38.9990
G01 X37.6616 Y37.7916
G01 X31.4052 Y31.5352
G01 X15.6278 Y31.5352
G00 Z2.0000
G00 X15.6761 Y31.6202
G01 F60.00
G01 Z0.0000
G01 F120.00
G01 X15.6471 Y31.6686
G01 X15.6382 Y31.6822
G01 X15.5766 Y31.7654
G01 X15.5665 Y31.7780
G01 X15.4896 Y31.8626
G01 X15.4090 Y31.9359
G01 X15.3966 Y31.9464
G01 X15.3047 Y32.0143
G01 X15.2114 Y32.0706
G01 X15.2020 Y32.0759
G01 X15.1924 Y32.0807
G01 X15.0938 Y32.1271
G01 X14.9913 Y32.1640
G01 X14.9759 Y32.1689
G01 X14.8649 Y32.1965
G01 X14.7572 Y32.2127
G01 X14.7465 Y32.2141
G01 X14.6377 Y32.2197
G01 X14.6269 Y32.2199
G01 X14.6161 Y32.2197
G01 X14.5073 Y32.2141
G01 X14.3995 Y32.1983
G01 X14.3889 Y32.1965
G01 X14.3783 Y32.1941
G01 X14.2727 Y32.1674
G01 X14.1701 Y32.1309
G01 X14.1600 Y32.1271
G01 X14.0614 Y32.0807
G01 X14.0471 Y32.0733
G01 X13.9491 Y32.0143
G01 X13.9403 Y32.0081
G01 X13.8529 Y31.9430
G01 X13.8448 Y31.9359
G01 X13.7642 Y31.8626
G01 X13.7568 Y31.8548
G01 X13.6838 Y31.7739
G01 X13.6187 Y31.6866
G01 X13.6125 Y31.6777
G01 X13.6067 Y31.6686
G01 X13.5509 Y31.5750
G01 X13.5461 Y31.5654
G01 X13.4998 Y31.4668
G01 X13.4628 Y31.3643
G01 X13.4594 Y31.3541
G01 X13.4565 Y31.3437
G01 X13.4303 Y31.2379
G01 X13.4141 Y31.1302
G01 X13.4128 Y31.1195
G01 X13.4072 Y31.0107
G01 X13.4069 Y30.9999
G01 X13.4072 Y30.9891
G01 X13.4128 Y30.8803
G01 X13.4285 Y30.7726
G01 X13.4303 Y30.7619
G01 X13.4565 Y30.6562
G01 X13.4594 Y30.6458
G01 X13.4628 Y30.6355
G01 X13.4998 Y30.5331
G01 X13.5461 Y30.4345
G01 X13.5536 Y30.4201
G01 X13.6125 Y30.3221
G01 X13.6772 Y30.2345
G01 X13.6838 Y30.2260
G01 X13.6909 Y30.2178
G01 X13.7642 Y30.1373
G01 X13.8448 Y30.0639
G01 X13.8529 Y30.0569
G01 X13.8614 Y30.0502
G01 X13.9491 Y29.9855
G01 X14.0424 Y29.9293
G01 X14.0518 Y29.9240
G01 X14.0614 Y29.9191
G01 X14.1600 Y29.8728
G01 X14.2625 Y29.8359
G01 X14.2727 Y29.8325
G01 X14.2832 Y29.8296
G01 X14.3889 Y29.8034
G01 X14.4966 Y29.7871
G01 X14.5073 Y29.7858
G01 X14.5181 Y29.7850
G01 X14.6269 Y29.7799
G01 X14.7357 Y29.7850
G01 X14.7465 Y29.7858
G01 X14.7572 Y29.7871
G01 X14.8649 Y29.8034
G01 X14.9706 Y29.8296
G01 X14.9810 Y29.8325
G01 X14.9913 Y29.8359
G01 X15.0938 Y29.8728
G01 X15.1924 Y29.9191
G01 X15.2067 Y29.9266
G01 X15.3047 Y29.9855
G01 X15.3923 Y30.0502
G01 X15.4009 Y30.0569
G01 X15.4090 Y30.0639
G01 X15.4857 Y30.1335
G01 X15.4970 Y30.1451
G01 X15.5629 Y30.2178
G01 X15.5733 Y30.2302
G01 X15.6382 Y30.3177
G01 X15.6471 Y30.3313
G01 X15.6761 Y30.3798
G01 X31.6269 Y30.3798
G01 X31.6769 Y30.3820
G01 X31.6877 Y30.3827
G01 X31.7373 Y30.3898
G01 X31.7479 Y30.3917
G01 X31.7965 Y30.4036
G01 X31.8069 Y30.4065
G01 X31.8592 Y30.4250
G01 X31.8741 Y30.4313
G01 X31.9193 Y30.4530
G01 X31.9624 Y30.4785
G01 X31.9715 Y30.4843
G01 X31.9803 Y30.4905
G01 X32.0204 Y30.5205
G01 X32.0576 Y30.5540
G01 X32.0655 Y30.5614
G01 X38.6354 Y37.1314
G01 X38.6692 Y37.1683
G01 X38.6762 Y37.1765
G01 X38.6829 Y37.1850
G01 X38.7125 Y37.2253
G01 X38.7412 Y37.2728
G01 X38.7486 Y37.2872
G01 X38.7654 Y37.3227
G01 X38.7718 Y37.3376
G01 X38.7903 Y37.3899
G01 X38.8027 Y37.4384
G01 X38.8051 Y37.4489
G01 X38.8069 Y37.4595
G01 X38.8127 Y37.4984
G01 X38.8145 Y37.5145
G01 X38.8170 Y37.5699
G01 X38.8170 Y38.9507
G01 X38.8655 Y38.9798
G01 X38.8791 Y38.9886
G01 X38.9623 Y39.0502
G01 X38.9749 Y39.0603
G01 X39.0595 Y39.1372
G01 X39.1328 Y39.2178
G01 X39.1433 Y39.2302
G01 X39.2112 Y39.3221
G01 X39.2674 Y39.4154
G01 X39.2728 Y39.4248
G01 X39.2776 Y39.4345
G01 X39.3240 Y39.5330
G01 X39.3627 Y39.6406
G01 X39.3672 Y39.6562
G01 X39.3934 Y39.7619
G01 X39.4096 Y39.8696
G01 X39.4109 Y39.8803
G01 X39.4117 Y39.8911
G01 X39.4166 Y39.9891
G01 X39.4168 Y39.9999
G01 X39.4166 Y40.0107
G01 X39.4109 Y40.1195
G01 X39.3952 Y40.2273
G01 X39.3934 Y40.2379
G01 X39.3910 Y40.2485
G01 X39.3643 Y40.3541
G01 X39.3260 Y40.4618
G01 X39.3196 Y40.4767
G01 X39.2728 Y40.5750
G01 X39.2170 Y40.6686
G01 X39.2112 Y40.6777
G01 X39.2050 Y40.6865
G01 X39.1399 Y40.7739
G01 X39.0669 Y40.8548
G01 X39.0595 Y40.8626
G01 X39.0517 Y40.8700
G01 X38.9708 Y40.9430
G01 X38.8834 Y41.0081
G01 X38.8746 Y41.0143
G01 X38.8655 Y41.0201
G01 X38.7719 Y41.0759
G01 X38.6736 Y41.1227
G01 X38.6637 Y41.1271
G01 X38.6536 Y41.1309
G01 X38.5510 Y41.1674
G01 X38.4454 Y41.1941
G01 X38.4348 Y41.1965
G01 X38.4242 Y41.1983
G01 X38.3164 Y41.2140
G01 X38.2076 Y41.2197
G01 X38.1968 Y41.2199
G01 X38.1860 Y41.2197
G01 X38.0772 Y41.2140
G01 X37.9695 Y41.1983
G01 X37.9588 Y41.1965
G01 X37.9483 Y41.1941
G01 X37.8427 Y41.1674
G01 X37.7400 Y41.1309
G01 X37.7299 Y41.1271
G01 X37.7201 Y41.1227
G01 X37.6217 Y41.0759
G01 X37.5282 Y41.0201
G01 X37.5190 Y41.0143
G01 X37.5102 Y41.0081
G01 X37.4229 Y40.9430
G01 X37.3420 Y40.8700
G01 X37.3342 Y40.8626
G01 X37.3267 Y40.8548
G01 X37.2608 Y40.7821
G01 X37.2538 Y40.7739
G01 X37.2471 Y40.7654
G01 X37.1824 Y40.6777
G01 X37.1767 Y40.6686
G01 X37.1209 Y40.5750
G01 X37.0741 Y40.4767
G01 X37.0697 Y40.4668
G01 X37.0658 Y40.4567
G01 X37.0294 Y40.3541
G01 X37.0026 Y40.2485
G01 X37.0003 Y40.2379
G01 X36.9984 Y40.2273
G01 X36.9827 Y40.1195
G01 X36.9771 Y40.0107
G01 X36.9768 Y39.9999
G01 X36.9771 Y39.9891
G01 X36.9827 Y39.8803
G01 X36.9984 Y39.7725
G01 X37.0003 Y39.7619
G01 X37.0265 Y39.6562
G01 X37.0294 Y39.6458
G01 X37.0327 Y39.6355
G01 X37.0697 Y39.5330
G01 X37.1160 Y39.4345
G01 X37.1209 Y39.4248
G01 X37.1262 Y39.4154
G01 X37.1795 Y39.3267
G01 X37.1886 Y39.3133
G01 X37.2538 Y39.2260
G01 X37.3267 Y39.1451
G01 X37.3380 Y39.1335
G01 X37.4147 Y39.0639
G01 X37.4271 Y39.0535
G01 X37.5146 Y38.9886
G01 X37.5282 Y38.9798
G01 X37.5766 Y38.9507
G01 X37.5766 Y37.8268
G01 X31.3700 Y31.6202
G01 X15.6761 Y31.6202
G00 Z2.0000
G00 X19.6278 Y34.5351
G01 F60.00
G01 Z0.0000
G01 F120.00
G01 X19.5706 Y34.6305
G01 X19.5043 Y34.7200
G01 X19.4295 Y34.8025
G01 X19.3469 Y34.8773
G01 X19.2575 Y34.9436
G01 X19.1619 Y35.0009
G01 X19.0612 Y35.0485
G01 X18.9564 Y35.0861
G01 X18.8483 Y35.1131
G01 X18.7381 Y35.1295
G01 X18.6269 Y35.1349
G01 X18.5156 Y35.1295
G01 X18.4055 Y35.1131
G01 X18.2974 Y35.0861
G01 X18.1925 Y35.0485
G01 X18.0919 Y35.0009
G01 X17.9963 Y34.9436
G01 X17.9069 Y34.8773
G01 X17.8243 Y34.8025
G01 X17.7495 Y34.7200
G01 X17.6832 Y34.6305
G01 X17.6259 Y34.5350
G01 X17.5783 Y34.4343
G01 X17.5408 Y34.3294
G01 X17.5137 Y34.2214
G01 X17.4974 Y34.1112
G01 X17.4919 Y33.9999
G01 X17.4974 Y33.8887
G01 X17.5137 Y33.7785
G01 X17.5408 Y33.6705
G01 X17.5783 Y33.5656
G01 X17.6259 Y33.4649
G01 X17.6796 Y33.3750
G01 X17.6870 Y33.3639
G01 X17.7495 Y33.2799
G01 X17.8198 Y33.2022
G01 X17.8291 Y33.1928
G01 X17.9069 Y33.1226
G01 X17.9909 Y33.0600
G01 X18.0019 Y33.0527
G01 X18.0919 Y32.9989
G01 X18.1865 Y32.9540
G01 X18.1987 Y32.9489
G01 X18.2974 Y32.9138
G01 X18.4055 Y32.8867
G01 X18.5091 Y32.8712
G01 X18.5223 Y32.8699
G01 X18.6269 Y32.8649
G01 X18.7315 Y32.8699
G01 X18.7447 Y32.8712
G01 X18.8483 Y32.8867
G01 X18.9500 Y32.9120
G01 X18.9627 Y32.9159
G01 X19.0612 Y32.9513
G01 X19.1560 Y32.9960
G01 X19.1677 Y33.0022
G01 X19.2575 Y33.0562
G01 X19.3417 Y33.1185
G01 X19.3519 Y33.1269
G01 X19.4295 Y33.1974
G01 X19.4999 Y33.2749
G01 X19.5083 Y33.2851
G01 X19.5706 Y33.3694
G01 X19.6278 Y33.4647
G01 X30.6269 Y33.4648
G01 X30.6794 Y33.4673
G01 X30.7248 Y33.4739
G01 X30.7378 Y33.4765
G01 X30.7759 Y33.4860
G01 X30.7854 Y33.4888
G01 X30.8255 Y33.5031
G01 X30.8378 Y33.5082
G01 X30.8792 Y33.5279
G01 X30.9187 Y33.5514
G01 X30.9297 Y33.5588
G01 X30.9664 Y33.5862
G01 X31.0054 Y33.6215
G01 X36.0352 Y38.6515
G01 X36.0684 Y38.6879
G01 X36.0746 Y38.6956
G01 X36.1018 Y38.7326
G01 X36.1255 Y38.7719
G01 X36.1318 Y38.7835
G01 X36.1486 Y38.8190
G01 X36.1525 Y38.8282
G01 X36.1690 Y38.8746
G01 X36.1810 Y38.9223
G01 X36.1829 Y38.9320
G01 X36.1891 Y38.9742
G01 X36.1906 Y38.9983
G01 X36.2874 Y39.0562
G01 X36.3716 Y39.1185
G01 X36.3819 Y39.1269
G01 X36.4546 Y39.1928
G01 X36.4640 Y39.2022
G01 X36.5342 Y39.2799
G01 X36.6005 Y39.3693
G01 X36.6578 Y39.4649
G01 X36.7054 Y39.5656
G01 X36.7430 Y39.6704
G01 X36.7700 Y39.7785
G01 X36.7864 Y39.8887
G01 X36.7917 Y39.9933
G01 X36.7917 Y40.0065
G01 X36.7868 Y40.1046
G01 X36.7855 Y40.1177
G01 X36.7700 Y40.2213
G01 X36.7447 Y40.3230
G01 X36.7419 Y40.3326
G01 X36.7078 Y40.4281
G01 X36.7027 Y40.4403
G01 X36.6578 Y40.5350
G01 X36.6041 Y40.6249
G01 X36.5967 Y40.6359
G01 X36.5342 Y40.7200
G01 X36.4594 Y40.8025
G01 X36.3819 Y40.8730
G01 X36.3716 Y40.8814
G01 X36.2874 Y40.9436
G01 X36.1976 Y40.9976
G01 X36.1859 Y41.0039
G01 X36.0912 Y41.0485
G01 X35.9926 Y41.0840
G01 X35.9799 Y41.0878
G01 X35.8847 Y41.1117
G01 X35.8717 Y41.1142
G01 X35.7681 Y41.1295
G01 X35.6634 Y41.1348
G01 X35.6502 Y41.1348
G01 X35.5456 Y41.1295
G01 X35.4419 Y41.1142
G01 X35.4289 Y41.1117
G01 X35.3274 Y41.0860
G01 X35.2287 Y41.0509
G01 X35.2164 Y41.0458
G01 X35.1218 Y41.0009
G01 X35.0318 Y40.9472
G01 X35.0208 Y40.9398
G01 X34.9368 Y40.8773
G01 X34.8591 Y40.8071
G01 X34.8497 Y40.7977
G01 X34.7795 Y40.7200
G01 X34.7131 Y40.6305
G01 X34.6558 Y40.5350
G01 X34.6109 Y40.4403
G01 X34.6058 Y40.4281
G01 X34.5728 Y40.3357
G01 X34.5689 Y40.3230
G01 X34.5436 Y40.2213
G01 X34.5281 Y40.1177
G01 X34.5268 Y40.1046
G01 X34.5218 Y39.9999
G01 X34.5270 Y39.8920
G01 X34.5281 Y39.8821
G01 X34.5436 Y39.7785
G01 X34.5707 Y39.6704
G01 X34.6082 Y39.5656
G01 X34.6529 Y39.4708
G01 X34.6574 Y39.4620
G01 X34.7131 Y39.3693
G01 X34.7754 Y39.2851
G01 X34.7816 Y39.2773
G01 X34.8497 Y39.2022
G01 X34.8566 Y39.1950
G01 X34.9343 Y39.1247
G01 X34.9420 Y39.1185
G01 X34.9687 Y39.0987
G01 X30.4052 Y34.5352
G01 X19.6278 Y34.5351
G00 Z2.0000
G00 X19.6761 Y34.6201
G01 F60.00
G01 Z0.0000
G01 F120.00
G01 X19.6471 Y34.6686
G01 X19.6382 Y34.6822
G01 X19.5766 Y34.7654
G01 X19.5665 Y34.7780
G01 X19.4896 Y34.8626
G01 X19.4090 Y34.9359
G01 X19.3966 Y34.9464
G01 X19.3047 Y35.0143
G01 X19.2956 Y35.0201
G01 X19.2020 Y35.0759
G01 X19.1036 Y35.1227
G01 X19.0938 Y35.1271
G01 X18.9913 Y35.1640
G01 X18.9759 Y35.1689
G01 X18.8649 Y35.1965
G01 X18.7572 Y35.2127
G01 X18.7465 Y35.2141
G01 X18.7357 Y35.2148
G01 X18.6269 Y35.2199
G01 X18.5181 Y35.2148
G01 X18.5073 Y35.2141
G01 X18.4966 Y35.2127
G01 X18.3889 Y35.1965
G01 X18.2832 Y35.1703
G01 X18.2727 Y35.1674
G01 X18.2625 Y35.1640
G01 X18.1600 Y35.1271
G01 X18.0614 Y35.0807
G01 X18.0471 Y35.0733
G01 X17.9491 Y35.0143
G01 X17.9403 Y35.0081
G01 X17.8529 Y34.9430
G01 X17.7720 Y34.8700
G01 X17.7642 Y34.8626
G01 X17.7568 Y34.8548
G01 X17.6838 Y34.7739
G01 X17.6772 Y34.7654
G01 X17.6125 Y34.6777
G01 X17.5563 Y34.5844
G01 X17.5509 Y34.5750
G01 X17.5461 Y34.5654
G01 X17.4998 Y34.4668
G01 X17.4628 Y34.3643
G01 X17.4594 Y34.3541
G01 X17.4565 Y34.3437
G01 X17.4303 Y34.2379
G01 X17.4141 Y34.1302
G01 X17.4128 Y34.1195
G01 X17.4072 Y34.0107
G01 X17.4069 Y33.9999
G01 X17.4072 Y33.9891
G01 X17.4128 Y33.8803
G01 X17.4285 Y33.7726
G01 X17.4303 Y33.7619
G01 X17.4565 Y33.6562
G01 X17.4594 Y33.6458
G01 X17.4628 Y33.6355
G01 X17.4998 Y33.5331
G01 X17.5461 Y33.4345
G01 X17.5536 Y33.4201
G01 X17.6125 Y33.3221
G01 X17.6772 Y33.2345
G01 X17.6838 Y33.2260
G01 X17.6909 Y33.2178
G01 X17.7642 Y33.1373
G01 X17.8448 Y33.0639
G01 X17.8529 Y33.0569
G01 X17.8614 Y33.0502
G01 X17.9491 Y32.9855
G01 X18.0424 Y32.9293
G01 X18.0518 Y32.9240
G01 X18.0614 Y32.9191
G01 X18.1600 Y32.8728
G01 X18.2625 Y32.8359
G01 X18.2727 Y32.8325
G01 X18.2832 Y32.8296
G01 X18.3889 Y32.8034
G01 X18.4966 Y32.7871
G01 X18.5073 Y32.7858
G01 X18.5181 Y32.7850
G01 X18.6269 Y32.7799
G01 X18.7357 Y32.7850
G01 X18.7465 Y32.7858
G01 X18.7572 Y32.7871
G01 X18.8649 Y32.8034
G01 X18.9706 Y32.8296
G01 X18.9810 Y32.8325
G01 X18.9913 Y32.8359
G01 X19.0938 Y32.8728
G01 X19.1924 Y32.9191
G01 X19.2067 Y32.9266
G01 X19.2956 Y32.9798
G01 X19.3047 Y32.9855
G01 X19.3135 Y32.9918
G01 X19.4009 Y33.0569
G01 X19.4857 Y33.1335
G01 X19.4970 Y33.1451
G01 X19.5629 Y33.2178
G01 X19.5733 Y33.2302
G01 X19.6382 Y33.3177
G01 X19.6471 Y33.3313
G01 X19.6761 Y33.3797
G01 X30.6269 Y33.3798
G01 X30.6769 Y33.3819
G01 X30.6877 Y33.3827
G01 X30.7373 Y33.3898
G01 X30.7479 Y33.3917
G01 X30.7584 Y33.3940
G01 X30.7965 Y33.4036
G01 X30.8121 Y33.4081
G01 X30.8592 Y33.4250
G01 X30.8741 Y33.4313
G01 X30.9193 Y33.4530
G01 X30.9624 Y33.4785
G01 X30.9715 Y33.4843
G01 X30.9803 Y33.4905
G01 X31.0204 Y33.5205
G01 X31.0576 Y33.5540
G01 X31.0655 Y33.5614
G01 X36.0954 Y38.5914
G01 X36.1328 Y38.6323
G01 X36.1429 Y38.6450
G01 X36.1663 Y38.6765
G01 X36.1725 Y38.6853
G01 X36.1783 Y38.6945
G01 X36.2038 Y38.7376
G01 X36.2277 Y38.7876
G01 X36.2337 Y38.8026
G01 X36.2469 Y38.8396
G01 X36.2518 Y38.8551
G01 X36.2651 Y38.9089
G01 X36.2710 Y38.9471
G01 X36.3255 Y38.9798
G01 X36.3391 Y38.9886
G01 X36.4223 Y39.0502
G01 X36.4349 Y39.0603
G01 X36.5195 Y39.1372
G01 X36.5964 Y39.2218
G01 X36.6065 Y39.2345
G01 X36.6712 Y39.3221
G01 X36.7274 Y39.4154
G01 X36.7328 Y39.4248
G01 X36.7376 Y39.4345
G01 X36.7796 Y39.5232
G01 X36.7860 Y39.5381
G01 X36.8243 Y39.6458
G01 X36.8510 Y39.7514
G01 X36.8534 Y39.7619
G01 X36.8552 Y39.7725
G01 X36.8709 Y39.8803
G01 X36.8766 Y39.9891
G01 X36.8768 Y39.9999
G01 X36.8766 Y40.0107
G01 X36.8717 Y40.1087
G01 X36.8709 Y40.1195
G01 X36.8696 Y40.1302
G01 X36.8534 Y40.2379
G01 X36.8272 Y40.3437
G01 X36.8227 Y40.3592
G01 X36.7878 Y40.4567
G01 X36.7840 Y40.4668
G01 X36.7796 Y40.4767
G01 X36.7328 Y40.5750
G01 X36.6770 Y40.6686
G01 X36.6712 Y40.6777
G01 X36.6650 Y40.6865
G01 X36.5999 Y40.7739
G01 X36.5269 Y40.8548
G01 X36.5195 Y40.8626
G01 X36.4390 Y40.9359
G01 X36.4308 Y40.9430
G01 X36.4223 Y40.9496
G01 X36.3346 Y41.0143
G01 X36.2413 Y41.0705
G01 X36.2319 Y41.0759
G01 X36.2223 Y41.0807
G01 X36.1237 Y41.1271
G01 X36.0212 Y41.1640
G01 X36.0110 Y41.1674
G01 X35.9054 Y41.1941
G01 X35.8948 Y41.1965
G01 X35.7871 Y41.2127
G01 X35.7764 Y41.2140
G01 X35.7656 Y41.2148
G01 X35.6568 Y41.2199
G01 X35.5480 Y41.2148
G01 X35.5372 Y41.2140
G01 X35.5265 Y41.2127
G01 X35.4188 Y41.1965
G01 X35.3131 Y41.1703
G01 X35.3027 Y41.1674
G01 X35.2924 Y41.1640
G01 X35.1899 Y41.1271
G01 X35.0914 Y41.0807
G01 X35.0817 Y41.0759
G01 X35.0723 Y41.0705
G01 X34.9790 Y41.0143
G01 X34.8914 Y40.9496
G01 X34.8829 Y40.9430
G01 X34.8747 Y40.9359
G01 X34.8020 Y40.8700
G01 X34.7942 Y40.8626
G01 X34.7867 Y40.8548
G01 X34.7138 Y40.7739
G01 X34.6486 Y40.6865
G01 X34.6424 Y40.6777
G01 X34.6367 Y40.6686
G01 X34.5809 Y40.5750
G01 X34.5341 Y40.4767
G01 X34.5297 Y40.4668
G01 X34.5258 Y40.4567
G01 X34.4894 Y40.3541
G01 X34.4865 Y40.3437
G01 X34.4603 Y40.2379
G01 X34.4440 Y40.1302
G01 X34.4427 Y40.1195
G01 X34.4369 Y40.0053
G01 X34.4371 Y39.9891
G01 X34.4427 Y39.8803
G01 X34.4584 Y39.7725
G01 X34.4603 Y39.7619
G01 X34.4865 Y39.6562
G01 X34.4894 Y39.6458
G01 X34.5258 Y39.5431
G01 X34.5318 Y39.5281
G01 X34.5809 Y39.4248
G01 X34.6367 Y39.3312
G01 X34.6455 Y39.3177
G01 X34.7071 Y39.2345
G01 X34.7172 Y39.2218
G01 X34.7904 Y39.1411
G01 X34.8020 Y39.1298
G01 X34.8427 Y39.0929
G01 X30.3700 Y34.6202
G01 X19.6761 Y34.6201
G00 Z2.0000
G00 X14.4702 Y39.7051
G01 F60.00
G01 Z0.0000
G01 F120.00
G01 X14.3871 Y39.7174
G01 X14.3723 Y39.7200
G01 X14.3577 Y39.7233
G01 X14.2625 Y39.7471
G01 X14.2481 Y39.7511
G01 X14.2339 Y39.7558
G01 X14.1415 Y39.7889
G01 X14.1275 Y39.7942
G01 X14.1138 Y39.8003
G01 X14.0251 Y39.8423
G01 X14.0117 Y39.8490
G01 X13.9987 Y39.8564
G01 X13.9081 Y39.9108
G01 X13.8896 Y39.9235
G01 X13.8108 Y39.9819
G01 X13.7990 Y39.9911
G01 X13.7877 Y40.0009
G01 X13.7150 Y40.0668
G01 X13.7041 Y40.0771
G01 X13.6938 Y40.0880
G01 X13.6279 Y40.1607
G01 X13.6181 Y40.1720
G01 X13.6089 Y40.1838
G01 X13.5461 Y40.2687
G01 X13.5377 Y40.2812
G01 X13.5295 Y40.2947
G01 X12.6269 Y40.2947
G01 X12.6119 Y40.2951
G01 X12.5652 Y40.2974
G01 X12.5429 Y40.2999
G01 X12.5041 Y40.3057
G01 X12.4893 Y40.3082
G01 X12.4747 Y40.3115
G01 X12.4366 Y40.3211
G01 X12.4222 Y40.3251
G01 X12.4080 Y40.3298
G01 X12.3710 Y40.3430
G01 X12.3570 Y40.3484
G01 X12.3433 Y40.3544
G01 X12.3011 Y40.3745
G01 X12.2879 Y40.3816
G01 X12.2478 Y40.4055
G01 X12.2351 Y40.4135
G01 X12.2229 Y40.4222
G01 X12.1913 Y40.4456
G01 X12.1795 Y40.4548
G01 X12.1682 Y40.4645
G01 X12.1336 Y40.4960
G01 X11.3348 Y41.2947
G01 X8.7003 Y41.2947
G01 X8.6761 Y41.2543
G01 X8.6638 Y41.2354
G01 X8.5964 Y41.1446
G01 X8.5820 Y41.1274
G01 X8.5110 Y41.0492
G01 X8.4949 Y41.0335
G01 X8.4222 Y40.9676
G01 X8.4109 Y40.9579
G01 X8.3991 Y40.9487
G01 X8.3202 Y40.8902
G01 X8.3080 Y40.8816
G01 X8.2953 Y40.8736
G01 X8.2112 Y40.8231
G01 X8.1981 Y40.8157
G01 X8.1848 Y40.8090
G01 X8.0893 Y40.7639
G01 X8.0684 Y40.7556
G01 X7.9689 Y40.7201
G01 X7.9474 Y40.7138
G01 X7.8787 Y40.6966
G01 X7.9474 Y40.6794
G01 X7.9618 Y40.6754
G01 X7.9760 Y40.6708
G01 X8.0754 Y40.6351
G01 X8.0961 Y40.6262
G01 X8.1848 Y40.5843
G01 X8.2047 Y40.5739
G01 X8.2953 Y40.5197
G01 X8.3080 Y40.5117
G01 X8.3202 Y40.5031
G01 X8.3991 Y40.4446
G01 X8.4109 Y40.4354
G01 X8.4222 Y40.4256
G01 X8.4949 Y40.3597
G01 X8.5057 Y40.3494
G01 X8.5161 Y40.3386
G01 X8.5820 Y40.2659
G01 X8.5918 Y40.2545
G01 X8.6010 Y40.2427
G01 X8.6594 Y40.1639
G01 X8.6680 Y40.1517
G01 X8.6761 Y40.1390
G01 X8.7265 Y40.0548
G01 X8.7339 Y40.0418
G01 X8.7406 Y40.0284
G01 X8.7826 Y39.9397
G01 X8.7886 Y39.9260
G01 X8.7940 Y39.9121
G01 X8.8271 Y39.8197
G01 X8.8318 Y39.8055
G01 X8.8358 Y39.7910
G01 X8.8573 Y39.7051
G01 X14.4702 Y39.7051
G00 Z2.0000
G00 X8.5460 Y41.5497
G01 F60.00
G01 Z0.0000
G01 F120.00
G01 X11.4404 Y41.5497
G01 X12.3094 Y40.6807
G01 X12.3413 Y40.6519
G01 X12.3748 Y40.6270
G01 X12.4158 Y40.6023
G01 X12.4546 Y40.5840
G01 X12.4986 Y40.5684
G01 X12.5391 Y40.5583
G01 X12.5803 Y40.5522
G01 X12.6245 Y40.5498
G01 X13.6796 Y40.5497
G01 X13.7015 Y40.5039
G01 X13.7532 Y40.4176
G01 X13.8160 Y40.3329
G01 X13.8844 Y40.2574
G01 X13.9589 Y40.1899
G01 X14.0425 Y40.1276
G01 X14.1319 Y40.0739
G01 X14.2274 Y40.0290
G01 X14.3221 Y39.9951
G01 X14.4197 Y39.9706
G01 X14.5240 Y39.9550
G01 X14.6269 Y39.9499
G01 X14.7298 Y39.9550
G01 X14.8317 Y39.9701
G01 X14.9317 Y39.9951
G01 X15.0287 Y40.0298
G01 X15.1219 Y40.0739
G01 X15.2102 Y40.1269
G01 X15.2930 Y40.1882
G01 X15.3694 Y40.2574
G01 X15.4386 Y40.3338
G01 X15.4999 Y40.4166
G01 X15.5529 Y40.5049
G01 X15.5970 Y40.5981
G01 X15.6317 Y40.6951
G01 X15.6567 Y40.7951
G01 X15.6718 Y40.8970
G01 X15.6769 Y40.9999
G01 X15.6718 Y41.1028
G01 X15.6567 Y41.2048
G01 X15.6317 Y41.3047
G01 X15.5970 Y41.4017
G01 X15.5529 Y41.4949
G01 X15.4999 Y41.5833
G01 X15.4401 Y41.6641
G01 X15.3694 Y41.7424
G01 X15.2949 Y41.8100
G01 X15.2082 Y41.8743
G01 X15.1219 Y41.9259
G01 X15.0287 Y41.9700
G01 X14.9317 Y42.0047
G01 X14.8305 Y42.0300
G01 X14.7298 Y42.0449
G01 X14.6293 Y42.0498
G01 X14.5215 Y42.0446
G01 X14.4220 Y42.0297
G01 X14.3221 Y42.0047
G01 X14.2251 Y41.9700
G01 X14.1330 Y41.9265
G01 X14.0415 Y41.8715
G01 X13.9608 Y41.8116
G01 X13.8836 Y41.7415
G01 X13.8152 Y41.6660
G01 X13.7545 Y41.5843
G01 X13.7015 Y41.4960
G01 X13.6796 Y41.4501
G01 X12.8134 Y41.4501
G01 X11.9434 Y42.3199
G01 X11.9106 Y42.3494
G01 X11.8770 Y42.3742
G01 X11.8412 Y42.3957
G01 X11.7992 Y42.4158
G01 X11.7576 Y42.4307
G01 X11.7147 Y42.4415
G01 X11.6734 Y42.4476
G01 X11.6269 Y42.4501
G01 X8.5145 Y42.4501
G01 X8.5078 Y42.4637
G01 X8.4560 Y42.5500
G01 X8.3930 Y42.6346
G01 X8.3254 Y42.7091
G01 X8.2509 Y42.7767
G01 X8.1642 Y42.8410
G01 X8.0779 Y42.8927
G01 X7.9870 Y42.9357
G01 X7.8878 Y42.9714
G01 X7.7854 Y42.9969
G01 X7.6859 Y43.0116
G01 X7.5854 Y43.0166
G01 X7.4776 Y43.0113
G01 X7.3781 Y42.9965
G01 X7.2782 Y42.9714
G01 X7.1812 Y42.9367
G01 X7.0902 Y42.8938
G01 X6.9996 Y42.8397
G01 X6.9169 Y42.7783
G01 X6.8423 Y42.7108
G01 X6.7713 Y42.6328
G01 X6.7086 Y42.5479
G01 X6.6570 Y42.4616
G01 X6.6129 Y42.3685
G01 X6.5782 Y42.2714
G01 X6.5531 Y42.1715
G01 X6.5380 Y42.0696
G01 X6.5330 Y41.9666
G01 X6.5380 Y41.8637
G01 X6.5531 Y41.7618
G01 X6.5782 Y41.6618
G01 X6.6129 Y41.5648
G01 X6.6570 Y41.4717
G01 X6.7099 Y41.3833
G01 X6.7713 Y41.3005
G01 X6.8405 Y41.2242
G01 X6.9169 Y41.1550
G01 X6.9996 Y41.0936
G01 X7.0880 Y41.0406
G01 X7.1812 Y40.9966
G01 X7.2782 Y40.9619
G01 X7.3781 Y40.9368
G01 X7.4801 Y40.9217
G01 X7.5830 Y40.9166
G01 X7.6859 Y40.9217
G01 X7.7878 Y40.9368
G01 X7.8878 Y40.9619
G01 X7.9848 Y40.9966
G01 X8.0779 Y41.0406
G01 X8.1663 Y41.0936
G01 X8.2491 Y41.1550
G01 X8.3254 Y41.2242
G01 X8.3946 Y41.3005
G01 X8.4560 Y41.3833
G01 X8.5090 Y41.4717
G01 X8.5460 Y41.5497
G00 Z2.0000
G00 X8.5641 Y42.5351
G01 F60.00
G01 Z0.0000
G01 F120.00
G01 X8.5302 Y42.5916
G01 X8.5248 Y42.5999
G01 X8.4644 Y42.6815
G01 X8.4582 Y42.6892
G01 X8.3855 Y42.7692
G01 X8.3080 Y42.8397
G01 X8.3004 Y42.8461
G01 X8.2135 Y42.9104
G01 X8.1180 Y42.9676
G01 X8.0173 Y43.0152
G01 X7.9187 Y43.0507
G01 X7.9093 Y43.0537
G01 X7.8044 Y43.0798
G01 X7.6942 Y43.0962
G01 X7.5830 Y43.1016
G01 X7.4717 Y43.0962
G01 X7.3615 Y43.0798
G01 X7.2535 Y43.0528
G01 X7.1486 Y43.0152
G01 X7.0539 Y42.9706
G01 X7.0450 Y42.9660
G01 X6.9524 Y42.9104
G01 X6.8629 Y42.8440
G01 X6.7804 Y42.7692
G01 X6.7056 Y42.6867
G01 X6.6393 Y42.5972
G01 X6.5820 Y42.5017
G01 X6.5344 Y42.4010
G01 X6.4968 Y42.2961
G01 X6.4698 Y42.1881
G01 X6.4534 Y42.0779
G01 X6.4480 Y41.9666
G01 X6.4534 Y41.8554
G01 X6.4698 Y41.7452
G01 X6.4968 Y41.6372
G01 X6.5344 Y41.5323
G01 X6.5790 Y41.4375
G01 X6.5836 Y41.4287
G01 X6.6393 Y41.3361
G01 X6.7015 Y41.2518
G01 X6.7099 Y41.2416
G01 X6.7804 Y41.1641
G01 X6.8579 Y41.0936
G01 X6.8682 Y41.0852
G01 X6.9524 Y41.0229
G01 X7.0422 Y40.9689
G01 X7.0539 Y40.9627
G01 X7.1486 Y40.9180
G01 X7.2472 Y40.8826
G01 X7.2599 Y40.8787
G01 X7.3615 Y40.8534
G01 X7.4651 Y40.8379
G01 X7.4783 Y40.8366
G01 X7.5830 Y40.8316
G01 X7.6876 Y40.8366
G01 X7.7008 Y40.8379
G01 X7.8044 Y40.8534
G01 X7.9124 Y40.8805
G01 X8.0111 Y40.9157
G01 X8.0234 Y40.9207
G01 X8.1180 Y40.9657
G01 X8.2108 Y41.0211
G01 X8.2190 Y41.0267
G01 X8.2978 Y41.0852
G01 X8.3080 Y41.0936
G01 X8.3855 Y41.1641
G01 X8.4582 Y41.2441
G01 X8.4644 Y41.2518
G01 X8.5229 Y41.3307
G01 X8.5285 Y41.3388
G01 X8.5824 Y41.4287
G01 X8.5869 Y41.4375
G01 X8.5998 Y41.4647
G01 X11.4052 Y41.4647
G01 X12.2508 Y40.6191
G01 X12.2874 Y40.5862
G01 X12.3241 Y40.5587
G01 X12.3352 Y40.5513
G01 X12.3688 Y40.5312
G01 X12.3776 Y40.5264
G01 X12.4221 Y40.5054
G01 X12.4715 Y40.4877
G01 X12.5225 Y40.4750
G01 X12.5679 Y40.4681
G01 X12.5811 Y40.4668
G01 X12.6269 Y40.4647
G01 X13.6260 Y40.4647
G01 X13.6796 Y40.3749
G01 X13.6870 Y40.3639
G01 X13.7495 Y40.2799
G01 X13.8198 Y40.2021
G01 X13.8291 Y40.1928
G01 X13.9069 Y40.1225
G01 X13.9963 Y40.0562
G01 X14.0861 Y40.0022
G01 X14.0978 Y39.9960
G01 X14.1925 Y39.9513
G01 X14.2911 Y39.9159
G01 X14.3038 Y39.9120
G01 X14.4055 Y39.8867
G01 X14.5091 Y39.8712
G01 X14.5189 Y39.8701
G01 X14.6269 Y39.8649
G01 X14.7381 Y39.8704
G01 X14.8483 Y39.8867
G01 X14.9500 Y39.9120
G01 X14.9627 Y39.9159
G01 X15.0551 Y39.9489
G01 X15.0673 Y39.9540
G01 X15.1619 Y39.9989
G01 X15.2575 Y40.0562
G01 X15.3469 Y40.1225
G01 X15.4295 Y40.1973
G01 X15.5043 Y40.2799
G01 X15.5668 Y40.3639
G01 X15.5742 Y40.3749
G01 X15.6246 Y40.4591
G01 X15.6309 Y40.4708
G01 X15.6755 Y40.5656
G01 X15.7109 Y40.6641
G01 X15.7148 Y40.6768
G01 X15.7401 Y40.7785
G01 X15.7564 Y40.8887
G01 X15.7619 Y40.9999
G01 X15.7564 Y41.1112
G01 X15.7401 Y41.2213
G01 X15.7130 Y41.3294
G01 X15.6755 Y41.4343
G01 X15.6279 Y41.5349
G01 X15.5706 Y41.6305
G01 X15.5043 Y41.7199
G01 X15.4295 Y41.8025
G01 X15.3469 Y41.8773
G01 X15.2575 Y41.9436
G01 X15.1619 Y42.0009
G01 X15.0612 Y42.0485
G01 X14.9627 Y42.0840
G01 X14.9500 Y42.0878
G01 X14.8483 Y42.1131
G01 X14.7381 Y42.1294
G01 X14.6269 Y42.1349
G01 X14.5223 Y42.1299
G01 X14.5091 Y42.1286
G01 X14.4120 Y42.1142
G01 X14.3990 Y42.1116
G01 X14.2974 Y42.0860
G01 X14.1925 Y42.0485
G01 X14.0919 Y42.0009
G01 X14.0019 Y41.9472
G01 X13.9909 Y41.9398
G01 X13.9121 Y41.8814
G01 X13.9018 Y41.8729
G01 X13.8243 Y41.8025
G01 X13.7495 Y41.7199
G01 X13.6832 Y41.6305
G01 X13.6260 Y41.5351
G01 X12.8486 Y41.5351
G01 X12.0053 Y42.3784
G01 X11.9714 Y42.4093
G01 X11.9612 Y42.4177
G01 X11.9242 Y42.4449
G01 X11.8849 Y42.4686
G01 X11.8733 Y42.4749
G01 X11.8317 Y42.4944
G01 X11.7885 Y42.5100
G01 X11.7759 Y42.5138
G01 X11.7345 Y42.5241
G01 X11.7248 Y42.5260
G01 X11.6793 Y42.5325
G01 X11.6269 Y42.5351
G01 X8.5641 Y42.5351
G00 Z2.0000
G00 X8.6123 Y42.6201
G01 F60.00
G01 Z0.0000
G01 F120.00
G01 X8.6003 Y42.6399
G01 X8.5943 Y42.6489
G01 X8.5294 Y42.7364
G01 X8.5190 Y42.7488
G01 X8.4494 Y42.8254
G01 X8.4378 Y42.8368
G01 X8.3569 Y42.9097
G01 X8.2652 Y42.9780
G01 X8.2516 Y42.9868
G01 X8.1581 Y43.0426
G01 X8.1484 Y43.0474
G01 X8.0498 Y43.0938
G01 X7.9474 Y43.1307
G01 X7.9371 Y43.1341
G01 X7.8263 Y43.1621
G01 X7.8103 Y43.1650
G01 X7.7026 Y43.1808
G01 X7.6918 Y43.1816
G01 X7.5830 Y43.1866
G01 X7.4742 Y43.1816
G01 X7.4634 Y43.1808
G01 X7.4527 Y43.1794
G01 X7.3450 Y43.1632
G01 X7.2392 Y43.1370
G01 X7.2288 Y43.1341
G01 X7.2186 Y43.1307
G01 X7.1161 Y43.0938
G01 X7.0175 Y43.0474
G01 X7.0079 Y43.0426
G01 X6.9097 Y42.9840
G01 X6.8963 Y42.9748
G01 X6.8090 Y42.9097
G01 X6.7281 Y42.8368
G01 X6.7203 Y42.8293
G01 X6.7129 Y42.8215
G01 X6.6399 Y42.7406
G01 X6.6333 Y42.7321
G01 X6.5686 Y42.6444
G01 X6.5124 Y42.5511
G01 X6.5070 Y42.5417
G01 X6.5022 Y42.5321
G01 X6.4558 Y42.4335
G01 X6.4189 Y42.3310
G01 X6.4155 Y42.3208
G01 X6.4126 Y42.3104
G01 X6.3864 Y42.2047
G01 X6.3702 Y42.0969
G01 X6.3688 Y42.0862
G01 X6.3632 Y41.9774
G01 X6.3630 Y41.9666
G01 X6.3632 Y41.9558
G01 X6.3688 Y41.8471
G01 X6.3846 Y41.7393
G01 X6.3864 Y41.7286
G01 X6.4126 Y41.6229
G01 X6.4155 Y41.6125
G01 X6.4189 Y41.6022
G01 X6.4558 Y41.4998
G01 X6.5022 Y41.4012
G01 X6.5070 Y41.3915
G01 X6.5656 Y41.2934
G01 X6.5748 Y41.2800
G01 X6.6399 Y41.1927
G01 X6.7129 Y41.1118
G01 X6.7203 Y41.1040
G01 X6.7281 Y41.0965
G01 X6.8090 Y41.0236
G01 X6.8963 Y40.9585
G01 X6.9052 Y40.9522
G01 X6.9143 Y40.9465
G01 X7.0079 Y40.8907
G01 X7.1062 Y40.8439
G01 X7.1161 Y40.8395
G01 X7.1262 Y40.8356
G01 X7.2288 Y40.7992
G01 X7.3344 Y40.7724
G01 X7.3450 Y40.7701
G01 X7.3556 Y40.7682
G01 X7.4634 Y40.7525
G01 X7.5722 Y40.7469
G01 X7.5884 Y40.7467
G01 X7.6918 Y40.7517
G01 X7.7026 Y40.7525
G01 X7.7133 Y40.7538
G01 X7.8210 Y40.7701
G01 X7.9267 Y40.7963
G01 X7.9371 Y40.7992
G01 X7.9474 Y40.8026
G01 X8.0498 Y40.8395
G01 X8.1484 Y40.8858
G01 X8.1581 Y40.8907
G01 X8.1675 Y40.8960
G01 X8.2608 Y40.9522
G01 X8.3484 Y41.0169
G01 X8.3569 Y41.0236
G01 X8.3651 Y41.0306
G01 X8.4456 Y41.1040
G01 X8.5190 Y41.1845
G01 X8.5260 Y41.1927
G01 X8.5327 Y41.2012
G01 X8.5974 Y41.2888
G01 X8.6521 Y41.3797
G01 X11.3700 Y41.3797
G01 X12.1922 Y40.5576
G01 X12.2335 Y40.5205
G01 X12.2735 Y40.4904
G01 X12.2823 Y40.4842
G01 X12.2915 Y40.4784
G01 X12.3251 Y40.4582
G01 X12.3393 Y40.4504
G01 X12.3896 Y40.4269
G01 X12.4366 Y40.4098
G01 X12.4521 Y40.4049
G01 X12.4954 Y40.3940
G01 X12.5112 Y40.3906
G01 X12.5607 Y40.3833
G01 X12.5769 Y40.3819
G01 X12.6269 Y40.3797
G01 X13.5777 Y40.3797
G01 X13.6067 Y40.3312
G01 X13.6156 Y40.3177
G01 X13.6804 Y40.2302
G01 X13.6909 Y40.2178
G01 X13.7605 Y40.1411
G01 X13.7720 Y40.1298
G01 X13.8529 Y40.0568
G01 X13.9403 Y39.9917
G01 X13.9536 Y39.9826
G01 X14.0424 Y39.9293
G01 X14.0518 Y39.9240
G01 X14.0614 Y39.9191
G01 X14.1600 Y39.8728
G01 X14.2625 Y39.8358
G01 X14.2727 Y39.8324
G01 X14.2832 Y39.8296
G01 X14.3889 Y39.8034
G01 X14.4966 Y39.7871
G01 X14.5127 Y39.7853
G01 X14.6269 Y39.7799
G01 X14.7357 Y39.7850
G01 X14.7465 Y39.7858
G01 X14.7572 Y39.7871
G01 X14.8649 Y39.8034
G01 X14.9706 Y39.8296
G01 X14.9810 Y39.8324
G01 X14.9913 Y39.8358
G01 X15.0837 Y39.8689
G01 X15.0938 Y39.8728
G01 X15.1036 Y39.8772
G01 X15.2020 Y39.9240
G01 X15.2114 Y39.9293
G01 X15.3047 Y39.9855
G01 X15.3135 Y39.9917
G01 X15.4009 Y40.0568
G01 X15.4817 Y40.1298
G01 X15.4896 Y40.1372
G01 X15.4970 Y40.1451
G01 X15.5700 Y40.2260
G01 X15.6351 Y40.3133
G01 X15.6413 Y40.3221
G01 X15.6471 Y40.3312
G01 X15.6975 Y40.4154
G01 X15.7028 Y40.4248
G01 X15.7077 Y40.4345
G01 X15.7540 Y40.5330
G01 X15.7910 Y40.6355
G01 X15.7959 Y40.6509
G01 X15.8235 Y40.7619
G01 X15.8397 Y40.8696
G01 X15.8410 Y40.8803
G01 X15.8418 Y40.8911
G01 X15.8469 Y40.9999
G01 X15.8418 Y41.1087
G01 X15.8410 Y41.1195
G01 X15.8397 Y41.1302
G01 X15.8235 Y41.2379
G01 X15.7972 Y41.3437
G01 X15.7944 Y41.3541
G01 X15.7910 Y41.3643
G01 X15.7540 Y41.4668
G01 X15.7077 Y41.5654
G01 X15.7028 Y41.5750
G01 X15.6975 Y41.5844
G01 X15.6413 Y41.6777
G01 X15.5766 Y41.7654
G01 X15.5700 Y41.7739
G01 X15.5629 Y41.7820
G01 X15.4896 Y41.8626
G01 X15.4090 Y41.9359
G01 X15.4009 Y41.9430
G01 X15.3923 Y41.9496
G01 X15.3047 Y42.0143
G01 X15.2114 Y42.0705
G01 X15.2020 Y42.0759
G01 X15.1924 Y42.0807
G01 X15.0938 Y42.1270
G01 X14.9913 Y42.1640
G01 X14.9759 Y42.1689
G01 X14.8649 Y42.1965
G01 X14.7572 Y42.2127
G01 X14.7465 Y42.2140
G01 X14.7357 Y42.2148
G01 X14.6269 Y42.2199
G01 X14.5181 Y42.2148
G01 X14.5073 Y42.2140
G01 X14.4966 Y42.2127
G01 X14.3889 Y42.1965
G01 X14.2832 Y42.1703
G01 X14.2727 Y42.1674
G01 X14.2625 Y42.1640
G01 X14.1600 Y42.1270
G01 X14.0614 Y42.0807
G01 X14.0518 Y42.0759
G01 X13.9582 Y42.0201
G01 X13.9491 Y42.0143
G01 X13.8571 Y41.9464
G01 X13.8448 Y41.9359
G01 X13.7642 Y41.8626
G01 X13.6873 Y41.7780
G01 X13.6772 Y41.7654
G01 X13.6156 Y41.6822
G01 X13.6067 Y41.6686
G01 X13.5777 Y41.6201
G01 X12.8838 Y41.6201
G01 X12.0654 Y42.4385
G01 X12.0245 Y42.4759
G01 X12.0118 Y42.4860
G01 X11.9714 Y42.5156
G01 X11.9286 Y42.5416
G01 X11.9192 Y42.5469
G01 X11.9096 Y42.5517
G01 X11.8642 Y42.5729
G01 X11.8172 Y42.5900
G01 X11.8017 Y42.5949
G01 X11.7532 Y42.6071
G01 X11.7372 Y42.6100
G01 X11.6877 Y42.6171
G01 X11.6377 Y42.6198
G01 X11.6269 Y42.6201
G01 X8.6123 Y42.6201
G00 Z2.0000
G00 X8.6585 Y42.7051
G01 F60.00
G01 Z0.0000
G01 F120.00
G01 X11.6269 Y42.7051
G01 X11.6418 Y42.7047
G01 X11.6811 Y42.7028
G01 X11.6960 Y42.7017
G01 X11.7109 Y42.6999
G01 X11.7497 Y42.6941
G01 X11.7718 Y42.6900
G01 X11.8244 Y42.6768
G01 X11.8458 Y42.6700
G01 X11.8828 Y42.6568
G01 X11.8968 Y42.6514
G01 X11.9104 Y42.6454
G01 X11.9459 Y42.6286
G01 X11.9659 Y42.6182
G01 X12.0060 Y42.5943
G01 X12.0187 Y42.5863
G01 X12.0309 Y42.5776
G01 X12.0625 Y42.5542
G01 X12.0800 Y42.5402
G01 X12.1147 Y42.5089
G01 X12.1255 Y42.4986
G01 X12.9190 Y41.7051
G01 X13.5295 Y41.7051
G01 X13.5377 Y41.7187
G01 X13.5461 Y41.7311
G01 X13.6089 Y41.8160
G01 X13.6181 Y41.8278
G01 X13.6279 Y41.8391
G01 X13.6938 Y41.9118
G01 X13.7041 Y41.9227
G01 X13.7150 Y41.9330
G01 X13.7877 Y41.9989
G01 X13.7990 Y42.0087
G01 X13.8108 Y42.0179
G01 X13.8896 Y42.0764
G01 X13.9019 Y42.0850
G01 X13.9145 Y42.0930
G01 X13.9987 Y42.1434
G01 X14.0117 Y42.1508
G01 X14.0251 Y42.1575
G01 X14.1138 Y42.1995
G01 X14.1275 Y42.2056
G01 X14.1415 Y42.2110
G01 X14.2339 Y42.2440
G01 X14.2481 Y42.2487
G01 X14.2625 Y42.2527
G01 X14.3577 Y42.2766
G01 X14.3723 Y42.2798
G01 X14.3871 Y42.2824
G01 X14.4841 Y42.2968
G01 X14.4990 Y42.2986
G01 X14.5139 Y42.2997
G01 X14.6119 Y42.3045
G01 X14.6269 Y42.3049
G01 X14.6419 Y42.3045
G01 X14.7399 Y42.2997
G01 X14.7548 Y42.2986
G01 X14.7697 Y42.2968
G01 X14.8667 Y42.2824
G01 X14.8815 Y42.2798
G01 X14.8961 Y42.2766
G01 X14.9913 Y42.2527
G01 X15.0057 Y42.2487
G01 X15.0199 Y42.2440
G01 X15.1123 Y42.2110
G01 X15.1263 Y42.2056
G01 X15.1400 Y42.1995
G01 X15.2354 Y42.1543
G01 X15.2551 Y42.1434
G01 X15.3393 Y42.0930
G01 X15.3519 Y42.0850
G01 X15.3642 Y42.0764
G01 X15.4430 Y42.0179
G01 X15.4548 Y42.0087
G01 X15.4661 Y41.9989
G01 X15.5388 Y41.9330
G01 X15.5497 Y41.9227
G01 X15.5600 Y41.9118
G01 X15.6259 Y41.8391
G01 X15.6357 Y41.8278
G01 X15.6449 Y41.8160
G01 X15.7033 Y41.7372
G01 X15.7120 Y41.7249
G01 X15.7200 Y41.7123
G01 X15.7704 Y41.6281
G01 X15.7778 Y41.6151
G01 X15.7845 Y41.6017
G01 X15.8265 Y41.5130
G01 X15.8326 Y41.4993
G01 X15.8379 Y41.4853
G01 X15.8710 Y41.3929
G01 X15.8757 Y41.3787
G01 X15.8797 Y41.3643
G01 X15.9035 Y41.2691
G01 X15.9068 Y41.2545
G01 X15.9094 Y41.2398
G01 X15.9238 Y41.1427
G01 X15.9256 Y41.1278
G01 X15.9267 Y41.1129
G01 X15.9315 Y41.0149
G01 X15.9319 Y40.9999
G01 X15.9315 Y40.9849
G01 X15.9267 Y40.8869
G01 X15.9256 Y40.8720
G01 X15.9238 Y40.8571
G01 X15.9082 Y40.7527
G01 X15.9035 Y40.7307
G01 X15.8797 Y40.6355
G01 X15.8757 Y40.6211
G01 X15.8710 Y40.6069
G01 X15.8379 Y40.5145
G01 X15.8326 Y40.5005
G01 X15.8265 Y40.4868
G01 X15.7845 Y40.3981
G01 X15.7778 Y40.3847
G01 X15.7704 Y40.3717
G01 X15.7200 Y40.2875
G01 X15.7120 Y40.2749
G01 X15.7033 Y40.2627
G01 X15.6449 Y40.1838
G01 X15.6357 Y40.1720
G01 X15.6259 Y40.1607
G01 X15.5600 Y40.0880
G01 X15.5443 Y40.0719
G01 X15.4661 Y40.0009
G01 X15.4548 Y39.9911
G01 X15.4430 Y39.9819
G01 X15.3642 Y39.9235
G01 X15.3519 Y39.9148
G01 X15.3393 Y39.9068
G01 X15.2551 Y39.8564
G01 X15.2421 Y39.8490
G01 X15.2287 Y39.8423
G01 X15.1400 Y39.8003
G01 X15.1263 Y39.7942
G01 X15.1123 Y39.7889
G01 X15.0199 Y39.7558
G01 X15.0057 Y39.7511
G01 X14.9913 Y39.7471
G01 X14.8961 Y39.7233
G01 X14.8815 Y39.7200
G01 X14.8667 Y39.7174
G01 X14.7836 Y39.7051
G01 X20.3348 Y39.7051
G01 X31.1283 Y50.4985
G01 X31.1391 Y50.5089
G01 X31.1682 Y50.5352
G01 X31.1795 Y50.5450
G01 X31.1913 Y50.5542
G01 X31.2229 Y50.5776
G01 X31.2351 Y50.5862
G01 X31.2478 Y50.5943
G01 X31.2815 Y50.6144
G01 X31.2945 Y50.6218
G01 X31.3079 Y50.6286
G01 X31.3434 Y50.6453
G01 X31.3570 Y50.6514
G01 X31.3710 Y50.6568
G01 X31.4080 Y50.6700
G01 X31.4222 Y50.6747
G01 X31.4366 Y50.6787
G01 X31.4747 Y50.6883
G01 X31.4893 Y50.6915
G01 X31.5041 Y50.6941
G01 X31.5429 Y50.6999
G01 X31.5578 Y50.7017
G01 X31.5727 Y50.7028
G01 X31.6119 Y50.7047
G01 X31.6269 Y50.7051
G01 X39.6268 Y50.7051
G01 X39.6418 Y50.7047
G01 X39.6810 Y50.7028
G01 X39.6959 Y50.7017
G01 X39.7108 Y50.6999
G01 X39.7496 Y50.6941
G01 X39.7644 Y50.6915
G01 X39.7790 Y50.6883
G01 X39.8243 Y50.6768
G01 X39.8457 Y50.6700
G01 X39.8827 Y50.6568
G01 X39.8967 Y50.6514
G01 X39.9103 Y50.6453
G01 X39.9458 Y50.6286
G01 X39.9658 Y50.6182
G01 X40.0059 Y50.5943
G01 X40.0186 Y50.5862
G01 X40.0308 Y50.5776
G01 X40.0683 Y50.5497
G01 X40.0855 Y50.5352
G01 X40.1146 Y50.5089
G01 X40.1254 Y50.4985
G01 X41.2407 Y49.3832
G01 X41.2722 Y49.3486
G01 X41.2819 Y49.3373
G01 X41.2911 Y49.3255
G01 X41.3145 Y49.2939
G01 X41.3272 Y49.2754
G01 X41.3551 Y49.2289
G01 X41.3655 Y49.2089
G01 X41.3823 Y49.1734
G01 X41.3883 Y49.1598
G01 X41.4026 Y49.1209
G01 X41.4492 Y49.0930
G01 X41.4680 Y49.0807
G01 X41.5589 Y49.0134
G01 X41.5760 Y48.9989
G01 X41.6542 Y48.9279
G01 X41.6699 Y48.9118
G01 X41.7358 Y48.8391
G01 X41.7456 Y48.8278
G01 X41.7548 Y48.8160
G01 X41.8177 Y48.7311
G01 X41.8299 Y48.7123
G01 X41.8804 Y48.6281
G01 X41.8877 Y48.6151
G01 X41.8945 Y48.6017
G01 X41.9395 Y48.5062
G01 X41.9479 Y48.4853
G01 X41.9834 Y48.3859
G01 X41.9896 Y48.3643
G01 X42.0068 Y48.2956
G01 X42.0240 Y48.3643
G01 X42.0303 Y48.3859
G01 X42.0684 Y48.4924
G01 X42.0741 Y48.5062
G01 X42.0895 Y48.5389
G01 X39.3347 Y51.2937
G01 X30.9198 Y51.2936
G01 X26.1679 Y46.5420
G01 X26.1334 Y46.5105
G01 X26.1220 Y46.5007
G01 X26.1102 Y46.4915
G01 X26.0787 Y46.4681
G01 X26.0602 Y46.4554
G01 X26.0201 Y46.4313
G01 X26.0071 Y46.4239
G01 X25.9937 Y46.4172
G01 X25.9514 Y46.3973
G01 X25.9306 Y46.3889
G01 X25.8936 Y46.3757
G01 X25.8794 Y46.3710
G01 X25.8649 Y46.3670
G01 X25.8268 Y46.3575
G01 X25.8049 Y46.3528
G01 X25.7586 Y46.3459
G01 X25.7438 Y46.3440
G01 X25.7288 Y46.3429
G01 X25.6896 Y46.3410
G01 X25.6747 Y46.3407
G01 X8.6799 Y46.3406
G01 X8.6721 Y46.3279
G01 X8.6638 Y46.3154
G01 X8.5964 Y46.2246
G01 X8.5820 Y46.2074
G01 X8.5110 Y46.1292
G01 X8.4949 Y46.1135
G01 X8.4222 Y46.0476
G01 X8.4109 Y46.0379
G01 X8.3991 Y46.0287
G01 X8.3142 Y45.9658
G01 X8.2953 Y45.9536
G01 X8.2112 Y45.9031
G01 X8.1981 Y45.8957
G01 X8.1848 Y45.8890
G01 X8.0893 Y45.8439
G01 X8.0684 Y45.8356
G01 X7.9689 Y45.8001
G01 X7.9474 Y45.7938
G01 X7.8787 Y45.7766
G01 X7.9474 Y45.7594
G01 X7.9618 Y45.7554
G01 X7.9760 Y45.7508
G01 X8.0754 Y45.7151
G01 X8.0961 Y45.7062
G01 X8.1848 Y45.6643
G01 X8.2047 Y45.6539
G01 X8.2953 Y45.5997
G01 X8.3080 Y45.5917
G01 X8.3202 Y45.5831
G01 X8.3991 Y45.5246
G01 X8.4109 Y45.5154
G01 X8.4222 Y45.5056
G01 X8.4949 Y45.4397
G01 X8.5057 Y45.4294
G01 X8.5161 Y45.4186
G01 X8.5820 Y45.3459
G01 X8.5918 Y45.3345
G01 X8.6010 Y45.3227
G01 X8.6594 Y45.2439
G01 X8.6680 Y45.2317
G01 X8.6761 Y45.2190
G01 X8.7265 Y45.1348
G01 X8.7373 Y45.1152
G01 X8.7826 Y45.0197
G01 X8.7886 Y45.0060
G01 X8.7940 Y44.9921
G01 X8.8295 Y44.8926
G01 X8.8358 Y44.8710
G01 X8.8613 Y44.7686
G01 X8.8643 Y44.7539
G01 X8.8716 Y44.7051
G01 X17.5295 Y44.7051
G01 X17.5418 Y44.7249
G01 X17.5504 Y44.7372
G01 X17.6089 Y44.8160
G01 X17.6181 Y44.8278
G01 X17.6279 Y44.8391
G01 X17.6938 Y44.9118
G01 X17.7041 Y44.9227
G01 X17.7150 Y44.9330
G01 X17.7877 Y44.9989
G01 X17.7990 Y45.0087
G01 X17.8108 Y45.0179
G01 X17.8896 Y45.0764
G01 X17.9019 Y45.0850
G01 X17.9145 Y45.0930
G01 X17.9987 Y45.1434
G01 X18.0117 Y45.1508
G01 X18.0251 Y45.1575
G01 X18.1138 Y45.1995
G01 X18.1275 Y45.2056
G01 X18.1415 Y45.2110
G01 X18.2339 Y45.2440
G01 X18.2481 Y45.2487
G01 X18.2625 Y45.2527
G01 X18.3577 Y45.2766
G01 X18.3723 Y45.2798
G01 X18.3871 Y45.2824
G01 X18.4841 Y45.2968
G01 X18.4990 Y45.2986
G01 X18.5139 Y45.2997
G01 X18.6119 Y45.3045
G01 X18.6269 Y45.3049
G01 X18.6419 Y45.3045
G01 X18.7399 Y45.2997
G01 X18.7548 Y45.2986
G01 X18.7697 Y45.2968
G01 X18.8667 Y45.2824
G01 X18.8815 Y45.2798
G01 X18.8961 Y45.2766
G01 X18.9985 Y45.2508
G01 X19.0199 Y45.2440
G01 X19.1123 Y45.2110
G01 X19.1263 Y45.2056
G01 X19.1400 Y45.1995
G01 X19.2287 Y45.1575
G01 X19.2421 Y45.1508
G01 X19.2551 Y45.1434
G01 X19.3393 Y45.0930
G01 X19.3519 Y45.0850
G01 X19.3642 Y45.0764
G01 X19.4430 Y45.0179
G01 X19.4548 Y45.0087
G01 X19.4661 Y44.9989
G01 X19.5388 Y44.9330
G01 X19.5497 Y44.9227
G01 X19.5600 Y44.9118
G01 X19.6259 Y44.8391
G01 X19.6357 Y44.8278
G01 X19.6449 Y44.8160
G01 X19.7033 Y44.7372
G01 X19.7120 Y44.7249
G01 X19.7200 Y44.7123
G01 X19.7704 Y44.6281
G01 X19.7778 Y44.6151
G01 X19.7845 Y44.6017
G01 X19.8265 Y44.5130
G01 X19.8326 Y44.4993
G01 X19.8379 Y44.4853
G01 X19.8710 Y44.3929
G01 X19.8757 Y44.3787
G01 X19.8797 Y44.3643
G01 X19.9035 Y44.2691
G01 X19.9068 Y44.2545
G01 X19.9094 Y44.2398
G01 X19.9238 Y44.1427
G01 X19.9256 Y44.1278
G01 X19.9267 Y44.1129
G01 X19.9315 Y44.0149
G01 X19.9319 Y43.9999
G01 X19.9315 Y43.9849
G01 X19.9267 Y43.8869
G01 X19.9256 Y43.8720
G01 X19.9238 Y43.8571
G01 X19.9094 Y43.7601
G01 X19.9068 Y43.7453
G01 X19.9035 Y43.7307
G01 X19.8797 Y43.6355
G01 X19.8757 Y43.6211
G01 X19.8710 Y43.6069
G01 X19.8379 Y43.5145
G01 X19.8326 Y43.5005
G01 X19.8265 Y43.4868
G01 X19.7845 Y43.3981
G01 X19.7778 Y43.3847
G01 X19.7704 Y43.3717
G01 X19.7200 Y43.2875
G01 X19.7120 Y43.2749
G01 X19.7033 Y43.2627
G01 X19.6449 Y43.1838
G01 X19.6357 Y43.1720
G01 X19.6259 Y43.1607
G01 X19.5600 Y43.0880
G01 X19.5497 Y43.0771
G01 X19.5388 Y43.0668
G01 X19.4661 Y43.0009
G01 X19.4548 Y42.9911
G01 X19.4430 Y42.9819
G01 X19.3642 Y42.9235
G01 X19.3519 Y42.9148
G01 X19.3393 Y42.9068
G01 X19.2551 Y42.8564
G01 X19.2421 Y42.8490
G01 X19.2287 Y42.8423
G01 X19.1400 Y42.8003
G01 X19.1193 Y42.7915
G01 X19.0199 Y42.7558
G01 X19.0057 Y42.7511
G01 X18.9913 Y42.7471
G01 X18.8961 Y42.7233
G01 X18.8815 Y42.7200
G01 X18.8667 Y42.7174
G01 X18.7697 Y42.7030
G01 X18.7548 Y42.7012
G01 X18.7399 Y42.7001
G01 X18.6419 Y42.6953
G01 X18.6269 Y42.6949
G01 X18.6119 Y42.6953
G01 X18.5139 Y42.7001
G01 X18.4990 Y42.7012
G01 X18.4841 Y42.7030
G01 X18.3871 Y42.7174
G01 X18.3723 Y42.7200
G01 X18.3577 Y42.7233
G01 X18.2625 Y42.7471
G01 X18.2481 Y42.7511
G01 X18.2339 Y42.7558
G01 X18.1415 Y42.7889
G01 X18.1275 Y42.7942
G01 X18.1138 Y42.8003
G01 X18.0251 Y42.8423
G01 X18.0117 Y42.8490
G01 X17.9987 Y42.8564
G01 X17.9145 Y42.9068
G01 X17.9019 Y42.9148
G01 X17.8896 Y42.9235
G01 X17.8108 Y42.9819
G01 X17.7990 Y42.9911
G01 X17.7877 Y43.0009
G01 X17.7150 Y43.0668
G01 X17.7041 Y43.0771
G01 X17.6938 Y43.0880
G01 X17.6279 Y43.1607
G01 X17.6181 Y43.1720
G01 X17.6089 Y43.1838
G01 X17.5504 Y43.2627
G01 X17.5418 Y43.2749
G01 X17.5295 Y43.2947
G01 X8.0898 Y43.2947
G01 X8.0679 Y43.2954
G01 X7.9760 Y43.2625
G01 X7.9618 Y43.2578
G01 X7.9474 Y43.2538
G01 X7.8787 Y43.2366
G01 X7.9474 Y43.2194
G01 X7.9689 Y43.2132
G01 X8.0684 Y43.1777
G01 X8.0893 Y43.1694
G01 X8.1848 Y43.1243
G01 X8.1981 Y43.1175
G01 X8.2112 Y43.1102
G01 X8.2953 Y43.0597
G01 X8.3080 Y43.0517
G01 X8.3202 Y43.0431
G01 X8.3991 Y42.9846
G01 X8.4109 Y42.9754
G01 X8.4222 Y42.9656
G01 X8.4949 Y42.8997
G01 X8.5057 Y42.8894
G01 X8.5161 Y42.8786
G01 X8.5820 Y42.8059
G01 X8.5918 Y42.7945
G01 X8.6010 Y42.7827
G01 X8.6585 Y42.7051
G00 Z2.0000
G00 X8.0538 Y43.3812
G01 F60.00
G01 Z0.0000
G01 F120.00
G01 X8.0898 Y43.3797
G01 X17.5777 Y43.3797
G01 X17.6067 Y43.3312
G01 X17.6156 Y43.3177
G01 X17.6804 Y43.2302
G01 X17.6909 Y43.2178
G01 X17.7568 Y43.1451
G01 X17.7681 Y43.1335
G01 X17.8529 Y43.0568
G01 X17.9403 Y42.9917
G01 X17.9491 Y42.9855
G01 X17.9582 Y42.9797
G01 X18.0424 Y42.9293
G01 X18.0566 Y42.9215
G01 X18.1600 Y42.8728
G01 X18.2625 Y42.8358
G01 X18.2727 Y42.8324
G01 X18.2832 Y42.8296
G01 X18.3889 Y42.8034
G01 X18.4966 Y42.7871
G01 X18.5073 Y42.7858
G01 X18.5181 Y42.7850
G01 X18.6269 Y42.7799
G01 X18.7411 Y42.7853
G01 X18.7572 Y42.7871
G01 X18.8649 Y42.8034
G01 X18.9706 Y42.8296
G01 X18.9810 Y42.8324
G01 X18.9913 Y42.8358
G01 X19.0938 Y42.8728
G01 X19.1924 Y42.9191
G01 X19.2020 Y42.9240
G01 X19.2114 Y42.9293
G01 X19.3047 Y42.9855
G01 X19.3135 Y42.9917
G01 X19.4009 Y43.0568
G01 X19.4817 Y43.1298
G01 X19.4896 Y43.1372
G01 X19.4970 Y43.1451
G01 X19.5700 Y43.2260
G01 X19.5766 Y43.2345
G01 X19.6413 Y43.3221
G01 X19.6975 Y43.4154
G01 X19.7028 Y43.4248
G01 X19.7077 Y43.4345
G01 X19.7540 Y43.5330
G01 X19.7910 Y43.6355
G01 X19.7944 Y43.6458
G01 X19.7972 Y43.6562
G01 X19.8235 Y43.7619
G01 X19.8397 Y43.8696
G01 X19.8410 Y43.8803
G01 X19.8466 Y43.9891
G01 X19.8469 Y43.9999
G01 X19.8415 Y44.1141
G01 X19.8397 Y44.1302
G01 X19.8235 Y44.2379
G01 X19.7972 Y44.3437
G01 X19.7944 Y44.3541
G01 X19.7910 Y44.3643
G01 X19.7579 Y44.4567
G01 X19.7540 Y44.4668
G01 X19.7497 Y44.4767
G01 X19.7028 Y44.5750
G01 X19.6975 Y44.5844
G01 X19.6413 Y44.6777
G01 X19.5766 Y44.7654
G01 X19.5700 Y44.7739
G01 X19.5629 Y44.7820
G01 X19.4896 Y44.8626
G01 X19.4090 Y44.9359
G01 X19.4009 Y44.9430
G01 X19.3135 Y45.0081
G01 X19.3047 Y45.0143
G01 X19.2956 Y45.0201
G01 X19.2114 Y45.0705
G01 X19.2020 Y45.0759
G01 X19.1924 Y45.0807
G01 X19.0938 Y45.1270
G01 X19.0837 Y45.1309
G01 X18.9810 Y45.1674
G01 X18.8754 Y45.1941
G01 X18.8649 Y45.1965
G01 X18.7518 Y45.2134
G01 X18.7357 Y45.2148
G01 X18.6377 Y45.2196
G01 X18.6269 Y45.2199
G01 X18.6161 Y45.2196
G01 X18.5073 Y45.2140
G01 X18.4966 Y45.2127
G01 X18.3889 Y45.1965
G01 X18.2832 Y45.1703
G01 X18.2727 Y45.1674
G01 X18.2625 Y45.1640
G01 X18.1600 Y45.1270
G01 X18.0566 Y45.0783
G01 X18.0424 Y45.0705
G01 X17.9582 Y45.0201
G01 X17.9491 Y45.0143
G01 X17.9403 Y45.0081
G01 X17.8529 Y44.9430
G01 X17.7681 Y44.8664
G01 X17.7568 Y44.8548
G01 X17.6909 Y44.7820
G01 X17.6804 Y44.7697
G01 X17.6156 Y44.6822
G01 X17.6067 Y44.6686
G01 X17.5777 Y44.6201
G01 X8.7976 Y44.6201
G01 X8.7958 Y44.6369
G01 X8.7795 Y44.7447
G01 X8.7533 Y44.8504
G01 X8.7504 Y44.8608
G01 X8.7471 Y44.8710
G01 X8.7101 Y44.9735
G01 X8.6638 Y45.0721
G01 X8.6589 Y45.0817
G01 X8.6536 Y45.0911
G01 X8.6031 Y45.1753
G01 X8.5974 Y45.1844
G01 X8.5911 Y45.1933
G01 X8.5260 Y45.2806
G01 X8.5190 Y45.2888
G01 X8.4456 Y45.3693
G01 X8.3651 Y45.4427
G01 X8.3569 Y45.4497
G01 X8.2696 Y45.5148
G01 X8.2608 Y45.5210
G01 X8.2516 Y45.5268
G01 X8.1675 Y45.5773
G01 X8.1581 Y45.5826
G01 X8.1484 Y45.5874
G01 X8.0498 Y45.6338
G01 X7.9474 Y45.6707
G01 X7.9371 Y45.6741
G01 X7.9267 Y45.6770
G01 X7.8210 Y45.7032
G01 X7.7133 Y45.7194
G01 X7.7026 Y45.7208
G01 X7.6918 Y45.7216
G01 X7.5830 Y45.7266
G01 X7.4742 Y45.7216
G01 X7.4634 Y45.7208
G01 X7.4527 Y45.7194
G01 X7.3450 Y45.7032
G01 X7.2392 Y45.6770
G01 X7.2288 Y45.6741
G01 X7.2186 Y45.6707
G01 X7.1161 Y45.6338
G01 X7.0175 Y45.5874
G01 X7.0079 Y45.5826
G01 X6.9985 Y45.5773
G01 X6.9052 Y45.5210
G01 X6.8963 Y45.5148
G01 X6.8090 Y45.4497
G01 X6.7281 Y45.3768
G01 X6.7203 Y45.3693
G01 X6.7129 Y45.3615
G01 X6.6399 Y45.2806
G01 X6.6333 Y45.2721
G01 X6.5686 Y45.1844
G01 X6.5124 Y45.0911
G01 X6.5070 Y45.0817
G01 X6.5022 Y45.0721
G01 X6.4558 Y44.9735
G01 X6.4189 Y44.8710
G01 X6.4155 Y44.8608
G01 X6.4126 Y44.8504
G01 X6.3864 Y44.7447
G01 X6.3702 Y44.6369
G01 X6.3688 Y44.6262
G01 X6.3632 Y44.5174
G01 X6.3630 Y44.5066
G01 X6.3632 Y44.4958
G01 X6.3688 Y44.3871
G01 X6.3846 Y44.2793
G01 X6.3864 Y44.2686
G01 X6.4126 Y44.1629
G01 X6.4155 Y44.1525
G01 X6.4189 Y44.1422
G01 X6.4558 Y44.0398
G01 X6.5022 Y43.9412
G01 X6.5070 Y43.9315
G01 X6.5124 Y43.9221
G01 X6.5686 Y43.8288
G01 X6.6333 Y43.7412
G01 X6.6399 Y43.7327
G01 X6.6470 Y43.7245
G01 X6.7203 Y43.6440
G01 X6.8008 Y43.5706
G01 X6.8090 Y43.5636
G01 X6.8175 Y43.5569
G01 X6.9052 Y43.4922
G01 X6.9143 Y43.4865
G01 X7.0079 Y43.4307
G01 X7.1062 Y43.3839
G01 X7.1161 Y43.3795
G01 X7.2186 Y43.3426
G01 X7.2288 Y43.3392
G01 X7.3344 Y43.3124
G01 X7.3450 Y43.3101
G01 X7.4527 Y43.2938
G01 X7.4634 Y43.2925
G01 X7.4742 Y43.2917
G01 X7.5830 Y43.2866
G01 X7.6918 Y43.2917
G01 X7.7026 Y43.2925
G01 X7.7133 Y43.2938
G01 X7.8210 Y43.3101
G01 X7.9267 Y43.3363
G01 X7.9371 Y43.3392
G01 X8.0398 Y43.3756
G01 X8.0538 Y43.3812
G00 Z2.0000
G00 X8.0373 Y43.4673
G01 F60.00
G01 Z0.0000
G01 F120.00
G01 X8.0898 Y43.4647
G01 X17.6260 Y43.4647
G01 X17.6832 Y43.3693
G01 X17.7455 Y43.2851
G01 X17.7539 Y43.2749
G01 X17.8243 Y43.1973
G01 X17.9018 Y43.1269
G01 X17.9121 Y43.1185
G01 X17.9963 Y43.0562
G01 X18.0919 Y42.9989
G01 X18.1925 Y42.9513
G01 X18.2911 Y42.9159
G01 X18.3038 Y42.9120
G01 X18.4055 Y42.8867
G01 X18.5091 Y42.8712
G01 X18.5223 Y42.8699
G01 X18.6269 Y42.8649
G01 X18.7315 Y42.8699
G01 X18.7447 Y42.8712
G01 X18.8483 Y42.8867
G01 X18.9564 Y42.9138
G01 X19.0612 Y42.9513
G01 X19.1619 Y42.9989
G01 X19.2575 Y43.0562
G01 X19.3469 Y43.1225
G01 X19.4295 Y43.1973
G01 X19.5043 Y43.2799
G01 X19.5706 Y43.3693
G01 X19.6279 Y43.4649
G01 X19.6755 Y43.5656
G01 X19.7130 Y43.6704
G01 X19.7401 Y43.7785
G01 X19.7564 Y43.8887
G01 X19.7619 Y43.9999
G01 X19.7569 Y44.1046
G01 X19.7556 Y44.1177
G01 X19.7401 Y44.2213
G01 X19.7148 Y44.3230
G01 X19.7109 Y44.3357
G01 X19.6779 Y44.4281
G01 X19.6728 Y44.4403
G01 X19.6279 Y44.5349
G01 X19.5706 Y44.6305
G01 X19.5043 Y44.7199
G01 X19.4295 Y44.8025
G01 X19.3469 Y44.8773
G01 X19.2629 Y44.9398
G01 X19.2519 Y44.9472
G01 X19.1677 Y44.9976
G01 X19.1560 Y45.0039
G01 X19.0612 Y45.0485
G01 X18.9564 Y45.0860
G01 X18.8483 Y45.1131
G01 X18.7414 Y45.1291
G01 X18.7315 Y45.1299
G01 X18.6335 Y45.1347
G01 X18.6203 Y45.1347
G01 X18.5156 Y45.1294
G01 X18.4055 Y45.1131
G01 X18.3038 Y45.0878
G01 X18.2911 Y45.0840
G01 X18.1925 Y45.0485
G01 X18.0919 Y45.0009
G01 X18.0019 Y44.9472
G01 X17.9909 Y44.9398
G01 X17.9069 Y44.8773
G01 X17.8243 Y44.8025
G01 X17.7539 Y44.7250
G01 X17.7455 Y44.7147
G01 X17.6832 Y44.6305
G01 X17.6260 Y44.5351
G01 X8.7167 Y44.5351
G01 X8.7125 Y44.6179
G01 X8.6973 Y44.7215
G01 X8.6947 Y44.7345
G01 X8.6700 Y44.8329
G01 X8.6670 Y44.8424
G01 X8.6316 Y44.9410
G01 X8.5869 Y45.0358
G01 X8.5824 Y45.0446
G01 X8.5302 Y45.1316
G01 X8.5229 Y45.1426
G01 X8.4603 Y45.2267
G01 X8.3901 Y45.3044
G01 X8.3807 Y45.3138
G01 X8.3030 Y45.3840
G01 X8.2190 Y45.4465
G01 X8.2108 Y45.4522
G01 X8.1238 Y45.5044
G01 X8.1121 Y45.5106
G01 X8.0173 Y45.5552
G01 X7.9187 Y45.5907
G01 X7.9061 Y45.5945
G01 X7.8044 Y45.6198
G01 X7.6942 Y45.6362
G01 X7.5830 Y45.6416
G01 X7.4783 Y45.6367
G01 X7.4651 Y45.6354
G01 X7.3615 Y45.6198
G01 X7.2599 Y45.5945
G01 X7.2472 Y45.5907
G01 X7.1486 Y45.5552
G01 X7.0479 Y45.5076
G01 X6.9524 Y45.4504
G01 X6.8629 Y45.3840
G01 X6.7804 Y45.3092
G01 X6.7056 Y45.2267
G01 X6.6393 Y45.1372
G01 X6.5820 Y45.0417
G01 X6.5344 Y44.9410
G01 X6.4968 Y44.8361
G01 X6.4698 Y44.7281
G01 X6.4534 Y44.6179
G01 X6.4480 Y44.5066
G01 X6.4534 Y44.3954
G01 X6.4698 Y44.2852
G01 X6.4968 Y44.1772
G01 X6.5344 Y44.0723
G01 X6.5820 Y43.9716
G01 X6.6393 Y43.8761
G01 X6.7056 Y43.7866
G01 X6.7804 Y43.7041
G01 X6.8629 Y43.6293
G01 X6.9524 Y43.5629
G01 X7.0479 Y43.5057
G01 X7.1486 Y43.4580
G01 X7.2535 Y43.4205
G01 X7.3615 Y43.3934
G01 X7.4717 Y43.3771
G01 X7.5830 Y43.3716
G01 X7.6942 Y43.3771
G01 X7.8044 Y43.3934
G01 X7.9061 Y43.4187
G01 X7.9156 Y43.4215
G01 X8.0142 Y43.4568
G01 X8.0373 Y43.4673
G00 Z2.0000
G00 X8.6303 Y44.4501
G01 F60.00
G01 Z0.0000
G01 F120.00
G01 X8.6330 Y44.5079
G01 X8.6278 Y44.6108
G01 X8.6128 Y44.7115
G01 X8.5874 Y44.8126
G01 X8.5530 Y44.9085
G01 X8.5090 Y45.0016
G01 X8.4560 Y45.0900
G01 X8.3938 Y45.1737
G01 X8.3254 Y45.2491
G01 X8.2491 Y45.3183
G01 X8.1663 Y45.3797
G01 X8.0779 Y45.4327
G01 X7.9848 Y45.4767
G01 X7.8878 Y45.5114
G01 X7.7878 Y45.5365
G01 X7.6847 Y45.5517
G01 X7.5830 Y45.5566
G01 X7.4801 Y45.5516
G01 X7.3781 Y45.5365
G01 X7.2782 Y45.5114
G01 X7.1812 Y45.4767
G01 X7.0880 Y45.4327
G01 X6.9996 Y45.3797
G01 X6.9169 Y45.3183
G01 X6.8405 Y45.2491
G01 X6.7713 Y45.1728
G01 X6.7099 Y45.0900
G01 X6.6570 Y45.0016
G01 X6.6129 Y44.9085
G01 X6.5782 Y44.8114
G01 X6.5531 Y44.7115
G01 X6.5379 Y44.6083
G01 X6.5330 Y44.5066
G01 X6.5380 Y44.4037
G01 X6.5531 Y44.3018
G01 X6.5782 Y44.2018
G01 X6.6129 Y44.1048
G01 X6.6570 Y44.0117
G01 X6.7099 Y43.9233
G01 X6.7729 Y43.8387
G01 X6.8405 Y43.7642
G01 X6.9169 Y43.6950
G01 X6.9996 Y43.6336
G01 X7.0902 Y43.5795
G01 X7.1812 Y43.5366
G01 X7.2758 Y43.5026
G01 X7.3757 Y43.4774
G01 X7.4801 Y43.4617
G01 X7.5805 Y43.4567
G01 X7.6859 Y43.4617
G01 X7.7890 Y43.4771
G01 X7.8889 Y43.5022
G01 X7.9837 Y43.5361
G01 X8.0240 Y43.5550
G01 X8.0469 Y43.5518
G01 X8.0898 Y43.5497
G01 X17.6796 Y43.5497
G01 X17.7015 Y43.5039
G01 X17.7532 Y43.4176
G01 X17.8160 Y43.3329
G01 X17.8844 Y43.2574
G01 X17.9589 Y43.1899
G01 X18.0446 Y43.1262
G01 X18.1319 Y43.0739
G01 X18.2228 Y43.0308
G01 X18.3221 Y42.9951
G01 X18.4220 Y42.9701
G01 X18.5215 Y42.9553
G01 X18.6293 Y42.9500
G01 X18.7298 Y42.9550
G01 X18.8317 Y42.9701
G01 X18.9317 Y42.9951
G01 X19.0287 Y43.0298
G01 X19.1219 Y43.0739
G01 X19.2102 Y43.1269
G01 X19.2930 Y43.1882
G01 X19.3694 Y43.2574
G01 X19.4386 Y43.3338
G01 X19.4999 Y43.4166
G01 X19.5529 Y43.5049
G01 X19.5970 Y43.5981
G01 X19.6317 Y43.6951
G01 X19.6567 Y43.7951
G01 X19.6718 Y43.8970
G01 X19.6768 Y43.9975
G01 X19.6718 Y44.1028
G01 X19.6567 Y44.2048
G01 X19.6317 Y44.3047
G01 X19.5970 Y44.4017
G01 X19.5529 Y44.4949
G01 X19.4999 Y44.5833
G01 X19.4386 Y44.6660
G01 X19.3694 Y44.7424
G01 X19.2930 Y44.8116
G01 X19.2102 Y44.8730
G01 X19.1219 Y44.9259
G01 X19.0287 Y44.9700
G01 X18.9317 Y45.0047
G01 X18.8317 Y45.0297
G01 X18.7298 Y45.0449
G01 X18.6293 Y45.0498
G01 X18.5215 Y45.0446
G01 X18.4220 Y45.0297
G01 X18.3221 Y45.0047
G01 X18.2228 Y44.9690
G01 X18.1319 Y44.9259
G01 X18.0446 Y44.8736
G01 X17.9589 Y44.8100
G01 X17.8844 Y44.7424
G01 X17.8160 Y44.6670
G01 X17.7532 Y44.5822
G01 X17.7015 Y44.4960
G01 X17.6796 Y44.4501
G01 X8.6303 Y44.4501
G00 Z2.0000
G00 X8.6317 Y46.4256
G01 F60.00
G01 Z0.0000
G01 F120.00
G01 X25.6747 Y46.4257
G01 X25.7247 Y46.4278
G01 X25.7354 Y46.4286
G01 X25.7850 Y46.4357
G01 X25.8009 Y46.4387
G01 X25.8547 Y46.4524
G01 X25.9019 Y46.4690
G01 X25.9120 Y46.4729
G01 X25.9219 Y46.4772
G01 X25.9670 Y46.4989
G01 X26.0101 Y46.5244
G01 X26.0192 Y46.5302
G01 X26.0280 Y46.5364
G01 X26.0681 Y46.5664
G01 X26.1093 Y46.6035
G01 X30.8845 Y51.3786
G01 X39.3699 Y51.3787
G01 X42.1919 Y48.5567
G01 X42.1497 Y48.4668
G01 X42.1458 Y48.4567
G01 X42.1094 Y48.3540
G01 X42.0826 Y48.2484
G01 X42.0803 Y48.2379
G01 X42.0784 Y48.2273
G01 X42.0627 Y48.1195
G01 X42.0571 Y48.0107
G01 X42.0568 Y47.9999
G01 X42.0571 Y47.9891
G01 X42.0627 Y47.8803
G01 X42.0784 Y47.7725
G01 X42.0803 Y47.7619
G01 X42.1065 Y47.6562
G01 X42.1094 Y47.6458
G01 X42.1127 Y47.6355
G01 X42.1458 Y47.5431
G01 X42.1497 Y47.5330
G01 X42.1541 Y47.5232
G01 X42.2009 Y47.4248
G01 X42.2567 Y47.3312
G01 X42.2624 Y47.3221
G01 X42.2686 Y47.3133
G01 X42.3338 Y47.2259
G01 X42.3408 Y47.2178
G01 X42.4142 Y47.1372
G01 X42.4220 Y47.1298
G01 X42.5029 Y47.0568
G01 X42.5902 Y46.9917
G01 X42.5990 Y46.9855
G01 X42.6923 Y46.9293
G01 X42.7017 Y46.9240
G01 X42.7114 Y46.9191
G01 X42.8099 Y46.8728
G01 X42.9124 Y46.8358
G01 X42.9227 Y46.8324
G01 X42.9331 Y46.8296
G01 X43.0388 Y46.8033
G01 X43.1465 Y46.7871
G01 X43.1572 Y46.7858
G01 X43.1680 Y46.7850
G01 X43.2768 Y46.7799
G01 X43.3856 Y46.7850
G01 X43.3964 Y46.7858
G01 X43.4071 Y46.7871
G01 X43.5148 Y46.8033
G01 X43.5254 Y46.8057
G01 X43.6310 Y46.8324
G01 X43.7336 Y46.8689
G01 X43.7437 Y46.8728
G01 X43.7536 Y46.8771
G01 X43.8519 Y46.9240
G01 X43.9455 Y46.9797
G01 X43.9546 Y46.9855
G01 X43.9634 Y46.9917
G01 X44.0508 Y47.0568
G01 X44.1317 Y47.1298
G01 X44.1395 Y47.1372
G01 X44.2128 Y47.2178
G01 X44.2199 Y47.2259
G01 X44.2265 Y47.2345
G01 X44.2912 Y47.3221
G01 X44.3474 Y47.4154
G01 X44.3528 Y47.4248
G01 X44.3576 Y47.4344
G01 X44.3996 Y47.5232
G01 X44.4040 Y47.5330
G01 X44.4078 Y47.5431
G01 X44.4443 Y47.6458
G01 X44.4710 Y47.7514
G01 X44.4734 Y47.7619
G01 X44.4752 Y47.7725
G01 X44.4909 Y47.8803
G01 X44.4966 Y47.9891
G01 X44.4968 Y47.9999
G01 X44.4966 Y48.0107
G01 X44.4909 Y48.1195
G01 X44.4752 Y48.2273
G01 X44.4734 Y48.2379
G01 X44.4710 Y48.2484
G01 X44.4443 Y48.3540
G01 X44.4409 Y48.3643
G01 X44.4040 Y48.4668
G01 X44.3576 Y48.5654
G01 X44.3528 Y48.5750
G01 X44.3474 Y48.5844
G01 X44.2912 Y48.6777
G01 X44.2265 Y48.7653
G01 X44.2199 Y48.7739
G01 X44.2128 Y48.7820
G01 X44.1395 Y48.8626
G01 X44.1317 Y48.8700
G01 X44.0508 Y48.9430
G01 X43.9634 Y49.0081
G01 X43.9546 Y49.0143
G01 X43.8613 Y49.0705
G01 X43.8519 Y49.0758
G01 X43.8423 Y49.0807
G01 X43.7437 Y49.1270
G01 X43.6412 Y49.1640
G01 X43.6310 Y49.1674
G01 X43.5254 Y49.1941
G01 X43.5148 Y49.1965
G01 X43.5042 Y49.1983
G01 X43.3964 Y49.2140
G01 X43.2830 Y49.2198
G01 X40.0615 Y52.4412
G01 X40.0284 Y52.4712
G01 X40.0160 Y52.4816
G01 X39.9758 Y52.5115
G01 X39.9622 Y52.5203
G01 X39.9192 Y52.5458
G01 X39.8740 Y52.5675
G01 X39.8591 Y52.5738
G01 X39.8120 Y52.5907
G01 X39.7964 Y52.5952
G01 X39.7583 Y52.6048
G01 X39.7478 Y52.6071
G01 X39.7371 Y52.6090
G01 X39.6876 Y52.6161
G01 X39.6376 Y52.6188
G01 X39.6268 Y52.6190
G01 X30.6277 Y52.6190
G01 X30.6169 Y52.6188
G01 X30.5669 Y52.6161
G01 X30.5173 Y52.6090
G01 X30.5067 Y52.6071
G01 X30.4580 Y52.5952
G01 X30.4476 Y52.5923
G01 X30.4004 Y52.5757
G01 X30.3903 Y52.5718
G01 X30.3804 Y52.5675
G01 X30.3353 Y52.5458
G01 X30.2922 Y52.5203
G01 X30.2831 Y52.5145
G01 X30.2743 Y52.5083
G01 X30.2342 Y52.4783
G01 X30.1930 Y52.4412
G01 X25.4178 Y47.6661
G01 X8.6327 Y47.6660
G01 X8.6031 Y47.7153
G01 X8.5943 Y47.7289
G01 X8.5294 Y47.8164
G01 X8.5190 Y47.8288
G01 X8.4531 Y47.9015
G01 X8.4418 Y47.9131
G01 X8.3651 Y47.9827
G01 X8.3569 Y47.9897
G01 X8.3484 Y47.9964
G01 X8.2608 Y48.0610
G01 X8.1628 Y48.1200
G01 X8.1484 Y48.1274
G01 X8.0498 Y48.1738
G01 X7.9474 Y48.2107
G01 X7.9371 Y48.2141
G01 X7.9267 Y48.2170
G01 X7.8210 Y48.2432
G01 X7.7133 Y48.2594
G01 X7.7026 Y48.2608
G01 X7.6918 Y48.2616
G01 X7.5830 Y48.2666
G01 X7.4742 Y48.2616
G01 X7.4634 Y48.2608
G01 X7.4527 Y48.2594
G01 X7.3450 Y48.2432
G01 X7.2392 Y48.2170
G01 X7.2288 Y48.2141
G01 X7.2186 Y48.2107
G01 X7.1161 Y48.1738
G01 X7.0175 Y48.1274
G01 X7.0079 Y48.1226
G01 X6.9985 Y48.1173
G01 X6.9052 Y48.0610
G01 X6.8175 Y47.9964
G01 X6.8090 Y47.9897
G01 X6.8008 Y47.9827
G01 X6.7203 Y47.9093
G01 X6.6470 Y47.8288
G01 X6.6399 Y47.8206
G01 X6.6333 Y47.8121
G01 X6.5686 Y47.7244
G01 X6.5096 Y47.6265
G01 X6.5022 Y47.6121
G01 X6.4558 Y47.5135
G01 X6.4189 Y47.4110
G01 X6.4155 Y47.4008
G01 X6.4126 Y47.3904
G01 X6.3864 Y47.2847
G01 X6.3702 Y47.1769
G01 X6.3688 Y47.1662
G01 X6.3632 Y47.0574
G01 X6.3630 Y47.0466
G01 X6.3632 Y47.0358
G01 X6.3688 Y46.9271
G01 X6.3846 Y46.8193
G01 X6.3864 Y46.8086
G01 X6.4126 Y46.7029
G01 X6.4155 Y46.6925
G01 X6.4189 Y46.6822
G01 X6.4558 Y46.5798
G01 X6.5022 Y46.4812
G01 X6.5070 Y46.4715
G01 X6.5124 Y46.4621
G01 X6.5686 Y46.3688
G01 X6.6333 Y46.2812
G01 X6.6399 Y46.2727
G01 X6.6470 Y46.2645
G01 X6.7203 Y46.1840
G01 X6.8008 Y46.1106
G01 X6.8090 Y46.1036
G01 X6.8175 Y46.0969
G01 X6.9052 Y46.0322
G01 X7.0031 Y45.9733
G01 X7.0175 Y45.9658
G01 X7.1161 Y45.9195
G01 X7.2186 Y45.8826
G01 X7.2288 Y45.8792
G01 X7.3344 Y45.8524
G01 X7.3450 Y45.8501
G01 X7.4527 Y45.8338
G01 X7.4634 Y45.8325
G01 X7.4742 Y45.8317
G01 X7.5830 Y45.8266
G01 X7.6918 Y45.8317
G01 X7.7026 Y45.8325
G01 X7.7133 Y45.8338
G01 X7.8210 Y45.8501
G01 X7.9319 Y45.8777
G01 X7.9474 Y45.8826
G01 X8.0498 Y45.9195
G01 X8.1484 Y45.9658
G01 X8.1581 Y45.9707
G01 X8.1675 Y45.9760
G01 X8.2608 Y46.0322
G01 X8.3527 Y46.1002
G01 X8.3651 Y46.1106
G01 X8.4456 Y46.1840
G01 X8.5226 Y46.2685
G01 X8.5327 Y46.2812
G01 X8.5943 Y46.3644
G01 X8.6031 Y46.3780
G01 X8.6317 Y46.4256
G00 Z2.0000
G00 X8.5834 Y46.5106
G01 F60.00
G01 Z0.0000
G01 F120.00
G01 X25.6747 Y46.5107
G01 X25.7271 Y46.5132
G01 X25.7725 Y46.5198
G01 X25.7823 Y46.5216
G01 X25.8300 Y46.5337
G01 X25.8733 Y46.5490
G01 X25.8855 Y46.5541
G01 X25.9269 Y46.5738
G01 X25.9664 Y46.5973
G01 X25.9774 Y46.6047
G01 X26.0142 Y46.6321
G01 X26.0507 Y46.6651
G01 X30.8493 Y51.4636
G01 X39.4051 Y51.4637
G01 X42.2975 Y48.5713
G01 X42.2791 Y48.5407
G01 X42.2743 Y48.5320
G01 X42.2309 Y48.4403
G01 X42.2270 Y48.4312
G01 X42.1907 Y48.3294
G01 X42.1651 Y48.2278
G01 X42.1630 Y48.2181
G01 X42.1473 Y48.1111
G01 X42.1418 Y47.9999
G01 X42.1473 Y47.8887
G01 X42.1625 Y47.7850
G01 X42.1643 Y47.7752
G01 X42.1907 Y47.6704
G01 X42.2282 Y47.5656
G01 X42.2758 Y47.4649
G01 X42.3331 Y47.3693
G01 X42.3995 Y47.2799
G01 X42.4743 Y47.1973
G01 X42.5568 Y47.1225
G01 X42.6435 Y47.0581
G01 X42.6518 Y47.0526
G01 X42.7360 Y47.0022
G01 X42.7477 Y46.9959
G01 X42.8425 Y46.9513
G01 X42.9411 Y46.9159
G01 X42.9537 Y46.9120
G01 X43.0554 Y46.8867
G01 X43.1590 Y46.8712
G01 X43.1722 Y46.8699
G01 X43.2768 Y46.8649
G01 X43.3815 Y46.8699
G01 X43.3946 Y46.8712
G01 X43.4983 Y46.8867
G01 X43.6063 Y46.9138
G01 X43.7050 Y46.9489
G01 X43.7172 Y46.9540
G01 X43.8119 Y46.9989
G01 X43.9074 Y47.0562
G01 X43.9916 Y47.1185
G01 X44.0019 Y47.1269
G01 X44.0794 Y47.1973
G01 X44.1499 Y47.2748
G01 X44.1583 Y47.2851
G01 X44.2205 Y47.3693
G01 X44.2745 Y47.4591
G01 X44.2808 Y47.4708
G01 X44.3227 Y47.5595
G01 X44.3278 Y47.5717
G01 X44.3630 Y47.6704
G01 X44.3886 Y47.7720
G01 X44.3911 Y47.7850
G01 X44.4064 Y47.8887
G01 X44.4117 Y47.9933
G01 X44.4117 Y48.0065
G01 X44.4064 Y48.1111
G01 X44.3900 Y48.2213
G01 X44.3630 Y48.3294
G01 X44.3254 Y48.4342
G01 X44.2778 Y48.5349
G01 X44.2205 Y48.6305
G01 X44.1542 Y48.7199
G01 X44.0840 Y48.7977
G01 X44.0770 Y48.8048
G01 X43.9969 Y48.8773
G01 X43.9074 Y48.9436
G01 X43.8119 Y49.0009
G01 X43.7172 Y49.0458
G01 X43.7081 Y49.0497
G01 X43.6063 Y49.0860
G01 X43.5047 Y49.1116
G01 X43.4950 Y49.1137
G01 X43.3946 Y49.1286
G01 X43.3848 Y49.1297
G01 X43.2801 Y49.1349
G01 X43.2489 Y49.1337
G01 X40.0029 Y52.3796
G01 X39.9663 Y52.4126
G01 X39.9295 Y52.4400
G01 X39.9185 Y52.4474
G01 X39.8791 Y52.4709
G01 X39.8377 Y52.4906
G01 X39.8254 Y52.4957
G01 X39.7853 Y52.5100
G01 X39.7758 Y52.5128
G01 X39.7377 Y52.5223
G01 X39.7247 Y52.5249
G01 X39.6793 Y52.5315
G01 X39.6268 Y52.5340
G01 X30.6210 Y52.5339
G01 X30.5752 Y52.5315
G01 X30.5232 Y52.5238
G01 X30.4723 Y52.5110
G01 X30.4228 Y52.4933
G01 X30.3754 Y52.4709
G01 X30.3303 Y52.4439
G01 X30.2881 Y52.4126
G01 X30.2516 Y52.3796
G01 X25.4530 Y47.5811
G01 X8.5843 Y47.5810
G01 X8.5302 Y47.6716
G01 X8.5229 Y47.6826
G01 X8.4603 Y47.7667
G01 X8.3901 Y47.8444
G01 X8.3807 Y47.8538
G01 X8.3030 Y47.9240
G01 X8.2190 Y47.9865
G01 X8.2079 Y47.9939
G01 X8.1180 Y48.0476
G01 X8.0234 Y48.0926
G01 X8.0111 Y48.0976
G01 X7.9124 Y48.1328
G01 X7.8044 Y48.1598
G01 X7.7008 Y48.1754
G01 X7.6876 Y48.1767
G01 X7.5830 Y48.1816
G01 X7.4783 Y48.1767
G01 X7.4651 Y48.1754
G01 X7.3615 Y48.1598
G01 X7.2535 Y48.1328
G01 X7.1548 Y48.0976
G01 X7.1426 Y48.0926
G01 X7.0479 Y48.0476
G01 X6.9580 Y47.9939
G01 X6.9470 Y47.9865
G01 X6.8629 Y47.9240
G01 X6.7852 Y47.8538
G01 X6.7758 Y47.8444
G01 X6.7056 Y47.7667
G01 X6.6431 Y47.6826
G01 X6.6357 Y47.6716
G01 X6.5820 Y47.5817
G01 X6.5344 Y47.4810
G01 X6.4968 Y47.3761
G01 X6.4698 Y47.2681
G01 X6.4534 Y47.1579
G01 X6.4480 Y47.0466
G01 X6.4534 Y46.9354
G01 X6.4698 Y46.8252
G01 X6.4968 Y46.7172
G01 X6.5344 Y46.6123
G01 X6.5820 Y46.5116
G01 X6.6393 Y46.4161
G01 X6.7056 Y46.3266
G01 X6.7804 Y46.2441
G01 X6.8629 Y46.1693
G01 X6.9524 Y46.1029
G01 X7.0479 Y46.0457
G01 X7.1486 Y45.9980
G01 X7.2535 Y45.9605
G01 X7.3615 Y45.9334
G01 X7.4717 Y45.9171
G01 X7.5830 Y45.9116
G01 X7.6942 Y45.9171
G01 X7.8044 Y45.9334
G01 X7.9124 Y45.9605
G01 X8.0173 Y45.9980
G01 X8.1180 Y46.0457
G01 X8.2135 Y46.1029
G01 X8.3030 Y46.1693
G01 X8.3855 Y46.2441
G01 X8.4603 Y46.3266
G01 X8.5267 Y46.4161
G01 X8.5834 Y46.5106
G00 Z2.0000
G00 X7.8787 Y48.3166
G01 F60.00
G01 Z0.0000
G01 F120.00
G01 X7.9474 Y48.2994
G01 X7.9689 Y48.2932
G01 X8.0684 Y48.2577
G01 X8.0893 Y48.2494
G01 X8.1848 Y48.2043
G01 X8.1981 Y48.1975
G01 X8.2112 Y48.1902
G01 X8.2953 Y48.1397
G01 X8.3142 Y48.1275
G01 X8.3991 Y48.0646
G01 X8.4109 Y48.0554
G01 X8.4222 Y48.0456
G01 X8.4949 Y47.9797
G01 X8.5110 Y47.9641
G01 X8.5820 Y47.8859
G01 X8.5964 Y47.8687
G01 X8.6638 Y47.7778
G01 X8.6721 Y47.7654
G01 X8.6808 Y47.7510
G01 X25.3826 Y47.7511
G01 X30.1344 Y52.5027
G01 X30.1689 Y52.5342
G01 X30.1803 Y52.5440
G01 X30.1921 Y52.5532
G01 X30.2236 Y52.5766
G01 X30.2359 Y52.5852
G01 X30.2485 Y52.5932
G01 X30.2822 Y52.6134
G01 X30.2952 Y52.6208
G01 X30.3086 Y52.6275
G01 X30.3441 Y52.6443
G01 X30.3578 Y52.6504
G01 X30.3718 Y52.6558
G01 X30.4087 Y52.6690
G01 X30.4229 Y52.6737
G01 X30.4374 Y52.6777
G01 X30.4755 Y52.6872
G01 X30.4901 Y52.6905
G01 X30.5048 Y52.6931
G01 X30.5437 Y52.6988
G01 X30.5585 Y52.7007
G01 X30.5735 Y52.7018
G01 X30.6202 Y52.7040
G01 X39.6268 Y52.7040
G01 X39.6418 Y52.7037
G01 X39.6885 Y52.7013
G01 X39.7108 Y52.6988
G01 X39.7496 Y52.6931
G01 X39.7644 Y52.6905
G01 X39.7790 Y52.6872
G01 X39.8243 Y52.6758
G01 X39.8457 Y52.6690
G01 X39.8827 Y52.6558
G01 X39.8967 Y52.6504
G01 X39.9103 Y52.6443
G01 X39.9526 Y52.6242
G01 X39.9722 Y52.6134
G01 X40.0059 Y52.5932
G01 X40.0186 Y52.5852
G01 X40.0308 Y52.5766
G01 X40.0624 Y52.5532
G01 X40.0799 Y52.5392
G01 X40.1201 Y52.5027
G01 X43.3198 Y49.3032
G01 X43.3898 Y49.2997
G01 X43.4122 Y49.2978
G01 X43.5167 Y49.2824
G01 X43.5387 Y49.2783
G01 X43.6412 Y49.2527
G01 X43.6556 Y49.2487
G01 X43.6699 Y49.2440
G01 X43.7623 Y49.2110
G01 X43.7762 Y49.2056
G01 X43.7899 Y49.1995
G01 X43.8786 Y49.1575
G01 X43.8920 Y49.1508
G01 X43.9050 Y49.1434
G01 X43.9892 Y49.0930
G01 X44.0018 Y49.0850
G01 X44.0141 Y49.0763
G01 X44.0929 Y49.0179
G01 X44.1047 Y49.0087
G01 X44.1160 Y48.9989
G01 X44.1888 Y48.9330
G01 X44.1996 Y48.9227
G01 X44.2099 Y48.9118
G01 X44.2758 Y48.8391
G01 X44.2856 Y48.8278
G01 X44.2948 Y48.8160
G01 X44.3533 Y48.7372
G01 X44.3619 Y48.7249
G01 X44.3699 Y48.7123
G01 X44.4241 Y48.6216
G01 X44.4345 Y48.6017
G01 X44.4764 Y48.5130
G01 X44.4853 Y48.4924
G01 X44.5209 Y48.3929
G01 X44.5256 Y48.3787
G01 X44.5296 Y48.3643
G01 X44.5468 Y48.2956
G01 X44.5640 Y48.3643
G01 X44.5680 Y48.3787
G01 X44.5727 Y48.3929
G01 X44.6058 Y48.4853
G01 X44.6112 Y48.4993
G01 X44.6172 Y48.5130
G01 X44.6625 Y48.6084
G01 X44.6733 Y48.6281
G01 X44.7237 Y48.7123
G01 X44.7318 Y48.7249
G01 X44.7404 Y48.7372
G01 X44.8052 Y48.8242
G01 X40.3347 Y53.2947
G01 X29.9190 Y53.2947
G01 X26.1202 Y49.4960
G01 X26.0856 Y49.4645
G01 X26.0743 Y49.4548
G01 X26.0625 Y49.4456
G01 X26.0309 Y49.4222
G01 X26.0124 Y49.4095
G01 X25.9724 Y49.3853
G01 X25.9593 Y49.3780
G01 X25.9460 Y49.3712
G01 X25.9037 Y49.3513
G01 X25.8828 Y49.3430
G01 X25.8458 Y49.3298
G01 X25.8316 Y49.3251
G01 X25.8172 Y49.3211
G01 X25.7718 Y49.3098
G01 X25.7497 Y49.3057
G01 X25.7109 Y49.2999
G01 X25.6960 Y49.2981
G01 X25.6811 Y49.2970
G01 X25.6419 Y49.2951
G01 X25.6269 Y49.2947
G01 X8.8539 Y49.2947
G01 X8.8358 Y49.2222
G01 X8.8318 Y49.2078
G01 X8.8271 Y49.1936
G01 X8.7914 Y49.0942
G01 X8.7826 Y49.0736
G01 X8.7406 Y48.9848
G01 X8.7303 Y48.9649
G01 X8.6761 Y48.8743
G01 X8.6680 Y48.8616
G01 X8.6594 Y48.8494
G01 X8.6010 Y48.7706
G01 X8.5918 Y48.7588
G01 X8.5820 Y48.7474
G01 X8.5161 Y48.6747
G01 X8.5057 Y48.6639
G01 X8.4949 Y48.6535
G01 X8.4222 Y48.5876
G01 X8.4109 Y48.5779
G01 X8.3991 Y48.5687
G01 X8.3202 Y48.5102
G01 X8.3080 Y48.5016
G01 X8.2953 Y48.4936
G01 X8.2047 Y48.4393
G01 X8.1848 Y48.4290
G01 X8.0961 Y48.3870
G01 X8.0754 Y48.3782
G01 X7.9760 Y48.3425
G01 X7.9618 Y48.3378
G01 X7.9474 Y48.3338
G01 X7.8787 Y48.3166
G00 Z2.0000
G00 X8.6312 Y49.5497
G01 F60.00
G01 Z0.0000
G01 F120.00
G01 X25.6269 Y49.5497
G01 X25.6723 Y49.5520
G01 X25.7147 Y49.5583
G01 X25.7576 Y49.5691
G01 X25.7992 Y49.5840
G01 X25.8369 Y49.6017
G01 X25.8790 Y49.6270
G01 X25.9125 Y49.6519
G01 X25.9444 Y49.6807
G01 X29.8134 Y53.5497
G01 X40.4403 Y53.5497
G01 X45.1666 Y48.8234
G01 X45.1498 Y48.8108
G01 X45.0752 Y48.7432
G01 X45.0052 Y48.6660
G01 X44.9438 Y48.5832
G01 X44.8897 Y48.4927
G01 X44.8459 Y48.3994
G01 X44.8120 Y48.3047
G01 X44.7875 Y48.2071
G01 X44.7719 Y48.1028
G01 X44.7668 Y47.9999
G01 X44.7719 Y47.8970
G01 X44.7870 Y47.7951
G01 X44.8120 Y47.6951
G01 X44.8477 Y47.5958
G01 X44.8920 Y47.5028
G01 X44.9438 Y47.4166
G01 X45.0037 Y47.3357
G01 X45.0744 Y47.2574
G01 X45.1498 Y47.1890
G01 X45.2355 Y47.1255
G01 X45.3219 Y47.0739
G01 X45.4150 Y47.0298
G01 X45.5144 Y46.9945
G01 X45.6120 Y46.9701
G01 X45.7115 Y46.9553
G01 X45.8168 Y46.9499
G01 X45.9222 Y46.9553
G01 X46.0217 Y46.9701
G01 X46.1193 Y46.9945
G01 X46.2209 Y47.0308
G01 X46.3118 Y47.0739
G01 X46.3981 Y47.1255
G01 X46.4829 Y47.1882
G01 X46.5610 Y47.2592
G01 X46.6285 Y47.3338
G01 X46.6899 Y47.4166
G01 X46.7439 Y47.5071
G01 X46.7869 Y47.5981
G01 X46.8216 Y47.6951
G01 X46.8471 Y47.7975
G01 X46.8618 Y47.8970
G01 X46.8668 Y47.9974
G01 X46.8618 Y48.1028
G01 X46.8466 Y48.2047
G01 X46.8216 Y48.3047
G01 X46.7869 Y48.4017
G01 X46.7428 Y48.4949
G01 X46.6899 Y48.5832
G01 X46.6285 Y48.6660
G01 X46.5601 Y48.7415
G01 X46.4829 Y48.8116
G01 X46.4002 Y48.8729
G01 X46.3118 Y48.9259
G01 X46.2409 Y48.9595
G01 X46.2323 Y48.9833
G01 X46.2144 Y49.0210
G01 X46.1918 Y49.0590
G01 X46.1648 Y49.0955
G01 X46.1351 Y49.1282
G01 X40.9443 Y54.3191
G01 X40.9124 Y54.3479
G01 X40.8769 Y54.3742
G01 X40.8390 Y54.3970
G01 X40.7991 Y54.4158
G01 X40.7575 Y54.4307
G01 X40.7146 Y54.4415
G01 X40.6709 Y54.4479
G01 X40.6292 Y54.4500
G01 X29.6269 Y54.4501
G01 X29.5804 Y54.4476
G01 X29.5391 Y54.4415
G01 X29.4986 Y54.4314
G01 X29.4546 Y54.4158
G01 X29.4126 Y54.3957
G01 X29.3768 Y54.3742
G01 X29.3433 Y54.3494
G01 X29.3086 Y54.3182
G01 X25.4404 Y50.4501
G01 X8.1794 Y50.4501
G01 X8.1642 Y50.4610
G01 X8.0757 Y50.5138
G01 X7.9848 Y50.5567
G01 X7.8878 Y50.5914
G01 X7.7878 Y50.6165
G01 X7.6883 Y50.6313
G01 X7.5805 Y50.6366
G01 X7.4801 Y50.6316
G01 X7.3781 Y50.6165
G01 X7.2782 Y50.5914
G01 X7.1812 Y50.5567
G01 X7.0880 Y50.5127
G01 X6.9996 Y50.4597
G01 X6.9169 Y50.3983
G01 X6.8405 Y50.3291
G01 X6.7713 Y50.2528
G01 X6.7099 Y50.1700
G01 X6.6570 Y50.0816
G01 X6.6129 Y49.9885
G01 X6.5782 Y49.8914
G01 X6.5531 Y49.7915
G01 X6.5380 Y49.6896
G01 X6.5330 Y49.5879
G01 X6.5380 Y49.4837
G01 X6.5531 Y49.3818
G01 X6.5782 Y49.2818
G01 X6.6129 Y49.1848
G01 X6.6570 Y49.0917
G01 X6.7099 Y49.0033
G01 X6.7713 Y48.9205
G01 X6.8405 Y48.8442
G01 X6.9169 Y48.7750
G01 X6.9996 Y48.7136
G01 X7.0880 Y48.6606
G01 X7.1812 Y48.6166
G01 X7.2782 Y48.5819
G01 X7.3781 Y48.5568
G01 X7.4801 Y48.5417
G01 X7.5817 Y48.5367
G01 X7.6859 Y48.5417
G01 X7.7878 Y48.5568
G01 X7.8878 Y48.5819
G01 X7.9848 Y48.6166
G01 X8.0779 Y48.6606
G01 X8.1663 Y48.7136
G01 X8.2491 Y48.7750
G01 X8.3246 Y48.8433
G01 X8.3946 Y48.9205
G01 X8.4560 Y49.0033
G01 X8.5090 Y49.0917
G01 X8.5526 Y49.1837
G01 X8.5878 Y49.2818
G01 X8.6125 Y49.3806
G01 X8.6279 Y49.4837
G01 X8.6312 Y49.5497
G00 Z2.0000
G00 X8.2060 Y50.5351
G01 F60.00
G01 Z0.0000
G01 F120.00
G01 X8.1180 Y50.5876
G01 X8.0173 Y50.6352
G01 X7.9124 Y50.6728
G01 X7.8044 Y50.6998
G01 X7.6942 Y50.7162
G01 X7.5830 Y50.7216
G01 X7.4717 Y50.7162
G01 X7.3615 Y50.6998
G01 X7.2535 Y50.6728
G01 X7.1486 Y50.6352
G01 X7.0479 Y50.5876
G01 X6.9524 Y50.5304
G01 X6.8629 Y50.4640
G01 X6.7804 Y50.3892
G01 X6.7056 Y50.3067
G01 X6.6393 Y50.2172
G01 X6.5820 Y50.1217
G01 X6.5344 Y50.0210
G01 X6.4968 Y49.9161
G01 X6.4698 Y49.8081
G01 X6.4534 Y49.6979
G01 X6.4480 Y49.5866
G01 X6.4534 Y49.4754
G01 X6.4698 Y49.3652
G01 X6.4968 Y49.2572
G01 X6.5344 Y49.1523
G01 X6.5820 Y49.0516
G01 X6.6393 Y48.9561
G01 X6.7056 Y48.8666
G01 X6.7804 Y48.7841
G01 X6.8629 Y48.7093
G01 X6.9524 Y48.6429
G01 X7.0422 Y48.5889
G01 X7.0539 Y48.5827
G01 X7.1486 Y48.5380
G01 X7.2472 Y48.5026
G01 X7.2599 Y48.4987
G01 X7.3615 Y48.4734
G01 X7.4717 Y48.4571
G01 X7.5763 Y48.4518
G01 X7.5896 Y48.4518
G01 X7.6942 Y48.4571
G01 X7.7979 Y48.4723
G01 X7.8109 Y48.4749
G01 X7.9124 Y48.5005
G01 X8.0111 Y48.5357
G01 X8.0234 Y48.5407
G01 X8.1121 Y48.5827
G01 X8.1238 Y48.5889
G01 X8.2135 Y48.6429
G01 X8.2978 Y48.7052
G01 X8.3080 Y48.7136
G01 X8.3855 Y48.7841
G01 X8.4560 Y48.8616
G01 X8.4644 Y48.8718
G01 X8.5267 Y48.9561
G01 X8.5807 Y49.0458
G01 X8.5869 Y49.0575
G01 X8.6316 Y49.1523
G01 X8.6670 Y49.2509
G01 X8.6709 Y49.2636
G01 X8.6962 Y49.3652
G01 X8.7111 Y49.4647
G01 X25.6269 Y49.4647
G01 X25.6794 Y49.4673
G01 X25.7313 Y49.4750
G01 X25.7759 Y49.4860
G01 X25.7886 Y49.4898
G01 X25.8286 Y49.5042
G01 X25.8378 Y49.5081
G01 X25.8792 Y49.5279
G01 X25.9242 Y49.5549
G01 X25.9664 Y49.5862
G01 X26.0030 Y49.6191
G01 X29.8486 Y53.4647
G01 X40.4051 Y53.4647
G01 X45.0420 Y48.8278
G01 X45.0191 Y48.8070
G01 X45.0119 Y48.8001
G01 X44.9416 Y48.7225
G01 X44.9354 Y48.7147
G01 X44.8750 Y48.6332
G01 X44.8696 Y48.6249
G01 X44.8158 Y48.5349
G01 X44.7695 Y48.4373
G01 X44.7658 Y48.4281
G01 X44.7307 Y48.3294
G01 X44.7036 Y48.2213
G01 X44.6873 Y48.1111
G01 X44.6820 Y48.0065
G01 X44.6819 Y47.9966
G01 X44.6873 Y47.8887
G01 X44.7025 Y47.7850
G01 X44.7051 Y47.7720
G01 X44.7307 Y47.6704
G01 X44.7658 Y47.5717
G01 X44.7709 Y47.5595
G01 X44.8129 Y47.4708
G01 X44.8191 Y47.4591
G01 X44.8731 Y47.3693
G01 X44.9395 Y47.2799
G01 X45.0143 Y47.1973
G01 X45.0943 Y47.1247
G01 X45.1020 Y47.1185
G01 X45.1808 Y47.0600
G01 X45.1918 Y47.0526
G01 X45.2818 Y46.9989
G01 X45.3764 Y46.9540
G01 X45.3887 Y46.9489
G01 X45.4874 Y46.9138
G01 X45.5889 Y46.8882
G01 X45.6019 Y46.8856
G01 X45.7056 Y46.8704
G01 X45.8102 Y46.8651
G01 X45.8234 Y46.8651
G01 X45.9281 Y46.8704
G01 X46.0317 Y46.8856
G01 X46.0447 Y46.8882
G01 X46.1463 Y46.9138
G01 X46.2512 Y46.9513
G01 X46.3459 Y46.9959
G01 X46.3576 Y47.0022
G01 X46.4474 Y47.0562
G01 X46.5369 Y47.1225
G01 X46.6146 Y47.1928
G01 X46.6240 Y47.2021
G01 X46.6942 Y47.2799
G01 X46.7567 Y47.3639
G01 X46.7641 Y47.3749
G01 X46.8178 Y47.4649
G01 X46.8627 Y47.5595
G01 X46.8678 Y47.5717
G01 X46.9030 Y47.6704
G01 X46.9286 Y47.7720
G01 X46.9311 Y47.7850
G01 X46.9455 Y47.8821
G01 X46.9466 Y47.8920
G01 X46.9518 Y47.9999
G01 X46.9468 Y48.1045
G01 X46.9455 Y48.1177
G01 X46.9311 Y48.2148
G01 X46.9286 Y48.2278
G01 X46.9030 Y48.3294
G01 X46.8678 Y48.4281
G01 X46.8627 Y48.4403
G01 X46.8178 Y48.5349
G01 X46.7605 Y48.6305
G01 X46.6942 Y48.7199
G01 X46.6217 Y48.8001
G01 X46.6146 Y48.8070
G01 X46.5369 Y48.8773
G01 X46.4501 Y48.9417
G01 X46.4418 Y48.9472
G01 X46.3548 Y48.9993
G01 X46.3459 Y49.0039
G01 X46.3081 Y49.0217
G01 X46.2888 Y49.0622
G01 X46.2618 Y49.1072
G01 X46.2305 Y49.1494
G01 X46.1952 Y49.1883
G01 X41.0029 Y54.3807
G01 X40.9663 Y54.4136
G01 X40.9241 Y54.4449
G01 X40.8791 Y54.4719
G01 X40.8377 Y54.4917
G01 X40.8254 Y54.4968
G01 X40.7853 Y54.5111
G01 X40.7758 Y54.5138
G01 X40.7312 Y54.5248
G01 X40.6858 Y54.5317
G01 X40.6760 Y54.5328
G01 X40.6268 Y54.5351
G01 X29.6269 Y54.5351
G01 X29.5811 Y54.5330
G01 X29.5679 Y54.5317
G01 X29.5225 Y54.5248
G01 X29.4779 Y54.5138
G01 X29.4653 Y54.5100
G01 X29.4221 Y54.4944
G01 X29.3806 Y54.4749
G01 X29.3689 Y54.4686
G01 X29.3296 Y54.4449
G01 X29.2926 Y54.4177
G01 X29.2824 Y54.4093
G01 X29.2485 Y54.3784
G01 X25.4052 Y50.5351
G01 X8.2060 Y50.5351
G00 Z2.0000
G00 X8.2295 Y50.6201
G01 F60.00
G01 Z0.0000
G01 F120.00
G01 X8.1675 Y50.6573
G01 X8.1533 Y50.6651
G01 X8.0597 Y50.7094
G01 X8.0448 Y50.7158
G01 X7.9371 Y50.7541
G01 X7.8315 Y50.7808
G01 X7.8157 Y50.7842
G01 X7.7026 Y50.8008
G01 X7.6918 Y50.8016
G01 X7.5830 Y50.8066
G01 X7.4742 Y50.8016
G01 X7.4634 Y50.8008
G01 X7.3556 Y50.7850
G01 X7.3397 Y50.7821
G01 X7.2288 Y50.7541
G01 X7.2186 Y50.7507
G01 X7.1161 Y50.7138
G01 X7.0175 Y50.6674
G01 X7.0079 Y50.6626
G01 X6.9985 Y50.6573
G01 X6.9052 Y50.6010
G01 X6.8963 Y50.5948
G01 X6.8090 Y50.5297
G01 X6.7281 Y50.4568
G01 X6.7203 Y50.4493
G01 X6.7129 Y50.4415
G01 X6.6399 Y50.3606
G01 X6.5748 Y50.2733
G01 X6.5656 Y50.2599
G01 X6.5070 Y50.1617
G01 X6.5022 Y50.1521
G01 X6.4558 Y50.0535
G01 X6.4189 Y49.9510
G01 X6.4155 Y49.9408
G01 X6.4126 Y49.9304
G01 X6.3864 Y49.8247
G01 X6.3702 Y49.7169
G01 X6.3688 Y49.7062
G01 X6.3632 Y49.5974
G01 X6.3630 Y49.5866
G01 X6.3632 Y49.5758
G01 X6.3688 Y49.4671
G01 X6.3846 Y49.3593
G01 X6.3864 Y49.3486
G01 X6.4126 Y49.2429
G01 X6.4155 Y49.2325
G01 X6.4189 Y49.2222
G01 X6.4558 Y49.1198
G01 X6.5022 Y49.0212
G01 X6.5070 Y49.0115
G01 X6.5124 Y49.0021
G01 X6.5686 Y48.9088
G01 X6.6333 Y48.8212
G01 X6.6399 Y48.8127
G01 X6.6470 Y48.8045
G01 X6.7203 Y48.7240
G01 X6.8008 Y48.6506
G01 X6.8090 Y48.6436
G01 X6.8963 Y48.5785
G01 X6.9097 Y48.5693
G01 X6.9985 Y48.5160
G01 X7.0079 Y48.5107
G01 X7.0175 Y48.5058
G01 X7.1161 Y48.4595
G01 X7.2186 Y48.4226
G01 X7.2288 Y48.4192
G01 X7.2392 Y48.4163
G01 X7.3450 Y48.3901
G01 X7.4527 Y48.3738
G01 X7.4634 Y48.3725
G01 X7.5722 Y48.3669
G01 X7.5830 Y48.3666
G01 X7.5938 Y48.3669
G01 X7.7026 Y48.3725
G01 X7.8103 Y48.3882
G01 X7.8210 Y48.3901
G01 X7.8315 Y48.3924
G01 X7.9371 Y48.4192
G01 X8.0398 Y48.4556
G01 X8.0548 Y48.4616
G01 X8.1484 Y48.5058
G01 X8.1581 Y48.5107
G01 X8.1675 Y48.5160
G01 X8.2608 Y48.5722
G01 X8.3484 Y48.6369
G01 X8.3569 Y48.6436
G01 X8.3651 Y48.6506
G01 X8.4456 Y48.7240
G01 X8.5190 Y48.8045
G01 X8.5294 Y48.8169
G01 X8.5974 Y48.9088
G01 X8.6536 Y49.0021
G01 X8.6589 Y49.0115
G01 X8.6638 Y49.0212
G01 X8.7080 Y49.1148
G01 X8.7140 Y49.1298
G01 X8.7471 Y49.2222
G01 X8.7519 Y49.2377
G01 X8.7784 Y49.3433
G01 X8.7805 Y49.3539
G01 X8.7844 Y49.3797
G01 X25.6269 Y49.3797
G01 X25.6823 Y49.3822
G01 X25.6984 Y49.3840
G01 X25.7479 Y49.3916
G01 X25.7965 Y49.4035
G01 X25.8069 Y49.4064
G01 X25.8172 Y49.4098
G01 X25.8592 Y49.4249
G01 X25.8741 Y49.4313
G01 X25.9193 Y49.4529
G01 X25.9623 Y49.4784
G01 X25.9715 Y49.4842
G01 X25.9803 Y49.4904
G01 X26.0204 Y49.5205
G01 X26.0616 Y49.5576
G01 X29.8838 Y53.3797
G01 X40.3699 Y53.3797
G01 X44.9221 Y48.8276
G01 X44.8738 Y48.7739
G01 X44.8055 Y48.6821
G01 X44.7967 Y48.6686
G01 X44.7435 Y48.5797
G01 X44.7360 Y48.5654
G01 X44.6897 Y48.4668
G01 X44.6510 Y48.3592
G01 X44.6465 Y48.3436
G01 X44.6203 Y48.2379
G01 X44.6184 Y48.2273
G01 X44.6027 Y48.1195
G01 X44.5971 Y48.0107
G01 X44.5968 Y47.9999
G01 X44.6022 Y47.8857
G01 X44.6040 Y47.8696
G01 X44.6203 Y47.7619
G01 X44.6226 Y47.7514
G01 X44.6494 Y47.6458
G01 X44.6527 Y47.6355
G01 X44.6897 Y47.5330
G01 X44.7360 Y47.4344
G01 X44.7409 Y47.4248
G01 X44.7462 Y47.4154
G01 X44.8024 Y47.3221
G01 X44.8086 Y47.3133
G01 X44.8738 Y47.2259
G01 X44.9467 Y47.1451
G01 X44.9542 Y47.1372
G01 X44.9620 Y47.1298
G01 X45.0429 Y47.0568
G01 X45.1302 Y46.9917
G01 X45.1390 Y46.9855
G01 X45.1482 Y46.9797
G01 X45.2417 Y46.9240
G01 X45.3401 Y46.8771
G01 X45.3499 Y46.8728
G01 X45.3600 Y46.8689
G01 X45.4627 Y46.8324
G01 X45.5683 Y46.8057
G01 X45.5788 Y46.8033
G01 X45.5895 Y46.8015
G01 X45.6972 Y46.7858
G01 X45.8060 Y46.7802
G01 X45.8168 Y46.7799
G01 X45.8276 Y46.7802
G01 X45.9364 Y46.7858
G01 X46.0442 Y46.8015
G01 X46.0548 Y46.8033
G01 X46.0654 Y46.8057
G01 X46.1710 Y46.8324
G01 X46.1812 Y46.8358
G01 X46.2837 Y46.8728
G01 X46.3823 Y46.9191
G01 X46.3919 Y46.9240
G01 X46.4013 Y46.9293
G01 X46.4946 Y46.9855
G01 X46.5034 Y46.9917
G01 X46.5908 Y47.0568
G01 X46.6717 Y47.1298
G01 X46.6795 Y47.1372
G01 X46.6869 Y47.1451
G01 X46.7599 Y47.2259
G01 X46.8250 Y47.3133
G01 X46.8312 Y47.3221
G01 X46.8370 Y47.3312
G01 X46.8928 Y47.4248
G01 X46.9396 Y47.5232
G01 X46.9440 Y47.5330
G01 X46.9478 Y47.5431
G01 X46.9843 Y47.6458
G01 X47.0110 Y47.7514
G01 X47.0134 Y47.7619
G01 X47.0152 Y47.7725
G01 X47.0296 Y47.8696
G01 X47.0314 Y47.8857
G01 X47.0368 Y47.9999
G01 X47.0317 Y48.1087
G01 X47.0309 Y48.1195
G01 X47.0296 Y48.1302
G01 X47.0152 Y48.2273
G01 X47.0134 Y48.2379
G01 X47.0110 Y48.2484
G01 X46.9843 Y48.3540
G01 X46.9478 Y48.4567
G01 X46.9440 Y48.4668
G01 X46.9396 Y48.4766
G01 X46.8928 Y48.5750
G01 X46.8874 Y48.5844
G01 X46.8312 Y48.6777
G01 X46.8250 Y48.6865
G01 X46.7599 Y48.7739
G01 X46.6833 Y48.8587
G01 X46.6717 Y48.8700
G01 X46.5908 Y48.9430
G01 X46.5034 Y49.0081
G01 X46.4946 Y49.0143
G01 X46.4855 Y49.0201
G01 X46.4013 Y49.0705
G01 X46.3871 Y49.0783
G01 X46.3720 Y49.0856
G01 X46.3663 Y49.0975
G01 X46.3612 Y49.1070
G01 X46.3383 Y49.1453
G01 X46.3294 Y49.1589
G01 X46.2962 Y49.2034
G01 X46.2628 Y49.2406
G01 X46.2554 Y49.2484
G01 X41.0615 Y54.4422
G01 X41.0202 Y54.4793
G01 X40.9802 Y54.5094
G01 X40.9714 Y54.5156
G01 X40.9285 Y54.5416
G01 X40.9192 Y54.5469
G01 X40.8740 Y54.5685
G01 X40.8641 Y54.5729
G01 X40.8541 Y54.5768
G01 X40.8120 Y54.5918
G01 X40.7964 Y54.5963
G01 X40.7478 Y54.6082
G01 X40.6983 Y54.6158
G01 X40.6822 Y54.6176
G01 X40.6268 Y54.6201
G01 X29.6269 Y54.6201
G01 X29.5769 Y54.6179
G01 X29.5661 Y54.6171
G01 X29.5554 Y54.6158
G01 X29.5059 Y54.6082
G01 X29.4573 Y54.5963
G01 X29.4469 Y54.5934
G01 X29.4366 Y54.5900
G01 X29.3896 Y54.5729
G01 X29.3442 Y54.5517
G01 X29.3298 Y54.5443
G01 X29.2824 Y54.5156
G01 X29.2420 Y54.4860
G01 X29.2293 Y54.4759
G01 X29.1922 Y54.4422
G01 X25.3700 Y50.6201
G01 X8.2295 Y50.6201
G00 Z2.0000
G00 X8.1599 Y38.5497
G01 F60.00
G01 Z0.0000
G01 F120.00
G01 X20.6269 Y38.5497
G01 X20.6710 Y38.5519
G01 X20.7147 Y38.5583
G01 X20.7576 Y38.5691
G01 X20.8014 Y38.5850
G01 X20.8391 Y38.6028
G01 X20.8770 Y38.6256
G01 X20.9125 Y38.6519
G01 X20.9453 Y38.6816
G01 X31.8134 Y49.5497
G01 X39.4403 Y49.5497
G01 X40.1325 Y48.8575
G01 X40.0707 Y48.8116
G01 X39.9961 Y48.7441
G01 X39.9252 Y48.6660
G01 X39.8625 Y48.5812
G01 X39.8108 Y48.4949
G01 X39.7677 Y48.4040
G01 X39.7320 Y48.3047
G01 X39.7066 Y48.2023
G01 X39.6919 Y48.1028
G01 X39.6869 Y48.0024
G01 X39.6920 Y47.8958
G01 X39.7075 Y47.7927
G01 X39.7320 Y47.6951
G01 X39.7659 Y47.6004
G01 X39.8108 Y47.5049
G01 X39.8645 Y47.4155
G01 X39.9252 Y47.3338
G01 X39.9927 Y47.2592
G01 X40.0698 Y47.1890
G01 X40.1545 Y47.1262
G01 X40.2408 Y47.0745
G01 X40.2866 Y47.0527
G01 X40.2866 Y46.8887
G01 X40.2888 Y46.8458
G01 X40.2955 Y46.8009
G01 X40.3060 Y46.7592
G01 X40.3219 Y46.7154
G01 X40.3398 Y46.6777
G01 X40.3612 Y46.6418
G01 X40.3873 Y46.6062
G01 X40.4185 Y46.5716
G01 X45.3666 Y41.6234
G01 X45.3666 Y40.9472
G01 X45.3208 Y40.9253
G01 X45.2345 Y40.8736
G01 X45.1517 Y40.8123
G01 X45.0744 Y40.7424
G01 X45.0044 Y40.6651
G01 X44.9425 Y40.5812
G01 X44.8908 Y40.4949
G01 X44.8477 Y40.4040
G01 X44.8120 Y40.3047
G01 X44.7866 Y40.2023
G01 X44.7719 Y40.1028
G01 X44.7669 Y39.9975
G01 X44.7719 Y39.8970
G01 X44.7866 Y39.7975
G01 X44.8114 Y39.6975
G01 X44.8468 Y39.5981
G01 X44.8908 Y39.5050
G01 X44.9438 Y39.4166
G01 X45.0044 Y39.3348
G01 X45.0761 Y39.2558
G01 X45.1507 Y39.1883
G01 X45.2335 Y39.1269
G01 X45.3219 Y39.0739
G01 X45.4128 Y39.0308
G01 X45.5144 Y38.9945
G01 X45.6120 Y38.9701
G01 X45.7139 Y38.9550
G01 X45.8168 Y38.9499
G01 X45.9173 Y38.9548
G01 X46.0241 Y38.9706
G01 X46.1216 Y38.9951
G01 X46.2164 Y39.0290
G01 X46.3139 Y39.0751
G01 X46.4002 Y39.1269
G01 X46.4829 Y39.1883
G01 X46.5610 Y39.2592
G01 X46.6285 Y39.3338
G01 X46.6899 Y39.4166
G01 X46.7439 Y39.5071
G01 X46.7869 Y39.5981
G01 X46.8216 Y39.6951
G01 X46.8466 Y39.7951
G01 X46.8615 Y39.8946
G01 X46.8668 Y40.0024
G01 X46.8618 Y40.1028
G01 X46.8471 Y40.2023
G01 X46.8216 Y40.3047
G01 X46.7859 Y40.4040
G01 X46.7428 Y40.4949
G01 X46.6905 Y40.5822
G01 X46.6269 Y40.6679
G01 X46.5593 Y40.7424
G01 X46.4839 Y40.8108
G01 X46.3991 Y40.8736
G01 X46.3129 Y40.9253
G01 X46.2670 Y40.9472
G01 X46.2670 Y41.8099
G01 X46.2648 Y41.8540
G01 X46.2584 Y41.8977
G01 X46.2483 Y41.9382
G01 X46.2327 Y41.9822
G01 X46.2138 Y42.0221
G01 X46.1924 Y42.0579
G01 X46.1648 Y42.0955
G01 X46.1351 Y42.1282
G01 X41.2031 Y47.0603
G01 X41.2329 Y47.0745
G01 X41.3212 Y47.1276
G01 X41.4029 Y47.1882
G01 X41.4801 Y47.2583
G01 X41.5485 Y47.3338
G01 X41.6099 Y47.4166
G01 X41.6628 Y47.5049
G01 X41.7074 Y47.5992
G01 X41.7416 Y47.6951
G01 X41.7666 Y47.7951
G01 X41.7818 Y47.8970
G01 X41.7868 Y47.9999
G01 X41.7818 Y48.1028
G01 X41.7666 Y48.2047
G01 X41.7416 Y48.3047
G01 X41.7069 Y48.4017
G01 X41.6628 Y48.4949
G01 X41.6099 Y48.5832
G01 X41.5485 Y48.6660
G01 X41.4801 Y48.7415
G01 X41.4029 Y48.8116
G01 X41.3212 Y48.8722
G01 X41.2329 Y48.9253
G01 X41.1826 Y48.9492
G01 X41.1781 Y48.9789
G01 X41.1672 Y49.0217
G01 X41.1527 Y49.0622
G01 X41.1344 Y49.1010
G01 X41.1097 Y49.1420
G01 X41.0848 Y49.1755
G01 X41.0568 Y49.2065
G01 X39.9451 Y50.3182
G01 X39.9124 Y50.3479
G01 X39.8769 Y50.3742
G01 X39.8390 Y50.3969
G01 X39.8013 Y50.4148
G01 X39.7575 Y50.4307
G01 X39.7146 Y50.4414
G01 X39.6734 Y50.4476
G01 X39.6268 Y50.4501
G01 X31.6245 Y50.4500
G01 X31.5828 Y50.4479
G01 X31.5391 Y50.4414
G01 X31.4962 Y50.4307
G01 X31.4546 Y50.4158
G01 X31.4147 Y50.3969
G01 X31.3768 Y50.3742
G01 X31.3413 Y50.3479
G01 X31.3086 Y50.3182
G01 X20.4404 Y39.4501
G01 X8.6319 Y39.4501
G01 X8.6279 Y39.5296
G01 X8.6132 Y39.6291
G01 X8.5878 Y39.7314
G01 X8.5521 Y39.8307
G01 X8.5090 Y39.9216
G01 X8.4573 Y40.0079
G01 X8.3946 Y40.0928
G01 X8.3237 Y40.1708
G01 X8.2491 Y40.2383
G01 X8.1683 Y40.2983
G01 X8.0779 Y40.3527
G01 X7.9848 Y40.3967
G01 X7.8901 Y40.4307
G01 X7.7878 Y40.4565
G01 X7.6834 Y40.4718
G01 X7.5830 Y40.4766
G01 X7.4825 Y40.4718
G01 X7.3781 Y40.4565
G01 X7.2758 Y40.4307
G01 X7.1812 Y40.3967
G01 X7.0902 Y40.3538
G01 X6.9996 Y40.2997
G01 X6.9169 Y40.2383
G01 X6.8405 Y40.1691
G01 X6.7713 Y40.0928
G01 X6.7099 Y40.0100
G01 X6.6570 Y39.9216
G01 X6.6129 Y39.8285
G01 X6.5782 Y39.7314
G01 X6.5531 Y39.6315
G01 X6.5380 Y39.5296
G01 X6.5330 Y39.4266
G01 X6.5380 Y39.3237
G01 X6.5531 Y39.2218
G01 X6.5782 Y39.1218
G01 X6.6129 Y39.0248
G01 X6.6570 Y38.9317
G01 X6.7099 Y38.8433
G01 X6.7713 Y38.7605
G01 X6.8405 Y38.6842
G01 X6.9169 Y38.6150
G01 X6.9996 Y38.5536
G01 X7.0880 Y38.5006
G01 X7.1812 Y38.4566
G01 X7.2782 Y38.4219
G01 X7.3781 Y38.3968
G01 X7.4801 Y38.3817
G01 X7.5830 Y38.3766
G01 X7.6859 Y38.3817
G01 X7.7878 Y38.3968
G01 X7.8878 Y38.4219
G01 X7.9848 Y38.4566
G01 X8.0779 Y38.5006
G01 X8.1599 Y38.5497
G00 Z2.0000
G00 X8.1834 Y38.4647
G01 F60.00
G01 Z0.0000
G01 F120.00
G01 X20.6269 Y38.4647
G01 X20.6794 Y38.4673
G01 X20.7313 Y38.4750
G01 X20.7823 Y38.4877
G01 X20.8255 Y38.5030
G01 X20.8378 Y38.5081
G01 X20.8792 Y38.5279
G01 X20.9243 Y38.5549
G01 X20.9664 Y38.5862
G01 X21.0054 Y38.6214
G01 X31.8486 Y49.4647
G01 X39.4051 Y49.4647
G01 X40.0040 Y48.8659
G01 X39.9343 Y48.8025
G01 X39.8638 Y48.7250
G01 X39.8554 Y48.7147
G01 X39.7969 Y48.6359
G01 X39.7896 Y48.6249
G01 X39.7358 Y48.5349
G01 X39.6882 Y48.4342
G01 X39.6528 Y48.3357
G01 X39.6489 Y48.3230
G01 X39.6236 Y48.2213
G01 X39.6081 Y48.1177
G01 X39.6068 Y48.1045
G01 X39.6018 Y47.9999
G01 X39.6068 Y47.8953
G01 X39.6081 Y47.8821
G01 X39.6225 Y47.7850
G01 X39.6251 Y47.7720
G01 X39.6507 Y47.6704
G01 X39.6858 Y47.5717
G01 X39.6909 Y47.5595
G01 X39.7358 Y47.4649
G01 X39.7931 Y47.3693
G01 X39.8595 Y47.2799
G01 X39.9297 Y47.2021
G01 X39.9391 Y47.1928
G01 X40.0168 Y47.1225
G01 X40.1008 Y47.0600
G01 X40.1118 Y47.0526
G01 X40.2016 Y46.9990
G01 X40.2016 Y46.8866
G01 X40.2039 Y46.8407
G01 X40.2050 Y46.8309
G01 X40.2119 Y46.7855
G01 X40.2237 Y46.7377
G01 X40.2267 Y46.7282
G01 X40.2423 Y46.6851
G01 X40.2648 Y46.6376
G01 X40.2918 Y46.5925
G01 X40.3190 Y46.5556
G01 X40.3274 Y46.5453
G01 X40.3584 Y46.5114
G01 X45.2816 Y41.5882
G01 X45.2816 Y41.0008
G01 X45.1863 Y40.9436
G01 X45.1020 Y40.8814
G01 X45.0918 Y40.8730
G01 X45.0191 Y40.8071
G01 X45.0097 Y40.7977
G01 X44.9395 Y40.7200
G01 X44.8769 Y40.6359
G01 X44.8696 Y40.6249
G01 X44.8158 Y40.5350
G01 X44.7682 Y40.4343
G01 X44.7307 Y40.3294
G01 X44.7051 Y40.2278
G01 X44.7025 Y40.2148
G01 X44.6873 Y40.1112
G01 X44.6820 Y40.0065
G01 X44.6820 Y39.9933
G01 X44.6873 Y39.8887
G01 X44.7025 Y39.7850
G01 X44.7051 Y39.7720
G01 X44.7289 Y39.6768
G01 X44.7328 Y39.6642
G01 X44.7682 Y39.5656
G01 X44.8158 Y39.4649
G01 X44.8731 Y39.3693
G01 X44.9374 Y39.2825
G01 X44.9438 Y39.2749
G01 X45.0097 Y39.2022
G01 X45.0191 Y39.1928
G01 X45.0968 Y39.1226
G01 X45.1863 Y39.0562
G01 X45.2818 Y38.9989
G01 X45.3764 Y38.9540
G01 X45.3887 Y38.9489
G01 X45.4811 Y38.9159
G01 X45.4937 Y38.9120
G01 X45.5954 Y38.8867
G01 X45.7056 Y38.8704
G01 X45.8168 Y38.8649
G01 X45.9215 Y38.8699
G01 X45.9346 Y38.8712
G01 X46.0317 Y38.8856
G01 X46.0447 Y38.8882
G01 X46.1463 Y38.9138
G01 X46.2450 Y38.9489
G01 X46.2572 Y38.9540
G01 X46.3459 Y38.9960
G01 X46.3576 Y39.0022
G01 X46.4474 Y39.0562
G01 X46.5369 Y39.1226
G01 X46.6146 Y39.1928
G01 X46.6240 Y39.2022
G01 X46.6942 Y39.2799
G01 X46.7605 Y39.3693
G01 X46.8145 Y39.4591
G01 X46.8208 Y39.4708
G01 X46.8654 Y39.5656
G01 X46.9030 Y39.6704
G01 X46.9300 Y39.7785
G01 X46.9455 Y39.8821
G01 X46.9468 Y39.8953
G01 X46.9517 Y39.9933
G01 X46.9517 Y40.0065
G01 X46.9464 Y40.1112
G01 X46.9311 Y40.2148
G01 X46.9286 Y40.2278
G01 X46.9030 Y40.3294
G01 X46.8678 Y40.4281
G01 X46.8627 Y40.4403
G01 X46.8178 Y40.5350
G01 X46.7641 Y40.6249
G01 X46.7567 Y40.6359
G01 X46.6942 Y40.7200
G01 X46.6240 Y40.7977
G01 X46.6146 Y40.8071
G01 X46.5369 Y40.8773
G01 X46.4528 Y40.9398
G01 X46.4418 Y40.9472
G01 X46.3520 Y41.0008
G01 X46.3520 Y41.8099
G01 X46.3494 Y41.8623
G01 X46.3417 Y41.9143
G01 X46.3307 Y41.9589
G01 X46.3269 Y41.9715
G01 X46.3113 Y42.0147
G01 X46.2918 Y42.0563
G01 X46.2855 Y42.0679
G01 X46.2618 Y42.1072
G01 X46.2326 Y42.1468
G01 X46.2262 Y42.1544
G01 X46.1952 Y42.1883
G01 X41.3425 Y47.0411
G01 X41.3618 Y47.0526
G01 X41.3701 Y47.0581
G01 X41.4516 Y47.1185
G01 X41.4594 Y47.1247
G01 X41.5394 Y47.1973
G01 X41.6099 Y47.2748
G01 X41.6163 Y47.2825
G01 X41.6805 Y47.3693
G01 X41.7378 Y47.4649
G01 X41.7854 Y47.5656
G01 X41.8219 Y47.6673
G01 X41.8247 Y47.6768
G01 X41.8500 Y47.7785
G01 X41.8655 Y47.8821
G01 X41.8668 Y47.8953
G01 X41.8717 Y47.9933
G01 X41.8717 Y48.0065
G01 X41.8664 Y48.1111
G01 X41.8500 Y48.2213
G01 X41.8230 Y48.3294
G01 X41.7854 Y48.4342
G01 X41.7378 Y48.5349
G01 X41.6805 Y48.6305
G01 X41.6142 Y48.7199
G01 X41.5440 Y48.7977
G01 X41.5346 Y48.8070
G01 X41.4569 Y48.8773
G01 X41.3728 Y48.9398
G01 X41.3618 Y48.9472
G01 X41.2776 Y48.9976
G01 X41.2689 Y49.0024
G01 X41.2586 Y49.0073
G01 X41.2490 Y49.0453
G01 X41.2336 Y49.0885
G01 X41.2286 Y49.1008
G01 X41.2088 Y49.1422
G01 X41.1853 Y49.1816
G01 X41.1780 Y49.1927
G01 X41.1505 Y49.2294
G01 X41.1198 Y49.2635
G01 X40.0052 Y50.3783
G01 X39.9663 Y50.4136
G01 X39.9269 Y50.4430
G01 X39.9185 Y50.4484
G01 X39.8848 Y50.4686
G01 X39.8732 Y50.4749
G01 X39.8316 Y50.4944
G01 X39.7822 Y50.5120
G01 X39.7312 Y50.5248
G01 X39.6858 Y50.5317
G01 X39.6726 Y50.5330
G01 X39.6268 Y50.5351
G01 X31.6203 Y50.5349
G01 X31.5745 Y50.5325
G01 X31.5225 Y50.5248
G01 X31.4716 Y50.5120
G01 X31.4221 Y50.4944
G01 X31.3746 Y50.4719
G01 X31.3296 Y50.4449
G01 X31.2874 Y50.4136
G01 X31.2485 Y50.3783
G01 X20.4052 Y39.5351
G01 X8.7127 Y39.5351
G01 X8.7117 Y39.5445
G01 X8.6962 Y39.6481
G01 X8.6709 Y39.7497
G01 X8.6670 Y39.7624
G01 X8.6316 Y39.8610
G01 X8.5869 Y39.9558
G01 X8.5807 Y39.9674
G01 X8.5267 Y40.0572
G01 X8.4644 Y40.1415
G01 X8.4560 Y40.1517
G01 X8.3855 Y40.2292
G01 X8.3080 Y40.2997
G01 X8.2978 Y40.3081
G01 X8.2135 Y40.3704
G01 X8.1238 Y40.4244
G01 X8.1121 Y40.4306
G01 X8.0173 Y40.4752
G01 X7.9187 Y40.5107
G01 X7.9061 Y40.5145
G01 X7.8044 Y40.5398
G01 X7.7008 Y40.5554
G01 X7.6876 Y40.5567
G01 X7.5830 Y40.5616
G01 X7.4783 Y40.5567
G01 X7.4651 Y40.5554
G01 X7.3615 Y40.5398
G01 X7.2599 Y40.5145
G01 X7.2472 Y40.5107
G01 X7.1486 Y40.4752
G01 X7.0539 Y40.4306
G01 X7.0422 Y40.4244
G01 X6.9552 Y40.3722
G01 X6.9470 Y40.3665
G01 X6.8629 Y40.3040
G01 X6.7804 Y40.2292
G01 X6.7056 Y40.1467
G01 X6.6393 Y40.0572
G01 X6.5820 Y39.9617
G01 X6.5344 Y39.8610
G01 X6.4968 Y39.7561
G01 X6.4698 Y39.6481
G01 X6.4534 Y39.5379
G01 X6.4480 Y39.4266
G01 X6.4534 Y39.3154
G01 X6.4698 Y39.2052
G01 X6.4968 Y39.0972
G01 X6.5344 Y38.9923
G01 X6.5820 Y38.8916
G01 X6.6374 Y38.7988
G01 X6.6431 Y38.7907
G01 X6.7056 Y38.7066
G01 X6.7804 Y38.6241
G01 X6.8629 Y38.5493
G01 X6.9524 Y38.4829
G01 X7.0479 Y38.4257
G01 X7.1486 Y38.3780
G01 X7.2535 Y38.3405
G01 X7.3583 Y38.3141
G01 X7.3681 Y38.3123
G01 X7.4717 Y38.2971
G01 X7.5830 Y38.2916
G01 X7.6942 Y38.2971
G01 X7.8011 Y38.3128
G01 X7.8109 Y38.3149
G01 X7.9124 Y38.3405
G01 X8.0142 Y38.3768
G01 X8.0234 Y38.3807
G01 X8.1180 Y38.4257
G01 X8.1834 Y38.4647
G00 Z2.0000
G00 X8.2070 Y38.3797
G01 F60.00
G01 Z0.0000
G01 F120.00
G01 X20.6269 Y38.3797
G01 X20.6769 Y38.3819
G01 X20.6877 Y38.3827
G01 X20.7373 Y38.3898
G01 X20.7479 Y38.3916
G01 X20.7965 Y38.4035
G01 X20.8069 Y38.4064
G01 X20.8542 Y38.4230
G01 X20.8643 Y38.4269
G01 X20.8741 Y38.4313
G01 X20.9193 Y38.4529
G01 X20.9624 Y38.4784
G01 X20.9715 Y38.4842
G01 X20.9803 Y38.4904
G01 X21.0204 Y38.5205
G01 X21.0576 Y38.5539
G01 X21.0655 Y38.5613
G01 X31.8838 Y49.3797
G01 X39.3699 Y49.3797
G01 X39.8807 Y48.8689
G01 X39.8667 Y48.8547
G01 X39.7938 Y48.7739
G01 X39.7286 Y48.6865
G01 X39.7224 Y48.6777
G01 X39.7167 Y48.6686
G01 X39.6609 Y48.5750
G01 X39.6141 Y48.4766
G01 X39.6097 Y48.4668
G01 X39.6058 Y48.4567
G01 X39.5694 Y48.3540
G01 X39.5426 Y48.2484
G01 X39.5403 Y48.2379
G01 X39.5240 Y48.1302
G01 X39.5227 Y48.1195
G01 X39.5219 Y48.1087
G01 X39.5171 Y48.0107
G01 X39.5168 Y47.9999
G01 X39.5171 Y47.9891
G01 X39.5227 Y47.8803
G01 X39.5384 Y47.7725
G01 X39.5403 Y47.7619
G01 X39.5426 Y47.7514
G01 X39.5694 Y47.6458
G01 X39.5727 Y47.6355
G01 X39.6097 Y47.5330
G01 X39.6560 Y47.4344
G01 X39.6609 Y47.4248
G01 X39.7167 Y47.3312
G01 X39.7255 Y47.3177
G01 X39.7938 Y47.2259
G01 X39.8667 Y47.1451
G01 X39.8780 Y47.1335
G01 X39.9547 Y47.0639
G01 X39.9671 Y47.0535
G01 X40.0546 Y46.9886
G01 X40.0682 Y46.9797
G01 X40.1166 Y46.9507
G01 X40.1167 Y46.8845
G01 X40.1196 Y46.8291
G01 X40.1267 Y46.7795
G01 X40.1285 Y46.7689
G01 X40.1404 Y46.7203
G01 X40.1433 Y46.7099
G01 X40.1467 Y46.6996
G01 X40.1638 Y46.6525
G01 X40.1682 Y46.6427
G01 X40.1898 Y46.5975
G01 X40.2153 Y46.5544
G01 X40.2211 Y46.5453
G01 X40.2507 Y46.5050
G01 X40.2574 Y46.4964
G01 X40.2644 Y46.4883
G01 X40.2983 Y46.4513
G01 X45.1966 Y41.5530
G01 X45.1966 Y41.0491
G01 X45.1482 Y41.0201
G01 X45.1346 Y41.0113
G01 X45.0471 Y40.9464
G01 X45.0347 Y40.9359
G01 X44.9580 Y40.8664
G01 X44.9467 Y40.8548
G01 X44.8738 Y40.7739
G01 X44.8086 Y40.6865
G01 X44.7995 Y40.6732
G01 X44.7409 Y40.5750
G01 X44.6941 Y40.4767
G01 X44.6897 Y40.4668
G01 X44.6858 Y40.4567
G01 X44.6494 Y40.3541
G01 X44.6226 Y40.2485
G01 X44.6203 Y40.2379
G01 X44.6184 Y40.2273
G01 X44.6040 Y40.1302
G01 X44.6027 Y40.1195
G01 X44.6019 Y40.1087
G01 X44.5968 Y39.9999
G01 X44.5971 Y39.9891
G01 X44.6027 Y39.8803
G01 X44.6184 Y39.7725
G01 X44.6203 Y39.7619
G01 X44.6226 Y39.7514
G01 X44.6494 Y39.6458
G01 X44.6527 Y39.6355
G01 X44.6897 Y39.5330
G01 X44.7360 Y39.4345
G01 X44.7409 Y39.4248
G01 X44.7462 Y39.4154
G01 X44.8024 Y39.3221
G01 X44.8086 Y39.3133
G01 X44.8738 Y39.2260
G01 X44.9467 Y39.1451
G01 X44.9542 Y39.1372
G01 X44.9620 Y39.1298
G01 X45.0429 Y39.0568
G01 X45.1302 Y38.9917
G01 X45.1390 Y38.9855
G01 X45.2323 Y38.9293
G01 X45.2417 Y38.9240
G01 X45.3401 Y38.8772
G01 X45.3499 Y38.8728
G01 X45.3600 Y38.8689
G01 X45.4524 Y38.8358
G01 X45.4627 Y38.8325
G01 X45.4731 Y38.8296
G01 X45.5788 Y38.8034
G01 X45.5895 Y38.8015
G01 X45.6972 Y38.7858
G01 X45.7080 Y38.7850
G01 X45.8168 Y38.7799
G01 X45.9256 Y38.7850
G01 X45.9364 Y38.7858
G01 X45.9471 Y38.7871
G01 X46.0442 Y38.8015
G01 X46.0548 Y38.8034
G01 X46.0654 Y38.8057
G01 X46.1710 Y38.8325
G01 X46.2736 Y38.8689
G01 X46.2837 Y38.8728
G01 X46.2936 Y38.8772
G01 X46.3823 Y38.9191
G01 X46.3919 Y38.9240
G01 X46.4013 Y38.9293
G01 X46.4946 Y38.9855
G01 X46.5823 Y39.0502
G01 X46.5908 Y39.0568
G01 X46.6717 Y39.1298
G01 X46.6795 Y39.1372
G01 X46.6869 Y39.1451
G01 X46.7599 Y39.2260
G01 X46.7665 Y39.2345
G01 X46.8312 Y39.3221
G01 X46.8874 Y39.4154
G01 X46.8928 Y39.4248
G01 X46.8976 Y39.4345
G01 X46.9440 Y39.5330
G01 X46.9809 Y39.6355
G01 X46.9843 Y39.6458
G01 X47.0110 Y39.7514
G01 X47.0134 Y39.7619
G01 X47.0296 Y39.8696
G01 X47.0309 Y39.8803
G01 X47.0317 Y39.8911
G01 X47.0366 Y39.9891
G01 X47.0368 Y39.9999
G01 X47.0366 Y40.0107
G01 X47.0317 Y40.1087
G01 X47.0309 Y40.1195
G01 X47.0296 Y40.1302
G01 X47.0134 Y40.2379
G01 X46.9872 Y40.3437
G01 X46.9843 Y40.3541
G01 X46.9809 Y40.3643
G01 X46.9440 Y40.4668
G01 X46.8976 Y40.5654
G01 X46.8902 Y40.5798
G01 X46.8370 Y40.6686
G01 X46.8312 Y40.6777
G01 X46.8250 Y40.6865
G01 X46.7599 Y40.7739
G01 X46.6833 Y40.8587
G01 X46.6717 Y40.8700
G01 X46.5990 Y40.9359
G01 X46.5866 Y40.9464
G01 X46.4991 Y41.0113
G01 X46.4855 Y41.0201
G01 X46.4370 Y41.0492
G01 X46.4370 Y41.8099
G01 X46.4348 Y41.8599
G01 X46.4334 Y41.8760
G01 X46.4251 Y41.9309
G01 X46.4132 Y41.9795
G01 X46.4103 Y41.9899
G01 X46.4069 Y42.0002
G01 X46.3898 Y42.0472
G01 X46.3686 Y42.0926
G01 X46.3638 Y42.1023
G01 X46.3584 Y42.1116
G01 X46.3325 Y42.1545
G01 X46.2996 Y42.1991
G01 X46.2892 Y42.2115
G01 X46.2554 Y42.2484
G01 X41.4743 Y47.0295
G01 X41.5023 Y47.0502
G01 X41.5149 Y47.0603
G01 X41.5917 Y47.1298
G01 X41.6033 Y47.1411
G01 X41.6799 Y47.2259
G01 X41.7482 Y47.3177
G01 X41.7570 Y47.3312
G01 X41.8074 Y47.4154
G01 X41.8128 Y47.4248
G01 X41.8176 Y47.4344
G01 X41.8640 Y47.5330
G01 X41.9009 Y47.6355
G01 X41.9058 Y47.6509
G01 X41.9334 Y47.7619
G01 X41.9352 Y47.7725
G01 X41.9509 Y47.8803
G01 X41.9517 Y47.8911
G01 X41.9568 Y47.9999
G01 X41.9517 Y48.1087
G01 X41.9509 Y48.1195
G01 X41.9496 Y48.1302
G01 X41.9352 Y48.2273
G01 X41.9334 Y48.2379
G01 X41.9310 Y48.2484
G01 X41.9043 Y48.3540
G01 X41.8678 Y48.4567
G01 X41.8618 Y48.4717
G01 X41.8176 Y48.5654
G01 X41.8128 Y48.5750
G01 X41.8074 Y48.5844
G01 X41.7512 Y48.6777
G01 X41.6833 Y48.7696
G01 X41.6728 Y48.7820
G01 X41.5995 Y48.8626
G01 X41.5917 Y48.8700
G01 X41.5108 Y48.9430
G01 X41.4234 Y49.0081
G01 X41.4146 Y49.0143
G01 X41.3320 Y49.0641
G01 X41.3269 Y49.0802
G01 X41.3098 Y49.1272
G01 X41.2886 Y49.1726
G01 X41.2812 Y49.1870
G01 X41.2554 Y49.2299
G01 X41.2463 Y49.2433
G01 X41.2162 Y49.2833
G01 X41.1828 Y49.3206
G01 X41.1753 Y49.3284
G01 X40.0653 Y50.4384
G01 X40.0575 Y50.4459
G01 X40.0202 Y50.4793
G01 X39.9758 Y50.5125
G01 X39.9622 Y50.5213
G01 X39.9285 Y50.5415
G01 X39.9192 Y50.5469
G01 X39.9095 Y50.5517
G01 X39.8641 Y50.5729
G01 X39.8541 Y50.5768
G01 X39.8068 Y50.5934
G01 X39.7583 Y50.6058
G01 X39.7478 Y50.6082
G01 X39.7371 Y50.6100
G01 X39.6876 Y50.6171
G01 X39.6322 Y50.6200
G01 X31.6269 Y50.6201
G01 X31.6161 Y50.6198
G01 X31.5661 Y50.6171
G01 X31.5166 Y50.6100
G01 X31.5059 Y50.6082
G01 X31.4573 Y50.5963
G01 X31.4469 Y50.5934
G01 X31.3996 Y50.5768
G01 X31.3896 Y50.5729
G01 X31.3797 Y50.5685
G01 X31.3346 Y50.5469
G01 X31.2915 Y50.5213
G01 X31.2823 Y50.5156
G01 X31.2735 Y50.5093
G01 X31.2335 Y50.4793
G01 X31.1962 Y50.4459
G01 X31.1884 Y50.4384
G01 X20.3700 Y39.6201
G01 X8.7864 Y39.6201
G01 X8.7814 Y39.6540
G01 X8.7784 Y39.6699
G01 X8.7519 Y39.7756
G01 X8.7471 Y39.7910
G01 X8.7121 Y39.8885
G01 X8.7057 Y39.9034
G01 X8.6589 Y40.0017
G01 X8.6031 Y40.0953
G01 X8.5943 Y40.1089
G01 X8.5327 Y40.1921
G01 X8.5260 Y40.2006
G01 X8.5190 Y40.2088
G01 X8.4456 Y40.2893
G01 X8.3651 Y40.3627
G01 X8.3569 Y40.3697
G01 X8.3484 Y40.3764
G01 X8.2608 Y40.4410
G01 X8.1675 Y40.4973
G01 X8.1533 Y40.5051
G01 X8.0597 Y40.5494
G01 X8.0498 Y40.5538
G01 X8.0398 Y40.5577
G01 X7.9371 Y40.5941
G01 X7.8315 Y40.6208
G01 X7.8210 Y40.6232
G01 X7.8103 Y40.6250
G01 X7.7026 Y40.6408
G01 X7.6918 Y40.6416
G01 X7.5830 Y40.6466
G01 X7.4742 Y40.6416
G01 X7.4634 Y40.6408
G01 X7.4527 Y40.6394
G01 X7.3450 Y40.6232
G01 X7.2392 Y40.5970
G01 X7.2288 Y40.5941
G01 X7.2186 Y40.5907
G01 X7.1161 Y40.5538
G01 X7.0175 Y40.5074
G01 X7.0031 Y40.5000
G01 X6.9052 Y40.4410
G01 X6.8963 Y40.4348
G01 X6.8090 Y40.3697
G01 X6.7281 Y40.2968
G01 X6.7203 Y40.2893
G01 X6.7129 Y40.2815
G01 X6.6399 Y40.2006
G01 X6.6333 Y40.1921
G01 X6.5686 Y40.1044
G01 X6.5124 Y40.0111
G01 X6.5070 Y40.0017
G01 X6.5022 Y39.9921
G01 X6.4558 Y39.8935
G01 X6.4189 Y39.7910
G01 X6.4155 Y39.7808
G01 X6.4126 Y39.7704
G01 X6.3864 Y39.6647
G01 X6.3702 Y39.5569
G01 X6.3688 Y39.5462
G01 X6.3632 Y39.4374
G01 X6.3630 Y39.4266
G01 X6.3632 Y39.4158
G01 X6.3688 Y39.3071
G01 X6.3846 Y39.1993
G01 X6.3864 Y39.1886
G01 X6.4126 Y39.0829
G01 X6.4155 Y39.0725
G01 X6.4189 Y39.0622
G01 X6.4558 Y38.9598
G01 X6.5022 Y38.8612
G01 X6.5096 Y38.8468
G01 X6.5686 Y38.7488
G01 X6.6333 Y38.6612
G01 X6.6399 Y38.6527
G01 X6.6470 Y38.6445
G01 X6.7203 Y38.5640
G01 X6.8008 Y38.4906
G01 X6.8090 Y38.4836
G01 X6.8175 Y38.4769
G01 X6.9052 Y38.4122
G01 X6.9143 Y38.4065
G01 X7.0079 Y38.3507
G01 X7.1062 Y38.3039
G01 X7.1161 Y38.2995
G01 X7.2186 Y38.2626
G01 X7.2340 Y38.2577
G01 X7.3450 Y38.2301
G01 X7.4527 Y38.2138
G01 X7.4634 Y38.2125
G01 X7.4742 Y38.2117
G01 X7.5830 Y38.2066
G01 X7.6918 Y38.2117
G01 X7.7079 Y38.2131
G01 X7.8210 Y38.2301
G01 X7.9267 Y38.2563
G01 X7.9423 Y38.2608
G01 X8.0398 Y38.2956
G01 X8.0548 Y38.3016
G01 X8.1533 Y38.3482
G01 X8.1675 Y38.3560
G01 X8.2070 Y38.3797
G00 Z2.0000
G00 X7.8787 Y38.1566
G01 F60.00
G01 Z0.0000
G01 F120.00
G01 X7.9474 Y38.1394
G01 X7.9689 Y38.1332
G01 X8.0684 Y38.0977
G01 X8.0893 Y38.0894
G01 X8.1848 Y38.0443
G01 X8.1981 Y38.0375
G01 X8.2112 Y38.0302
G01 X8.2953 Y37.9797
G01 X8.3142 Y37.9675
G01 X8.3991 Y37.9046
G01 X8.4109 Y37.8954
G01 X8.4222 Y37.8856
G01 X8.4949 Y37.8197
G01 X8.5110 Y37.8041
G01 X8.5820 Y37.7259
